Roblyat/algorithmic_payload_estimation/ros1/payload_estimation/data/result/effort/cartesian_effort_s_results.csv
Actual Effort Joint 1,Actual Effort Joint 2,Actual Effort Joint 3,Actual Effort Joint 4,Actual Effort Joint 5,Actual Effort Joint 6,Predicted Effort Joint 1,Predicted Effort Joint 2,Predicted Effort Joint 3,Predicted Effort Joint 4,Predicted Effort Joint 5,Predicted Effort Joint 6,Variance
0.2990457807861737,1.2151668174593329,-0.0313849061940653,-0.2092465135505466,-0.0288134267477484,-0.1154859324788421,0.29334799318939986,1.218586271395452,-0.03289639569038627,-0.20674770926279962,-0.031052458134126937,-0.09608366258908063,0.02016569065550272
-0.8582897873323945,-0.6510923120602222,-0.5515639574628136,-0.7894508570671211,-0.2024074633469036,-0.9181049612226332,-0.8356443071884314,-0.6452297467455992,-0.5555235507445104,-0.7992789293223268,-0.22700720513239503,-0.5693355341281858,0.020633577578237527
1.093235359613182,0.7792716080080365,0.4157792417806316,0.6808868398616531,0.7159829026498472,-0.8406203437945872,1.0476514418198803,0.7635900013092396,0.3950150739210585,0.7132591638606982,0.693669552954816,-0.6592321149109921,0.024376072184459197
0.1011484725084201,-1.3458292242578418,-0.0412577668810052,-0.069886780382047,-0.0657215625050526,0.0120322476817385,0.11139375513948835,-1.3395707005463464,-0.039716060903174366,-0.06625228968414376,-0.0659452540012353,-0.0006061096646590158,0.020579104372039303
1.6665441792494016,-0.6181115807625827,-0.989107045573094,3.4567691029004792,-1.3751820466496003,1.940256398728282,1.8031383861343784,-0.6542553299780138,-1.0338665129631863,3.533956162237189,-1.3789472311354984,1.8836282656975527,0.028063258450089
1.2143075563000616,0.6099751376553835,-0.2057055374212726,0.9801639779901362,-0.5854037139896917,-0.2648893000649418,1.2158559115168828,0.6162685174981561,-0.22473043294394301,0.9869219467528865,-0.5701496410247273,-0.3524034086949541,0.02089300308495695
0.4307675990610797,1.2945920576880066,-0.206412988907041,-0.8387216439397601,-0.3307279962475684,0.0890453754577522,0.41922788896499696,1.281502499479302,-0.20749358999773904,-0.8280159844639456,-0.32406440097292943,0.16143382103109616,0.020640375212159945
-1.899302074571348,-0.7272631914000478,-1.7573542217969855,1.5619372704127454,-2.5187582702519022,-2.0844050213464573,-2.0172717928032853,-0.7554081430046153,-1.7716710908223376,1.532769757184269,-2.53968327405164,-1.9794254565422307,0.032442008716507764
0.9706318834540963,-0.1049432490593733,-0.7627266163040193,0.6193992282783968,-1.0701670761732809,-1.1759955626101417,0.981619878865331,-0.1028254865643703,-0.7437680232651473,0.5884858603359362,-1.1083004719571363,-1.109867235598358,0.02638274925267553
1.838698452262527,1.0379950787795909,-0.1966435713941806,1.6447537376111068,-0.6614950428352949,0.3371156191659043,1.851744127846132,1.0496981240053174,-0.19174097811219326,1.6489700622042847,-0.6649218632851444,0.3197907765279524,0.0221128121102791
-0.1721107212768821,-0.7419898867307849,2.605037316660231,-0.8558810590307441,2.2104951611265253,1.45619752633977,-0.17012866247841885,-0.7494362659676881,2.6101404918508706,-0.8559632131705257,2.204461578655355,1.4731569020914321,0.02261761847691418
-0.2511759917488684,-0.7892451189300237,-0.1332828939650251,0.3881093354917584,-0.1367100973451323,0.326059864414246,-0.3092399831657531,-0.7989500556689109,-0.09688897540127073,0.35503214488107915,-0.144993309640995,0.4783777772827307,0.02063726573261676
1.219456389016678,0.6923828404121257,-0.2172923118390489,1.0440246761186418,-0.629841221726701,-0.2572975911674852,1.2093243431506835,0.6988259669965373,-0.23808953846901204,1.0462971588300434,-0.6032543475876082,-0.38950865929655265,0.020997857316302493
1.825399499093877,1.000018787946289,-0.1908695986571915,1.6120749680773698,-0.6439532486667362,0.3148734756243296,1.8350523444125884,1.013982851044375,-0.19332676286467176,1.6069242944682856,-0.6463163205489764,0.31977901506616035,0.02189080349118172
-0.3121344595327314,1.4055622233663967,-0.1876008769247097,-0.4368901173346441,-0.2402436586326404,-0.2273668968664159,-0.30628737570259545,1.4175141212820108,-0.19709260264835393,-0.4362905529596901,-0.23844265087882377,-0.17883230240477133,0.02027056481031736
1.2085933360505696,0.7817291007202347,-0.1763396173339429,-0.5992520577786724,-0.2274701755299221,0.0167583580716205,1.206745978512572,0.7779455830495863,-0.16489635632660793,-0.591651572677165,-0.23223032017131118,0.044024506787536666,0.020299431628856446
2.629972829627766,1.7742912975059908,-0.6583804369968189,-2.0359606800370798,-0.737303464896258,1.4720580354143131,2.6362375424353104,1.7692125942492112,-0.7130639749261718,-2.070946058497384,-0.7155479775460662,1.377138511823432,0.023013288355968775
0.2749575754188236,0.6324987026089859,-0.3682311218257487,-1.0269216769836833,-0.320142307538291,0.6926575040825101,0.2047998969364926,0.62427338307225,-0.3390908979740743,-1.0680314849075785,-0.31804675509374647,0.6086050483318104,0.021044825267054257
0.8388881738261612,1.0063931506762334,-0.1932538764894727,-0.7288114567522411,-0.2687382292286229,0.0722407087255473,0.8300957989849849,0.9967816690780182,-0.19127179316183174,-0.7271240513723569,-0.2670061742987855,0.06823279935997562,0.020300647608763434
1.3446155934269055,0.7124103993401535,-0.1279830204525895,-0.5101160195543472,-0.2290629197115161,0.1183804656740362,1.3787516844140555,0.7276397687815006,-0.1565493202278958,-0.5188468827320776,-0.2143298151440831,0.04688793405148317,0.020306383346720913
-0.3700716403716796,-0.2094484925524648,0.0213003676976808,1.1672191736563595,-0.2833610000348757,-0.8380555647541023,-0.4886089261772213,-0.23692482125534298,0.09220320532313053,1.1181727296989266,-0.31727606734102665,-0.6538190494684386,0.021091923172768368
0.3585332484689961,-1.3496436733446553,0.1378777296671071,1.603152101969756,-0.1396911945397893,1.7484018483957748,0.3300589657724231,-1.3081584929534529,0.1061101191103262,1.5526518205235789,-0.1656988595641451,1.9226727165660122,0.022727019736194343
0.2052474989336499,1.141792245540307,-0.0252490415005373,-0.2060128832165678,-0.0237839640808488,-0.1224974893506623,0.20240275026071686,1.1425883422268726,-0.02268919644620837,-0.20514778667575229,-0.025932039285635256,-0.11786871704316582,0.020142199826537144
-0.2269385370315533,0.5783432113166429,0.060406722149977,-0.2987467944870781,0.0363127557364019,-0.1788022072457639,-0.20189220825250231,0.593061087058004,0.030013035938281973,-0.28394326291140715,0.050951815369444375,-0.2651726149561,0.020299640731401503
0.1682224598997234,-0.265267946018825,0.0743759425227471,0.2718510341391971,0.0684805720489145,0.4315540443468796,0.1454459969245363,-0.2717254760605101,0.07459461576354443,0.303146194869214,0.11267600717110327,0.11314978596783476,0.020216372753963874
2.361124019062385,1.453885221279817,-0.6868681361425412,-2.5553676961801903,-0.451866430861563,2.1422598655788,2.440026725003918,1.481567289046552,-0.6820722673237469,-2.5076492683137985,-0.45450659523476133,1.9456774256177596,0.02693096145517132
-1.1622356434692258,1.161214751448114,0.3284322362878595,0.0891627748736549,0.4500334683770164,-0.1843520580575217,-1.1901154254633184,1.1550016115290873,0.3432333307478075,0.0766671678215971,0.46130772084507043,-0.2926087827217998,0.02191639305560472
0.6015469948003899,-0.4247383567511484,2.209629016176204,0.9981707204766892,2.4281709510388008,-0.8261786974157228,0.6771352272048716,-0.40467141739168255,2.251237183078956,1.0233000684532954,2.334586795456289,-0.7794810187442636,0.028110189886049575
-0.2419083814485738,-1.2143781315725182,-0.0173562036868646,-0.1471394718981443,-0.0370598017641428,0.0220439906060644,-0.24140376648028905,-1.2150286760311246,-0.01815108856317238,-0.14818837899360915,-0.03697700045995589,0.032385251917730784,0.020242277762946237
-0.6605865855220887,-0.9002836436084473,0.0293788631512629,-0.2641493184326771,0.0371363467352506,-0.1518698696879162,-0.6795666481352782,-0.9072423400461957,0.02795460326660759,-0.260757563983816,0.018811925987392897,0.020084049687284278,0.020213001356871707
-0.4640360601869369,-0.6249987376004907,-0.1107179739986019,0.1252279055325172,0.0166284272144603,-0.4513281379312275,-0.46633995374577353,-0.618787526087317,-0.10384815302631978,0.0901007915072114,-0.026135456208521646,0.2363590682798531,0.0203373538196982
0.9232936306092095,1.7609701482204336,0.1388725637586263,1.1001976369349702,0.8592160345180626,0.8952649951490147,0.9699695660862062,1.7812454297755949,0.024522423170310503,1.1284692755669994,0.8375251299846695,1.1889478940793197,0.037617613943978945
-0.4409351958097937,0.4593553526308813,-0.2682371289981732,0.367936760112577,-0.4354146098253189,0.3065583001027159,-0.47603305403777085,0.4479760918800366,-0.22661959887091143,0.3353681976414009,-0.45853405977595685,0.3688895139566739,0.020354153119633345
0.9660613703995016,-0.0964566746038931,-0.3813474470552109,0.4421960953273878,-0.9372095614391728,0.9681621659532226,0.9598146766229547,-0.09939393016179565,-0.5385594705967378,0.35323726579963477,-0.8085584117566214,-0.5196877722228237,0.022830774138931254
-0.188517530498744,0.656026376482662,0.0479981713518179,-0.280184328967764,0.0267631494827522,-0.1690740465387537,-0.16708020154874248,0.6682744646338961,0.021231920414720662,-0.26727479433066037,0.03913459084878923,-0.247958052004833,0.020251097136309404
-0.0924321511868886,0.3236585109383906,-0.0421927352453001,0.1725792749223218,-0.1218999938727298,0.0131922555737495,-0.10889157675228489,0.30890638212872545,-0.06493758398437421,0.17219720905404756,-0.11994494097370989,0.048758646171336295,0.0216128169843654
-0.9305127785590072,-1.332632783843809,0.6714030824691495,-0.1080664879188099,0.6006345683734711,-0.944547883762458,-0.9326620507849839,-1.330188825324285,0.6759583284547261,-0.10646680557351829,0.5646997683734298,-0.5123613283358281,0.020766474484680664
0.1570004851741912,-0.2397699571464669,0.7193870599088037,0.7099888397682901,0.5061039564805472,0.4198471512463367,0.06917052298058479,-0.27419155228380987,0.6994327206671187,0.6739616419408776,0.47812618345051305,0.44809378562422353,0.0225242926716544
-0.1921117503819095,-0.1916137271679376,-1.788330921183387,-0.4503404669632601,-2.261874968753992,-1.8628348803383263,-0.1608431056779409,-0.20216618508834472,-1.9063076586139687,-0.4520346842746221,-2.2748978208301196,-2.2672025817992107,0.03410080118568687
1.5806900999273157,1.257717914525834,0.1062967853051457,-0.1476008767934769,0.4821784218866263,0.1526731518691869,1.619457884275107,1.278413409566383,0.1212614269597907,-0.10966453021319467,0.46950986313640897,0.07840652578670415,0.022900384466374823
0.1883607238456449,-0.2041118439481069,-0.8835083487638201,-0.08605001636329,-0.8271356411283015,0.1102194167639479,0.2879476005500692,-0.13473566611037313,-0.9053138888102694,-0.11568622976710685,-0.8376756664656568,0.3245185682972078,0.02209973938415971
0.4202193286461173,1.3049111007551224,-0.0337072791165913,-0.2310464201031908,-0.0142233586038649,-0.1345084951096603,0.40709388153391046,1.3098696842955633,-0.03892327606490653,-0.22705571475921715,-0.017981365538616956,-0.08499932778431685,0.020230824229414857
-0.598170654161651,-0.1967761559271925,-0.1906931065292444,-0.0979031125113586,-0.239550072437487,-0.0065686302903332,-0.5838927147410686,-0.1942545933427482,-0.2103452579867735,-0.08485421363889145,-0.24658644800820184,-0.07339984213831485,0.020578889309035453
-0.0230704920677234,0.9075338192347602,0.0080736273092011,-0.2289946873313379,-0.0016094342978179,-0.1501571938862516,-0.013107201293678372,0.9127446951085858,-0.0025464554878453782,-0.2236011487009364,0.0025281503667429206,-0.18663091476992122,0.020156750932968925
2.1441423934464128,0.3954250861129186,-0.1494049165402572,-0.4203293041409458,-0.168265912729467,-0.2960829716201365,2.0995520123174174,0.3903023615357597,-0.11835346111865874,-0.38034728264528894,-0.19636167232829393,-0.006813161875470541,0.02111174212992467
1.36749889991146,1.0341333733615794,-0.2550682773351312,-0.3021441033988735,-0.284613615451488,0.0648849822894413,1.378598633783895,1.0410547132985357,-0.2526681535678108,-0.30678579006530526,-0.28460159409587504,0.20932142216042848,0.020459322433388827
1.893787756253376,-0.4206174833907188,2.811150307283118,3.116495158468237,1.9888295582162832,1.9510454438094251,1.8597725300015782,-0.4090585765004562,2.7788804481579064,3.0945505543032255,1.9656447369127363,1.881373712396453,0.025789928926435557
0.522273848157454,-1.9902691893568407,-0.2343485131948162,2.787669676546355,-0.6644493134329352,1.7550486592188612,0.625765869494785,-1.9901262639436936,-0.24957844402047158,2.79850420938061,-0.7085919180105975,2.085761125879799,0.03764372394894594
3.0933722517065454,1.0503883499912472,0.2801658497426374,0.5900368400076569,0.0107157100199396,-1.3678484100184487,2.9519300404340356,1.0115497625604348,0.2350326590712939,0.5349329252885582,-0.00022736788332622382,-1.013621693738969,0.031234126525965855
3.155398573634791,1.252677060012092,0.1535443622215817,0.3790443506958483,0.0169486108736178,0.2834051065384798,3.201335802092217,1.244146933530601,0.06866306804022315,0.3250470275170301,0.06490635584214033,-0.354687617487798,0.024130343427088696
-0.5168134320522104,-0.5194084762071283,-0.7491576792981831,-0.8359942052599211,-0.1359618266961642,-1.8293638482051708,-0.48293732413594626,-0.5396268256836265,-0.7686270533267816,-0.8387723122641546,-0.18617792764143815,-1.6686609604221303,0.023672097853726093
-0.1345178491415889,0.766115435233508,-0.0008806954936219,-0.2539332907377439,0.0220951312736787,-0.2567358601056655,-0.1334803773506792,0.7613229657572447,0.016492489578013192,-0.2569653813991408,0.012318979060182755,-0.20133363236891455,0.020198187356107844
0.357650627948056,1.2636961388149617,-0.0420039775521714,-0.2086675225175708,-0.0385500870247541,-0.0775139090999107,0.34519069359566856,1.2628855252714857,-0.03521016141985456,-0.2156767359845162,-0.0390613534896147,-0.07090691393386805,0.020196078359418557
1.186205120415705,-0.8043997251373421,-3.76229113976572,-0.2420693342706254,-2.153754858049666,0.0343228035881935,1.0729785679488941,-0.8393532263314682,-3.7618849052546466,-0.30844085757325956,-2.020185096168916,-0.8393883185963205,0.03527806581097054
0.1936851082980813,0.9712785262327794,-1.2101146846500903,-0.4693957353785368,-1.5381251284675692,-0.9808134036922836,0.18521772962458272,0.9739098102782009,-1.191278896939366,-0.47567270003833073,-1.5324760551525287,-0.8771353957163228,0.02223170562018567
-0.2136063121551883,0.8114795295007462,1.909855515942137,-2.3363023389529154,2.905476934281448,-1.940576688116462,-0.1522221098744012,0.8203422756355394,1.8464459504562,-2.277278820266929,2.8173708032854847,-2.090653837094578,0.08391220540181593
1.1410005728837578,0.0486934257261323,-1.7252655501505048,1.446088415623917,-2.2940133732241423,-3.1788143959875974,1.3412640901765371,0.05253921851476662,-1.5523783290695974,1.5966043228874014,-2.3560272634358626,-2.513090369746351,0.052323068163232456
0.1893886611687674,0.9683774604230964,-1.2378237972536086,-0.5360947975051649,-1.5705528164566982,-0.8940061962960844,0.16289088506209737,0.9654825171664925,-1.2102248255623635,-0.5249257194002439,-1.5588562669063322,-0.8863385911390651,0.022646478768009792
-0.020755351587761,1.6041135026816842,-0.8774923287264601,-1.0831477346245468,-0.8902880943545856,-1.055503903143793,-0.08172592102505405,1.5482774920234306,-0.792216603716497,-1.1470428069981153,-0.8703957943785099,-1.5243014934894745,0.03321140456185362
2.4523626881195404,1.381557775691095,0.33240056715761,0.2653389756348194,1.5876116228741253,-1.396175794341613,2.4345384025334056,1.3881780316780805,0.3205887585513665,0.28477957587523406,1.5653582855647983,-1.3250370868645405,0.023982643376441792
-0.3001584263782635,1.187207510934411,0.1599781497337395,0.3586470881933237,0.2529414913969545,0.7960293529282542,-0.3321271796557994,1.1564155003161432,0.22091755230394483,0.31353602578769824,0.26182291878149044,0.5302832929119177,0.020482543088384098
-0.0284242730676677,-0.3656090430214367,0.0397907927082034,0.3385096951668334,0.1506781197218673,-0.4021149464909527,-0.024107852875658864,-0.36459501077933965,0.05072768424224705,0.29558432688099856,0.10330122092364036,0.0830990658942028,0.020226193118794533
0.135539995216649,-1.3529725651334763,-0.0624711005265605,-0.0332441233186463,-0.0838372721985025,-0.0126329927000848,0.13741879905774113,-1.3472019625387475,-0.061709187796623155,-0.02665529065075134,-0.08769146079430357,-0.013252958557131933,0.02107267432204879
-0.1334745166791356,-1.821830733713116,0.052374784860617,1.0253721142608256,0.0491727729277591,0.0978636731043172,-0.15261899056804396,-1.835891935776317,0.05721786184994926,1.0078005127766119,0.0006273093704294297,0.6362042002365342,0.021466923680889927
-0.2893201013457067,1.3768601702852723,-0.0817076825935549,-0.0235949495417911,0.2005187862003963,0.1376996101810173,-0.32392412083436284,1.361208147430034,-0.061813257209905714,-0.028732333499419838,0.18869011545120884,-0.01357911514423904,0.022358869058734576
-0.9495427388696532,-1.330480034495573,0.6573530006402908,-0.1110558230674815,0.5914086664287859,-0.9280965745230824,-0.9504107006041522,-1.328217298876325,0.6565477145149998,-0.10577804756303522,0.5566525675503726,-0.49268173675227445,0.020693672360223736
2.0698451781957,0.2708910046123114,-0.2636750300652729,-0.2416732654614608,-0.0327962727599828,-1.195018776461492,1.8302999954830739,0.14654160984377995,-0.16117323724256494,-0.08989671161134538,-0.07076921348107135,0.049286522287729895,0.021723487228832716
1.0654131247937593,0.7407904755889549,0.1208686320529623,0.4431142491308407,-0.1036805805652464,-0.1699859019256563,1.0340107796719167,0.7498199487811235,0.1341467732190722,0.3846679883372417,-0.09986545241508793,0.001178015416371636,0.02093667497662438
-1.0807849952295363,0.3965989292436515,0.271633175051186,-1.3107243232608483,0.6788219448477593,0.7137057344898575,-1.0953298247386556,0.4299683841047681,0.25372088128551695,-1.321611942515574,0.6961970909401316,0.7086906274307694,0.021662629461772276
0.0870590507523276,-0.3022154827296652,0.0716569317812859,0.3002570784152186,0.0857750438844461,0.2277461240237267,0.09055054122836736,-0.2985444261523753,0.06782989234761772,0.30023256916388164,0.08312349789093787,0.212304648499412,0.020274246098985038
1.6462688620347488,-0.50080030080458,-1.0063300850640833,3.237942135105424,-1.39468034387803,1.8625406469456247,1.6807967356326117,-0.5295645478661299,-1.0202333441816336,3.244849678642481,-1.4113574125767627,1.7988856088704779,0.026464557654946652
0.2506441792720966,1.1799733173306304,-0.0311584045560868,-0.1999105800463263,-0.0304597002575701,-0.1083323957771609,0.24555630894292335,1.180222233198947,-0.026340949894347432,-0.20409814932509107,-0.031684067822880024,-0.1032185167496209,0.020151701245218312
1.3807395827156754,1.3679669046325684,0.8067337068792083,-2.609334231872006,2.196091737131099,-2.5244043536918546,1.3860753338015002,1.3576505690551812,0.7776778243683111,-2.5913351888709713,2.210397965897755,-2.4875389527405787,0.03057339360289263
-0.1216249719264524,-1.35628705723883,-0.1248548912141217,0.120043879715575,-0.1565265562983974,0.8219802218351545,-0.12197841207262172,-1.3618548684989946,-0.08838290274206884,0.16658878818407175,-0.038491121239076165,-0.17240182180103147,0.020170940424506234
1.0677794573857826,1.028847847936738,-0.6470919439599534,0.5321263979283963,-1.3295485895523391,1.03626901233349,1.0645006415309126,1.0342836017164245,-0.6576162136161656,0.5359722514444911,-1.339547666076669,1.0564061414370371,0.021480254749519367
0.1675620304159192,-0.2974315321791708,3.0665258905670694,0.4592107564792559,2.81963556258395,-1.8316757486591453,0.19841784107120475,-0.284845277661816,3.1112943012021788,0.4577921164232066,2.8337984681456874,-1.715912985146133,0.022100731558985565
0.0749858903065936,1.0190021733555783,-0.0088501961654745,-0.2115193523228848,-0.013804382277263,-0.1397987395398661,0.07951631717878627,1.0217687222823315,-0.011959217437379266,-0.2099825504456021,-0.01275461457134952,-0.15531077230843948,0.020139095393076623
-0.1881672371107208,1.109439323926912,0.2529714208009798,0.4324102753083439,0.3344383238927317,0.3544004896430183,-0.2135855147971597,1.1236003155447634,0.20847440909074066,0.44079057066915084,0.3222916986424025,0.5824435936119698,0.020572278175620518
0.0818010663096011,1.6102090818463413,-0.9278982020427208,-1.1486858277245038,-0.8551224921995518,-2.255488229091964,0.19487922956034254,1.6772036389860432,-0.9833018472559161,-1.0895663910633857,-0.883839924208587,-1.7355840723830624,0.03949292628815443
-0.6707702547537322,0.3094472790564842,0.0297606226974905,-0.6545737509980394,0.1824307952343484,0.0646625226644031,-0.6769499683300637,0.3060867327635606,0.05063861510643619,-0.6566422950511424,0.1733324213960259,0.15802779298610403,0.020345014609261802
0.3862688868224653,-0.2927642644786659,-1.061283348588774,0.0471834348830621,-0.9074899536817076,-1.2430710155821931,0.38989116437460325,-0.28255881564109586,-1.0531600173235347,0.054805530348858156,-0.9597056639377115,-0.786346695960674,0.02084651316494729
1.419664932920896,-0.7429880981611875,-4.248971349614118,-0.2534412821236292,-2.3222404558053547,-0.864495082454772,1.4262866250860498,-0.7293602082515918,-4.330694699675405,-0.2391435737104075,-2.362691292110412,-0.622290598876134,0.02635740409689874
-0.319923368213503,0.6880164151813383,-0.4115811484445204,-1.394476535110292,-0.0998247735970991,-1.218887925533087,-0.3145488146210482,0.6860851108397128,-0.4322757268987516,-1.3715113774198926,-0.08728361004250473,-1.326112342052511,0.02106986886005985
0.4044034071119986,-0.328429093887036,-0.8951511042374674,0.0572732032598641,-0.8274821270500393,-0.6990053752553564,0.4270769497193214,-0.3196423323406634,-0.8983662411537807,0.059591393016944494,-0.8309784768598547,-0.5985516517430369,0.020870843116035764
-0.4186295345451844,0.6614542342678262,-0.3963975629754036,-0.4138329520917323,-0.6665120863146429,-0.3108896973202502,-0.3192789128829645,0.6658164130060413,-0.37778625132250454,-0.35778512852039057,-0.6252208682581113,-0.1392600771287107,0.023075541029399183
-0.7173171438859793,-0.8342165031283022,0.0539487783927139,-0.2684701496075437,0.0191095095215532,0.191201140135843,-0.7291050996013837,-0.8429877185085388,0.058615425969946955,-0.2760677644412226,0.0299098208547548,0.0760938253151835,0.02021612130519629
-0.8805234384530103,-1.496554206090217,-1.023460201842704,-0.2769288950314378,-1.3396797746420634,1.0406482493581637,-1.0435778012115406,-1.5455157238468473,-1.1384071575048438,-0.3174082907698903,-1.3403048807081177,0.9444682003304479,0.025926559898721002
1.2586652503319733,0.8841196432906878,-0.2456668560539818,1.1701142345713764,-0.7384544201845782,-0.2151115193820749,1.2231682526482928,0.8906152674103396,-0.2701375459037081,1.1608664835601985,-0.6867321481590807,-0.5021105860687385,0.021950632014010985
0.9337532626931532,1.3058584498060293,-0.2239170760996457,-1.994023596139296,0.2966495562264356,0.4490580302036163,0.924116004473035,1.3032115652029006,-0.21368393399916386,-2.0001310931831995,0.2984328863403789,0.2709995777295262,0.021300044320760214
-0.5166179707040561,-0.2648447025529767,0.4746568715567291,-0.1128326721324631,0.5192703241869809,0.4179153691781119,-0.5435945704284677,-0.328614842001798,0.5243227254413796,-0.11002355412892939,0.5309948132462523,0.4193334251140186,0.02423680656502797
-1.172651237393851,-1.1407929174311675,3.7362314977232383,2.447991947245335,3.3534667566721645,2.1968222810864195,-1.1550481867925555,-1.1369658080634508,3.7591602649549714,2.4367117942751975,3.357952444340299,1.9018226854786917,0.026083019658890982
-0.9783309035502442,0.4598685049821395,0.1385815246318051,0.1887132668489387,0.1062243486208098,0.1022778080756999,-0.9890335858376602,0.4633722448061235,0.16455413673566,0.16771892525571275,0.10701803453821412,0.1980707370530581,0.020766021839292825
0.0222441230197656,-0.7582205602121092,0.9670241088659955,-0.143738981832868,0.6771116445431895,-0.4289463778677142,0.05445254378582831,-0.7245546367248608,0.9910979394617243,-0.14906449044087822,0.7331443292659969,-0.5374078207387356,0.023664383544371226
2.880216234403368,1.881892829895934,-1.051952951685509,-3.597732761099258,-0.688303678193301,2.818800773120276,2.904889407964447,1.9006703565551106,-1.058690235245649,-3.5743394784053635,-0.6815720690688067,2.4322140690092056,0.028671082501766143
1.0593653891419927,0.7941033843467246,-0.4807712244474813,0.4087800023937069,-0.5912199046603882,-0.0357655609444446,1.0128649047007912,0.7545222932656088,-0.3851474823572971,0.3790881436405016,-0.6501916116008033,0.41485560464207083,0.02125936193363004
1.1818292756874482,-0.2834303831981867,-0.8333418746049999,2.2013060141883143,-1.1943599517082315,1.45607926383353,1.1080421001604464,-0.28752944034408756,-0.8195522989308301,2.161847674542855,-1.1834440924067167,1.427936164840503,0.023211077416398218
-0.8681944567187584,-0.1834319013008174,-0.5823200019369906,-0.4659042534837375,-0.5692458699669563,-0.4207369278597666,-0.8666039871081921,-0.18415698051262552,-0.5857857832152149,-0.466109143850872,-0.5740601651082216,-0.3944404924841365,0.020281175088399273
0.5229277964957462,-1.0634529014906045,1.256992931546878,1.674332926611466,0.6687693627073872,0.943079824494784,0.50730422294032,-1.06702450309308,1.256680275199642,1.655403663389336,0.6811137437848629,0.741466350886185,0.02261332921476339
-1.698277450207685,0.4381554007036669,0.7872058445961038,-2.0211173630952968,1.4768279925753711,1.4839574997342913,-1.751477223308484,0.4197722992951185,0.8043622340915135,-2.0673979194918957,1.4870431713220569,1.4061928425835504,0.02833922287511087
-0.2959808529580773,-0.3923392911637899,-0.3714258200545273,0.0102651034799257,-0.4170694667578669,-0.3106936165701037,-0.2771376192813477,-0.4142780224603939,-0.44355494813271434,0.06746610251798302,-0.4086164468471907,-0.06668662763331668,0.021372276626841546
-0.3054548848008571,-1.1024563866928314,2.935781786948122,0.4346551333962198,2.5696051230986585,-0.8064197168439936,-0.2643035716291706,-1.1136211589810046,2.849785754106506,0.4689020353482647,2.550873392642643,-1.7880697369691916,0.02594510169359382
-0.168532271633495,1.1257633270138798,0.2498634728285593,-0.5410227527468372,0.6902193912398742,-0.6098475430745743,-0.20221907701579767,1.132360621607404,0.19296654657182444,-0.5193302698228308,0.6929229330353337,-0.5934162610719795,0.021029864144807398
-0.1041051321876477,-1.3777536498619636,-2.418796928405601,0.8500112692443436,-1.834971514391148,1.07885792044048,-0.08381416791507945,-1.3918522419085093,-2.4526639973792044,0.841066526199711,-1.8638135834439709,1.3931248723820318,0.027745204980128058
-0.147189232798833,-0.3936674781834108,-0.691086241468601,-0.1569862572131841,-0.7593683670592537,-0.6130034415095972,-0.04331105333403684,-0.3946211324621345,-0.7147174137226102,-0.11290612345055706,-0.7125255066125646,-0.4155137364650727,0.02213186796840433
0.165801508185368,1.1070476537966394,-0.021388335268584,-0.202100468374578,-0.0231031153518584,-0.1261262487044757,0.16550612663195352,1.1083000772412106,-0.01953343792774831,-0.20372772676228124,-0.0237456957906943,-0.12810330027059535,0.020137983518146718
-0.2276312994018014,0.5624243157569924,0.0970536003069308,-0.358468958572001,0.0971890996572749,-0.2508888365961669,-0.20480274236933838,0.5780982140490778,0.06390843181043238,-0.3429582044639119,0.10871194498349723,-0.33584844592769514,0.020374261306173203
-0.0985515167941946,-1.5298058692912588,-0.4131206201235289,0.3579826337460312,-0.3163166046725184,-0.0469513353944202,-0.07666249122939917,-1.5246340984635935,-0.40416608712075686,0.36144996250595796,-0.3152714736747839,-0.04489433100752649,0.020446998668283534
-0.7358446728729542,-0.17650334705565,-0.5722151715386179,-0.4331448135165435,-0.5641118535778288,-0.4131296096288808,-0.7375897676347449,-0.17885749875426882,-0.5720309012467624,-0.43326233596008024,-0.5687672522626599,-0.3910840881871991,0.020302208797999988
-0.641730111754574,-1.036595907625659,-1.2029311241854972,-1.2321612844405063,-0.6220158378310047,-0.9723828176716586,-0.6380604610167211,-1.034212887994272,-1.2167744090893393,-1.2393482429006326,-0.6630100301072162,-0.6239634864105028,0.021664075932043836
-0.9766479140985014,0.4555041372297319,0.1665518107774957,0.186755217470819,0.1010737830077289,0.1434866981676886,-0.9739167210145752,0.46818793395391367,0.15652911706229133,0.1766413069265127,0.11637297826518989,0.19948606832986115,0.020763436969658933
-0.9339808105150608,-1.3100072442846673,0.4855834555330703,-0.1016059657692434,0.3871685264888677,0.0346759460602212,-0.9303657616351302,-1.3161706537489408,0.4743942538993906,-0.07569887187037239,0.4192910969686636,-0.26506384215463186,0.02055221674048341
1.907076078956104,0.4605505389751035,-0.0715362487280851,-0.2955887338594478,-0.1984609211425477,0.280850240139472,1.9473708272953445,0.47146411485368844,-0.09040640949388035,-0.3157444463245156,-0.18328491533111446,0.10865096206907765,0.020473709254268335
-0.3053014123358233,1.362355248458227,-0.2024248882134713,-0.4754715298527948,-0.230185087775251,-0.2846442424945753,-0.29461613146190757,1.37493040123627,-0.21719771785546982,-0.4664990719927573,-0.23428685379030867,-0.21903165551339043,0.020249820830649135
-0.9575847644559324,1.5006639131482875,-1.1296327985518233,-3.4754399680359245,-0.9705329751903006,2.0778767273639054,-0.9477218162030567,1.5095348271212288,-1.1028728800665704,-3.454996069595495,-0.9467936422411185,2.192627339700266,0.031394910808074605
-1.0121555729903915,0.3944194133177479,0.1248696821735388,0.1739072360968489,0.0792277419765463,0.0745053996287414,-1.0260522221128667,0.3988367557071797,0.15895863733112492,0.1543866021845588,0.07997419260709648,0.2010918311534624,0.02088303584076784
-0.6800437553489158,0.3322183057674928,-0.3566824605993031,0.3731222885417854,-0.5746822773500216,0.5564942978705927,-0.6572445021170097,0.30033128940544884,-0.3064767716437018,0.4150493745357835,-0.5955563062825604,0.7863484528716072,0.02147296406894811
-0.7274654243058912,-0.8095265883504223,0.044842729719527,-0.2850891688845922,0.0445199684247344,-0.0486601412103629,-0.7435820363070889,-0.8162771444310692,0.04916075713299506,-0.28248189727378303,0.03283557697750439,0.0395679577923147,0.020211440459497687
0.17295494904895,0.9626994314692672,-1.2817413851934387,-0.5912166139120824,-1.5953475606586054,-0.9345582938561678,0.141426470624765,0.9578200855262367,-1.2418611813723146,-0.5788997029951588,-1.5847207549463747,-0.90686848585392,0.02326238820216958
-0.1245006031037852,-1.3353083071957117,-0.1158802271572393,0.158616152259039,-0.0764010132687067,-0.0126870840767735,-0.11729700997329928,-1.3304655143174386,-0.1412290102962288,0.14205060814902026,-0.1296982194348857,0.20342064386204584,0.020268370935326352
-0.8010416272430826,-0.3708333490096682,1.1335721781268795,-0.3405187664823142,0.8029252839301291,-0.7213184095131827,-0.6935913186721336,-0.3221302416400249,1.0654496757993002,-0.34548364209695137,0.7667275838589376,-0.600791532335279,0.032842223936121406
0.4236064674673805,0.5053832312308959,0.2602713201962295,1.220868733891788,-0.0468800816789637,-0.6890088484969008,0.4429667912072546,0.510903838598324,0.25801151471341655,1.2571355395193677,-0.04955185862399958,-0.6661027899681358,0.021301044669833125
-0.6497098904859507,-0.9241747300763749,0.0443090615158393,-0.241443755142865,-0.0029465986983675,0.2890068271540283,-0.6603976401215732,-0.9341550755978005,0.05219131075682526,-0.2529934606241113,0.01552649701216069,0.09527182926467503,0.02022867416716395
1.0038807288027305,-0.0928912997852812,1.2626568558497813,0.071163084620643,1.0606848650342664,-0.9665203215458722,0.9628535300626027,-0.11682018661417715,1.2435067079859436,0.07943160182264819,1.0855139495783988,-1.130133070226293,0.02537877794025406
-0.3164286157757736,1.278117668462656,-0.2343532981777703,-0.5579472835562354,-0.2308180929611256,-0.3439588020149098,-0.3015797415596353,1.2886198541084468,-0.2596190760987156,-0.5403749349309237,-0.2388061057363302,-0.27334594971034676,0.020354743920136975
0.0511718566123888,1.0001536551476269,-0.0163274733968675,-0.2164903371018998,-0.0096641609923993,-0.1587297193805785,0.050632748625503154,0.9972057278851025,-0.006572853396846767,-0.2181669845019769,-0.013282953325415292,-0.15293793112869025,0.020140408250149455
1.677072322100866,0.5592944907502874,-0.163688668345492,-0.4682832861874636,-0.1893419188161157,-0.1297721118074259,1.6685306213139484,0.5608887255584705,-0.13747351170150068,-0.44172096274905925,-0.2076243274245826,0.038214392221561866,0.02036299636358735
0.8951685063821119,1.178003862196857,-0.2126463980904592,-1.9606401203688628,0.2547664505293545,0.4450293445281457,0.904302322599051,1.1819051405927894,-0.2054370791038309,-1.961631125694339,0.2544941810497221,0.32465602890079026,0.02103954927688506
-0.1967866524147194,0.6403120504160663,0.0504748658969907,-0.2838215501327935,0.0285750021816081,-0.1707114605145747,-0.17462626550104687,0.6530393477019061,0.022913708959549695,-0.2704974503644735,0.041436032135152345,-0.2513929630840721,0.02026000753321683
1.792798357391557,0.5064241121508778,-0.081502068444406,-0.3398653430862754,-0.2045123268935602,0.2435517288359179,1.837136933839247,0.5208475799006465,-0.10723910817887372,-0.3571684393425585,-0.18754828802229895,0.0893152596145228,0.02039966929345355
-0.4085313889234878,-0.5779518929375304,1.28734453126654,1.2678480571126896,0.9077713519345616,0.819403522609129,-0.4489083533558187,-0.6037941057822991,1.2862912848604537,1.2437722019121793,0.8957107644100688,0.818242330376961,0.023017761843149465
0.9700781810054424,1.047507577365017,-0.5361193832390633,0.4851910637103325,-0.8038932263814733,0.1386339221985239,1.0002555470430252,1.0612421256414564,-0.5239465605595797,0.47767704578518533,-0.8062968353756332,0.3404978149374074,0.02094381007198337
1.7214300164891931,1.06243717222741,0.5537803572444877,-2.1278590505606023,1.847703946476076,0.9713293885788684,1.7212849963643748,1.071426919574833,0.5407220035326645,-2.1397697247844008,1.8418848655169313,0.910128542673192,0.030261354468542556
-2.3216576861156923,-1.2710662894170912,0.685690849410364,-1.0065048447473297,0.629230840906093,-1.1097648206493895,-2.4855606450528285,-1.3199131292958555,0.7416044195747418,-1.131512769980418,0.5563043063020814,0.12211199731609668,0.0740810952825936
-0.565365665001977,-0.4949131219896936,0.4327073913218291,0.0658691966976408,0.329288451944558,-0.4652236382144865,-0.5268876685304349,-0.5252021511157636,0.38453487224523997,0.0604548046162563,0.32303607309449944,-0.44397887538798386,0.021665943986085956
-0.2918861526244255,1.1758020359054036,0.1648357354486399,0.3747020506484318,0.257967798650443,0.7951190231238024,-0.3251649534988701,1.145113767338671,0.22637441670667613,0.3282831123176493,0.2652691406146914,0.5491055264137685,0.02048621719833904
1.7125867909369743,1.285145058207857,0.6464556237296173,-1.9429383612872644,2.4881871165752747,1.0168552797449557,1.7135433768037274,1.2815464751419086,0.6326512158780133,-1.9409222858407702,2.4849321137744482,0.7469613073535584,0.03205836918660737
-0.1040044987469095,-1.5347713517198818,-0.4039330435809235,0.3570650116536444,-0.3111985863372915,-0.045567459246517,-0.08225282600596984,-1.5294293461595316,-0.39547591441578334,0.3603119241568038,-0.3099933240532664,-0.0425003896234557,0.020437066450646746
1.0574512970979604,0.5375895045482699,1.686717931730892,2.554126095051625,1.800236255405884,0.6462184424715839,1.047908760025166,0.5472548996449405,1.6439755400842841,2.5555098381706784,1.8247995191595692,0.5012632204925467,0.027497148211999167
-1.0461494070359418,-0.5094420610820815,2.9747576431638487,-1.6856001607622748,3.0288845688475683,-2.7135629281116174,-1.0442840929008526,-0.5211117035471489,2.9539309744732236,-1.658768084011399,3.063857267678486,-3.1500427265236794,0.025383331249251462
-0.9303489145740994,-1.2078599157236898,1.0404913682954449,2.582094823531258,0.4197625640026112,1.707100843352519,-0.9252192731000832,-1.1949647447079315,1.0461851035479413,2.5827145856741254,0.4058934200593285,1.8237806210672716,0.025412389447630523
-1.2049237558753865,-0.2885425174257402,2.200615664977038,-0.7497655222020979,2.324426247989888,1.6193113366597562,-1.2129638723686185,-0.29382290533771993,2.1967767934156655,-0.760568578000175,2.325204620852219,1.6604470220263465,0.022174580500091856
-0.2555167555116172,0.019770532020459,1.54413748239683,1.0016945731119555,1.5166526156928235,1.1160680900039046,-0.26794879250837766,0.02090793328784457,1.5302938833451663,0.9923606990439566,1.51683152916803,0.9288555490456929,0.021092662804335027
-1.9245213280601792,-0.9441587792003364,1.3430252205235265,-1.5391332839151903,1.2282744020095906,-1.1078118608319572,-1.929280698376715,-0.9630695769535578,1.329880905957907,-1.5344727600740953,1.2419529926432915,-1.44815199241566,0.022047103559486636
0.0601194993839082,1.0093833456571089,-0.0168777901276776,-0.2154587231868314,-0.0107431167617176,-0.1556284295714178,0.0594950890877044,1.006619136098152,-0.007537008731105743,-0.21700598254528813,-0.014197531004356279,-0.15084795796428807,0.02013944561937081
0.5805758963057196,1.2862579922068624,-0.334914679392615,-0.1498381846881172,-1.1432431219200203,0.7742679416894056,0.6262452921973818,1.3009624709102354,-0.34464148612596546,-0.15573428424954727,-1.1304441617858174,0.7061605442140717,0.021743582459528177
-0.0139448817657394,1.8368019194818324,-0.1811333502106031,-0.8031231635435151,0.1359210678449314,0.3701984772082551,0.019446085786512413,1.8682670569637594,-0.22064870542408244,-0.8113095624364632,0.13768856740898627,0.46273897058563307,0.021735348580541547
-0.0564592404226066,-0.9821217366845176,-0.2262979993855317,1.575299951158296,-0.2816433676371329,0.3750717265470041,-0.12838669317898166,-1.0221515668927168,-0.22435390322743842,1.5030682446831634,-0.3581381393009906,1.74635600660622,0.02215074768496067
-0.1475263666511298,-1.5225125088277272,-0.1087605039855616,0.1894499643963836,-0.0723689178695273,-0.0174296701942777,-0.13818145981986163,-1.519535230946076,-0.14940949779838775,0.1758708331624348,-0.13230252869516335,0.26301533851074055,0.020332257682795507
-0.1975550855150137,-0.5105529413083076,0.0567422380433564,0.2495434662952463,0.043993156206129,0.4669571727320999,-0.20157224606828095,-0.5118338207428224,0.04478928934804571,0.27172250476428417,0.07329633316476247,0.1728833302986459,0.020258472443991316
0.9357115082488208,0.1293024792690552,0.635088980247499,-0.3240890705577779,0.585191609056248,-0.0149752866143549,1.0508542465017854,0.18190570420119911,0.5452976031515391,-0.3291549290029252,0.5959230449543611,-0.24775968692119932,0.023626000669771663
-0.4705171093033962,-1.0798206218275976,0.0097845134921777,-0.2008434943097419,-0.0105552825338357,0.036020498167873,-0.4807259187687123,-1.0857245166214398,0.009250689049622451,-0.20456192923325034,-0.010671455017018161,0.04859486935674795,0.02024838295874759
-0.7767407431534122,-0.7232838392417652,0.0647549555594818,-0.2953950131170648,0.0435243500705121,0.1100405554306267,-0.7859565453741197,-0.7290357747351663,0.06922305625448644,-0.2990113968851347,0.04710077918934985,0.06356978655821877,0.020233298362661578
-0.5449546046113374,-1.0279864345634109,0.0316966715399554,-0.2019193627891211,-0.0307704028933524,0.4322041927761321,-0.5502099513273606,-1.0372111804294946,0.046066902354596095,-0.2191268104786559,-0.0021558944622483978,0.12721372767919092,0.02027205681012817
-0.1940780658009851,-0.7892219144436616,-0.1133898617811511,0.1136467430184698,-0.0704867957891779,-0.0278099497340301,-0.20918734662336647,-0.7881082494557177,-0.09906148055824815,0.09436370851926768,-0.07794363828725182,-0.02887635087245144,0.020293432037767623
1.6635453240328404,-0.3023810621428254,-3.70323473570378,0.9167198432171604,-2.756996508916495,1.889063239622843,1.537444819242296,-0.30479149931272786,-3.622902898592656,0.8400941730164959,-2.6483021641511186,0.5249467311186891,0.04004453239306799
-0.5985378411900102,-1.5342682552549236,-0.8246616294883153,-0.7940246852405578,-0.3548066905676826,-0.6799580874201047,-0.5879617514910933,-1.5266469764992507,-0.8441032916884978,-0.8038428930697137,-0.3969578125843327,-0.48413292996701784,0.021059005727501023
-0.5007084988188829,-0.1931512300503749,0.0372966009727653,0.8093288980715151,-0.1722691831341007,-0.3833928897682693,-0.6369718913565521,-0.21556508509843297,0.06297600226207578,0.734620283401,-0.17081870600122784,-0.5513233241981652,0.02090379481118959
-1.663114577190193,-0.7156800315737832,0.0990781689126568,-1.2226835930455555,0.275218564826226,-0.3889503054149569,-1.6993924100002005,-0.724118633613898,0.09687519392400645,-1.2318025442909857,0.29788295601520076,-0.7516344252799172,0.021058863981437248
-1.3539907783539116,0.201543169559046,1.2076801495928435,-0.779195815891943,1.8661819718056456,-0.4801044129147344,-1.370942402788387,0.20555551034090058,1.275846527779322,-0.7930071431230772,1.8618142577261096,-0.2876280308701098,0.024818895029212917
-0.733200851808461,-1.0031908263991354,-0.965379886914022,0.1808999591497152,-0.7888148597149676,1.016645091365427,-0.7329087684834121,-1.0085398524795437,-0.9679700151023098,0.19506464937944656,-0.7603423611049038,0.4943802789275651,0.020417604926535382
-0.2049898115815846,-0.5147453697472337,0.0516542667995242,0.27072598419159,0.0626554999553673,0.2147562319550278,-0.19297145669906968,-0.5114188496443148,0.05850616523275676,0.269849862567753,0.06508018996373721,0.2638258395527373,0.020307563796584993
0.496557011993611,-0.8246090703820511,0.7113792070096946,0.8220214549147311,0.3887671620477183,-0.1785042964113678,0.4884884753469123,-0.828442136598369,0.6992004636708771,0.8241086046784858,0.39345779737595876,-0.25309279792782036,0.02087365561781923
0.6677706096755165,-1.4728899223230785,0.3258677637773319,2.5148550712850497,-0.1141113645357336,2.3195772460334894,0.5833494698913455,-1.523793483965619,0.34418953450472145,2.51477704676563,-0.1258023899449654,2.2682269013857876,0.026308533124108358
-0.8788093734990168,0.6260472979907967,0.0244340250388218,-0.4671696429681667,0.217664537401922,0.3308714800420365,-0.9320296200826306,0.5872653703879678,0.05308722868994664,-0.4662305783144802,0.2326938701535255,0.27539356496345135,0.02125407683337216
1.323076778263955,1.7362060493673703,-0.5373307015693126,-2.17282967216009,-0.1824114625358203,0.5163230206293062,1.305258935296024,1.7302961458790378,-0.5683546640143504,-2.1623227060664476,-0.19849814771077945,0.4598912126457435,0.022040802329172215
-0.1678774560812914,-0.979263915866787,1.7330879753773285,-0.3901844127535956,1.4623588282905309,1.1804580281758,-0.1284907718463728,-0.9825951517389058,1.769767541247802,-0.35236074073031887,1.470327479714797,0.9072860942906118,0.022802220687104302
-1.5280003773714887,-1.5933657900558122,0.9531729810837892,-0.9808418666187688,0.9066228079871332,-1.9597686711977984,-1.5360072770622537,-1.603981282903078,0.9279298388923962,-1.0256425809282064,0.8247947358640886,-1.0208459194800525,0.02633238741724825
0.0801469759823388,-2.0035203154968824,-0.1014099979199218,1.561071205994948,-0.3552411045059162,0.7270670738410505,0.0798001238345023,-2.0043947813242085,-0.10978901106000194,1.5869643779114995,-0.3576352456952918,0.9999101577195688,0.02992859222836558
-0.9352971062361436,-0.1993654899363411,-0.5592105998555559,-0.4679840670017,-0.5438361818526172,-0.4027566660602042,-0.9330784870080606,-0.19930307985623585,-0.5656819990408621,-0.46947577432456455,-0.5490283908216043,-0.3712716683476174,0.02027510831378948
-0.947278113327621,-0.2125311733536401,-0.5326655864300226,-0.4560810685518934,-0.5160946055819794,-0.3812773365903399,-0.9438579226130059,-0.21196380863966624,-0.5398884364349215,-0.45764724434980053,-0.5209867735270564,-0.35203804772754665,0.020275954916719463
0.6928253925045635,0.9526920832295648,-0.2842108586666955,0.7007391940254771,-0.5753578003713211,-0.3976882818526268,0.7886921968517981,0.9327470428074776,-0.24640799666212843,0.7379514140486663,-0.5605226032084829,-0.36617468543045106,0.021110194107769764
1.297497269871705,-0.0080210340618803,0.2153153606739331,-0.2756007742403868,0.4219585580525277,-0.5991929101527895,1.271956856099223,-0.023465817110263743,0.17347499886227524,-0.3105980293751145,0.38442153043661165,-0.40142386326624546,0.023617290764533727
2.04666044400045,1.8031673765162477,-0.5233857817150579,-1.727557297929896,-0.1645652637563126,0.7918743138129655,2.064743564730861,1.8190613777608178,-0.5273078272389284,-1.7191024006040152,-0.20043390395858296,1.021834450395545,0.022730642480304375
-0.5374114695186446,0.9650174780140716,-0.0366075264342403,1.4612762819536056,-0.7340255873083695,1.1308568457424022,-0.5317485658008536,0.9625337460784067,-0.058605532783985836,1.4858517365267971,-0.7467271998034448,1.159748783127725,0.02553782017994849
0.7202473008878303,-0.2821133111950592,0.1618311637316368,1.4144886418936224,0.0934177962778837,0.1300721064516627,0.6662456916474184,-0.28211259126737787,0.17974476899235015,1.3958091249701283,0.06446535050372404,0.5806572542642243,0.021891775921950518
-0.0859646353967147,0.7778067339381036,0.0446460034044239,-0.0087848989662628,0.118273135233898,-0.1698107151403901,-0.10223465129411125,0.7570798139017825,0.005750127862029331,-0.027815331941383192,0.09438900288341756,-0.16386627500105533,0.02146391074485593
-1.0608871801366495,-1.641992986681281,-1.2511868856046355,-1.7533170589620717,-0.5711762380806867,-0.8663706144937107,-1.0930398900513865,-1.6586336317245696,-1.2342468718570672,-1.7800288650366838,-0.5280287522650724,-1.4183056005567778,0.027214138629623796
0.2271668387536503,-0.2781792602412012,3.358421248089154,0.2852761968635385,3.1590341724660345,-2.4549376017474227,0.19946250557359235,-0.28494583844121735,3.3485038336903017,0.2674165447331234,3.130834311340095,-2.0774335043861356,0.02296456003020325
1.0869797651232505,0.7057702438666611,-0.2345883590270812,0.4545765243648658,-0.5579518239041583,0.7566615699953746,1.0470366883255338,0.6844620205345109,-0.33789948722551344,0.42337171538429175,-0.5371719799472885,0.5145726080663735,0.021506040469546128
-0.1696253914785228,0.51270828859705,-0.108920688608277,-0.0363438690368893,-0.0941660340195835,-0.0121286852550279,-0.27114390606038796,0.535675083373917,-0.10465617591762566,-0.09352363865673397,-0.05865995774320254,-0.11924402967269998,0.02072992930599299
-0.1487919890102185,-1.5435551867722694,-0.0761504903814047,0.2347416548710704,0.0825624148394802,-1.272751058532384,-0.15487325718095235,-1.5478066022012626,-0.07741689469139601,0.20378431875883507,-0.0005709061701963947,-0.3522878169460455,0.020281361121746222
-1.149441926557498,-1.218114344446449,2.173818820791072,0.6815207089998901,1.8640179431953352,1.6981159515609554,-1.0938723573754032,-1.179209736077155,1.9962761388205763,0.6828089226928569,1.8371744224768918,1.5224990394708584,0.027591390109520553
-0.1238425475658078,-1.7894414351757306,0.0194004402910945,0.8807590713120348,-0.0675846480555602,0.8482079559289034,-0.13653484969881902,-1.804950500335508,0.03287612564281517,0.882165145432964,-0.042637038311568176,0.31684326408139896,0.021906326691613465
-0.0918713808235759,-1.8350130632865629,0.0946184963177553,1.3801854765726764,-0.1131646185827178,1.4698211886505086,-0.040371022549607005,-1.8459609453227586,0.09222316321438484,1.4206050565230726,-0.06513090056841975,0.7725079493502562,0.024137848358811886
-0.7305240519949275,0.5215871527174849,-0.5870738436573082,-0.6654566287687181,-0.8385336393681719,-0.695300801598799,-0.9281499389594501,0.46432115427705867,-0.5674949436820498,-0.7312927782688803,-0.8670358859681073,-0.7239179589523701,0.022936204496253942
-0.6097425976672348,0.141581869441356,0.0214462285850868,-0.6057020586571267,0.1551123214497849,0.0243546101714763,-0.6163691901897437,0.13812781562501186,0.0409477587031688,-0.6074590614382487,0.13987673874680695,0.13397036514652427,0.020282366008046615
0.1056915964244703,-1.2841029184927264,-0.1600441787688201,0.2934807867571897,-0.2483645528983736,-0.3822701316093669,0.055222827099896676,-1.30133671735166,-0.13844494660543205,0.2651683062044867,-0.30851748214081454,0.2216400411889481,0.02283864668689234
0.8964332825874334,1.438332583173785,-0.2320441688831724,-1.01608611839937,-0.1417390797128961,-0.166432146658161,0.903048251479504,1.3968391013120254,-0.20568657027843074,-1.0465525010488363,-0.13836515704679186,0.05783731421615812,0.021147606004845165
-0.4250229806223492,0.6713687576631372,0.4477775443350751,-0.9087445056789164,0.8469958055339075,-0.6997031632362549,-0.4040227758223409,0.6749390598490663,0.3986145447374838,-0.8919389811201199,0.8641923896057051,-0.8320027513000241,0.02109726023404307
1.885040552845823,-0.6335296382979008,-1.989425981612468,1.736061603228262,-1.5126900358948343,0.3506886215728524,1.8747194707967765,-0.6276968919771662,-1.9605979376267442,1.732658929622687,-1.5215983827654327,0.6458249427851115,0.026868222951598575
0.5316228871606076,1.2334819451363976,-0.2042106620699741,-0.8362863821008959,-0.3236525640457077,0.0823339266044648,0.5265047325196974,1.2275876666694785,-0.21673399964902273,-0.8342210323160089,-0.31465741310239537,0.14008493766596075,0.02047738190436349
0.0782801724301773,-1.432532751814202,-0.6276435608343968,0.3839947880411097,-0.455117172444523,0.2194434607942647,0.09107281601791328,-1.4411062967380985,-0.6070804254736686,0.3835641181524352,-0.43780975189702076,-0.10363043073084555,0.02073780264770847
-0.0987108582089653,-1.6834331418495545,-0.203991821668283,0.3061818287232974,-0.1910534797054263,-0.04868125192339,-0.12185709159348335,-1.689768640523198,-0.18752354041089347,0.28399529668763535,-0.18327705031879304,-0.08139345699964906,0.020926586817637094
0.1941409982829965,-1.0091759408947716,-4.130060657161089,1.3228546202779088,-3.8112643551797047,3.77207481971268,0.23856586515034905,-1.0365353106849398,-4.18370708761654,1.4059871858224824,-3.7604753863529368,3.4772906662074092,0.027275459068839047
-0.0973702283225506,-0.3134714612499493,-0.0047633781223001,0.4833321397760242,-0.151305625371233,0.1486320044416759,-0.09883260913375125,-0.3152223766442148,-0.0018936018018393952,0.4879824564800401,-0.15264052727297894,0.09450260662924848,0.020304024161916068
0.9991854072137974,0.0435849293376578,1.509860729311015,2.5020414600896856,0.9845082083360912,0.4176879415344334,1.0273709012983545,0.028030743881572562,1.4996712112238129,2.5169819219822784,1.008818681660614,0.6885835734174179,0.027763027934639417
1.0708851951427385,0.0149025005536376,-1.3977672853907304,1.3383331354729768,-2.122651618141578,-1.973739001475186,1.1375239778789137,0.04719285470707746,-1.3771539190540807,1.3642381029208082,-2.0482090769933166,-2.286403094254638,0.03547872945657787
1.0259685557625264,0.8869017853125136,-0.1837318376427445,-0.6606477657758346,-0.2459741285197766,0.050438380307104,1.0213760102351443,0.8802733740765234,-0.1776605225268213,-0.6571327402984934,-0.24700010603464762,0.05076721678415197,0.020289614501301123
0.3933536504986519,0.5421888087690606,-0.7503772113003249,2.5386304746821926,-2.537658613074799,-2.293120876365577,0.4994424709125269,0.5755742715812175,-0.7579613401492225,2.535417133936221,-2.5310459855027148,-2.336496129511943,0.058456578578222895
-0.0331360036395546,-1.4809571930127496,-0.5110867412493264,0.3733207842677657,-0.3812532724103384,0.1412401699743485,-0.008042562281843857,-1.4805896125672007,-0.49597555987793385,0.3728937937419232,-0.37051012247911785,-0.07425633204911719,0.020559473067713163
1.5264980733311235,1.190813833585611,0.0599860481045822,-0.0287988184015924,0.1636333794381239,-0.6968947087649711,1.4974297193598431,1.1821004162200097,0.007324163013436191,-0.04942393278679447,0.12073989116606754,-0.5234988603333477,0.022270054479143375
-0.6703931035045722,-0.5890904922232947,0.0001876740701371,-0.3683880975943606,-0.0100138100361273,-0.0454864742270288,-0.6757397908322673,-0.5847625666153817,-0.013730176620811108,-0.358506436393327,-0.020718029559247952,0.019267504874733277,0.020358955755312713
-0.4375705914247871,0.429257583419751,-0.2674990679059507,0.3713811801145119,-0.4321635191781487,0.3059061117319889,-0.4710113634141635,0.4190138902235958,-0.2280699663510859,0.34087102385410617,-0.45487254217232476,0.36887603337163455,0.02034244683375136
1.4461956899532238,1.656108467430956,-0.2723906368314352,-0.7442999610810682,-0.5697492343074806,0.3580406857328835,1.420256288422479,1.649177695326216,-0.2382549601293249,-0.7360732545980682,-0.5931370948342192,0.495408370403311,0.02090196144060713
0.0822185828701696,1.0264556589643028,-0.0099383447513117,-0.2104846245704839,-0.0146028643907998,-0.138885952883209,0.08636009704605385,1.029077205513886,-0.0125805308020972,-0.20922247382372916,-0.013730287083035364,-0.15309917397462414,0.02013849427250819
-0.1493846696801439,-0.9584839432098118,1.8161777260482568,-0.4295483689631288,1.5649874284500287,1.2655202047725476,-0.09524361144485738,-0.9498819118873598,1.856012173228919,-0.3864494784352246,1.5685455272623585,0.9340475785102171,0.022832000527422458
-0.1161410666627343,0.794014216047016,-0.0030016065423922,-0.24862797356195,0.0179920784803428,-0.2438186552269628,-0.1153072600482119,0.7891798600376205,0.013739535637796507,-0.2516967451645087,0.009075001214569056,-0.19587103388403193,0.0201879424900821
-0.9925964469811982,0.428611271588269,0.1629337342429554,0.185157765729044,0.0940008389520216,0.140928397669711,-0.9911605817651434,0.4408403141596864,0.15555330771485387,0.1751150731611233,0.10925798322932678,0.20290413796465145,0.02079962617504777
-0.2028903186793942,0.2783448834870608,-0.1789056247619969,0.0411926776021927,-0.4030454849925254,-0.1028444074194593,-0.1907035249805631,0.27484817051822574,-0.12222860275733183,0.06498099983582506,-0.3744754562521848,-0.10845068213529885,0.021314876954995732
0.5766418790741231,-1.3123963088711668,0.2620400813759776,2.0154952895003,-0.0724829734317751,1.890925599040454,0.48367612209676736,-1.3520729477613713,0.27480327843068153,1.9927107487684452,-0.09095545765057977,1.8363913842767943,0.022815184473742256
-0.7226248341279502,-0.2993714808405168,-0.3538593212872736,-0.170668608733173,-0.3957024219970652,0.1343690937172379,-0.6679449866815048,-0.27840099591799117,-0.2902056209231887,-0.1468475804699665,-0.3591153895763455,0.043968963938823435,0.021558334381985567
0.8841826163197875,1.4410450486235171,-0.286618176768536,-0.3668540993929574,-0.956464790497532,0.7449029499831249,0.9201778708950314,1.451552990680284,-0.29383669014259794,-0.3695187200280543,-0.9445917183579695,0.6289310838183155,0.021271126398303586
0.2936579985055241,-0.2926070515712353,0.1350632184556129,-0.0117209501447866,0.1126005894898988,0.096792437929975,0.5807361342276636,-0.2890445661785179,0.1539764284411831,0.2132946432486733,0.15380261331620204,0.14298269512073603,0.02385034411759762
1.645376652049524,-0.2795454091787779,-4.095928933716364,0.6898574834219645,-3.1545609575727585,2.177924606923764,1.3811531573765023,-0.33146968223240947,-3.897954227115406,0.5404439669728163,-3.0536683017589894,0.5982335376720584,0.05795419744943303
-0.0744920759853001,-0.2685180098412226,-0.0061806491903451,0.4782481343294789,-0.157534033656331,0.2093090485754802,-0.07647246688748055,-0.27146677187192836,-0.002673670900549041,0.4909955865562097,-0.1447248222189046,0.08465927711949917,0.020272242927937334
0.0302853962578526,-1.6019667083914682,0.1142016236558175,1.31995842124831,0.0788485372638181,0.176501722391148,0.08078098036685333,-1.579528637358635,0.13469632525630004,1.2808684175392955,0.01030151288750858,1.0164370463244268,0.021968931468655917
-0.8217357628989642,-0.551359953342447,-0.565030517787817,-0.0481309282861753,-0.8118299787200814,0.5451640528556747,-0.9624604675850605,-0.5713369495090319,-0.5978092270383968,-0.12991572211990388,-0.8339403523355031,0.4562389958591666,0.024874935429060663
0.0344770781253766,1.008811393790246,0.4400663011720419,1.3549189544129892,0.3660096181876686,-1.0779626209104536,0.02439043312688227,0.9930059085168068,0.466351492233116,1.3420505994063205,0.376604397994015,-0.9988606387887558,0.021582614620960505
1.07463814261103,0.7777196253625563,-0.4288574227908934,0.3841963368950593,-0.572019593828273,0.1561134889346765,1.0664672494733622,0.7724341027869741,-0.38161744951912624,0.398191458341671,-0.5832121129456027,0.45351979957558797,0.02128820538614179
-0.3329886759509693,-1.166949554668642,-0.0066722341090725,-0.1675600476280848,-0.0274558935639325,0.0286176840452491,-0.33715001017617396,-1.1696256753029957,-0.008084423348464043,-0.16987116457266893,-0.027011014055005944,0.04015696982241934,0.020249721397369747
-0.156375299709541,-0.9529566456500588,-0.1152233962908392,0.0931128298115408,-0.1296498162990669,0.6510481473838996,-0.16401486819586353,-0.9545823524092611,-0.10379963400282577,0.1374798096262566,-0.032499886498953856,-0.26753965456737205,0.020226010323305565
-0.166306302606744,-1.6000381353865545,-0.1174063716165406,0.1686433002085341,-0.1528270155977533,0.8029668968721696,-0.16824816435337198,-1.609523545215552,-0.07923276840756444,0.20066701867926895,-0.04697794745561623,-0.05585305420390796,0.020238476613805012
-1.3365178440131429,-0.3441711230550232,2.127297482589399,-0.8772621768121336,2.2756373405743173,1.7142485220171395,-1.2805841048725597,-0.33969078530844854,2.1216078386219124,-0.8717648532335716,2.2740581434345586,1.6467724440808524,0.023202328712741582
0.8830948515152938,1.3092876470220998,-0.5762620550172409,0.0809606528554204,-1.1738564554725808,0.8776811845171326,0.8805854433721834,1.3081495552116849,-0.5787295557861398,0.08493315975431415,-1.1760830782004632,0.8998634814524848,0.020853089990538087
-0.1161663058478672,0.779052761792917,0.0283942319901629,-0.2536093092388967,0.0127456953194431,-0.1588895985317401,-0.10029169307790653,0.7876625689443699,0.008957032724993041,-0.24412150699095037,0.021088714554480248,-0.21944872627500445,0.0201946598286466
-0.3667511323672794,-1.0700349130864957,-1.331715266520584,-0.0015411253895408,-1.458673977326946,1.003960723179689,-0.26324329093358756,-1.0607535237463708,-1.280211077637432,0.03901673572704567,-1.4585902220537719,1.0813359878702613,0.030707222455795324
-0.1727626526269295,0.6850446262525844,0.0433926791140144,-0.2736665393705664,0.0234322758293822,-0.166299890727456,-0.15263438809870422,0.6964089290618176,0.018205327399755333,-0.2615156792430753,0.034884304986462666,-0.24148930259616463,0.020235736718745734
-0.4085043049571692,-0.204149273887104,0.0065480789442433,1.065048175023161,-0.2628387000175918,-0.7880072528053592,-0.5184145142256966,-0.23247986631440654,0.07746510927654526,1.0165766428060579,-0.29921563421657993,-0.6218102625571191,0.020999729148712454
0.3210791682625467,1.2358095217234988,-0.0384032188747799,-0.2041374152959459,-0.0358837920959911,-0.0891807101168498,0.3113634229166564,1.2353623132996745,-0.03212234880948017,-0.2101865424690459,-0.03682837447831844,-0.08217804131345474,0.020176894110825294
0.3884278071849507,-0.275288205979722,-1.1018438752283823,0.0422123482319587,-0.9467658030273606,-1.238767280841988,0.39107155956025963,-0.2661813082020217,-1.0931441556581376,0.048961519815748034,-0.9952156223571365,-0.8226668586285086,0.020816149238136183
-1.1766442024815136,-0.5044515762192755,0.6723289458803955,-1.66773267512299,0.9434064977003668,0.8433794149848111,-1.1843131050513875,-0.5081336323733012,0.6644937787718845,-1.6658856298149658,0.9069548380580272,0.9755078694397525,0.02177192726452376
-0.1037892501998246,0.6878438557102802,0.823284847331613,0.5757056878078919,1.3777403811540447,0.3580983133650628,-0.16198089988824904,0.6845516981329638,0.7878652108556707,0.5672270623218765,1.4154973673394124,0.15278986925113713,0.027177508198057587
3.020014190891152,0.2872139112287716,2.14875713748776,2.7196611601959995,1.937814459718908,1.251081903995413,3.0793211243860696,0.30729636638488955,2.17409972835776,2.751688589176183,1.9412142056435187,1.3515596028664731,0.029292705541905384
-0.1891722448632549,-0.494466480831333,0.0251416476153231,0.3103556546785238,0.1309556919903087,-0.4335627672807134,-0.17941989880819165,-0.4903659453534601,0.031302258737468946,0.2801331031510017,0.08029235277808766,0.11575923050986603,0.02025601311767361
-0.1142250772909072,-0.351363383095834,-0.0052548434686669,0.4811988092665647,-0.1525285414391285,0.1502937633433312,-0.11469879962942287,-0.35296786347180387,-3.866576435029856e-05,0.4866414574121336,-0.15332138602389023,0.09246283767424757,0.020325358449021003
1.2572517332814133,1.581492159572628,-0.2792921590105088,-0.6020653812481427,-0.6816932564009299,0.1933384616710745,1.2687668899834534,1.600772719884617,-0.2789559358106999,-0.5823306751565269,-0.692225968592993,0.39438731056725373,0.02075836015049476
-0.3581336954385997,-1.152571014260866,-0.003474705690838,-0.1735055055984865,-0.0243799942867677,0.0306674765177724,-0.36352287504769265,-1.155846016214582,-0.0048387062183792295,-0.1759981017651171,-0.023914185229841678,0.042111567072424805,0.020251278782275228
2.45137074853503,1.576716315297935,-0.3676827814406893,-0.9469305281367713,-0.5471327427512842,0.2562591592373019,2.4583810420876944,1.5935387523400095,-0.3184338120322536,-0.9259754105148659,-0.5723225402607568,0.5955369781659101,0.021613112371831
-0.3080066065729784,1.390156473613117,-0.1926760443551572,-0.4501695186733837,-0.2352029184902923,-0.2515754509918568,-0.30027263690021755,1.4025359269960518,-0.20392373287586452,-0.4460767431833119,-0.2360179905667792,-0.1958720419279416,0.020251149320266115
-0.7205718970191781,-0.1766648293848508,-0.5708476080370304,-0.4293826719279874,-0.5632286431948289,-0.4122737997139127,-0.7228352046822693,-0.17935902898670975,-0.5699070189452868,-0.4296375751105188,-0.5678347113680502,-0.3905976235619164,0.02030727101956814
0.6130947682007575,-0.7697790749221162,0.7845565136943872,0.8817205407353,0.5128817112820577,-0.5287256038841734,0.6116910004143392,-0.7767665615203896,0.7862486612880275,0.8667664058239097,0.4818431177632192,-0.293452313682792,0.020888942128678145
-0.4898187611849217,-0.1067858845810172,0.000702191406288,-0.5296788948211703,0.1214909652262671,-0.1045999030257406,-0.4945560047426625,-0.10843437118660404,0.01793212254824539,-0.5284993364571164,0.09212411920725572,0.09679440896070446,0.020237080889863257
0.0386368956182368,-1.3269636287552924,-0.0338117773721865,-0.1096998292803606,-0.0547517793227663,0.0134405883560945,0.04656345993544164,-1.323349646147335,-0.031259320588105766,-0.10838258015564861,-0.05394643962608825,0.006797850764996838,0.020663806267314733
-0.8735483237465242,-0.92883618401176,-2.013111723112137,2.059435360706836,-2.6753348780508186,3.876158730529348,-1.0626572718531406,-0.9780557218673493,-1.9816536062724026,2.015802506111413,-2.683120717212887,3.809942519361357,0.03459256508109093
1.964557351691716,1.6244295269115183,-0.47884550738882,-1.7495240353771595,-0.124752940665345,1.1072452340119785,1.9264928642774066,1.6043624309991174,-0.4563351547521961,-1.7633306476307098,-0.1531083134432265,1.159522996229498,0.022377352244518256
2.0055476822216045,0.4274237345909338,-0.0766821715212245,-0.2973978956095448,-0.1981423486754227,0.3146217031897844,2.0223302284521196,0.4240567152814947,-0.07329543679134076,-0.3215444604804816,-0.18630367588775698,0.10854397360526491,0.02082476263717553
0.9844295905861354,1.452734313484738,-0.2558063986434617,-1.9766021842873136,0.3403781328736427,0.4130636171713279,0.9590865319287332,1.4423716076987603,-0.22464255140539535,-2.0009272378292735,0.3489046458539633,0.2170813874618034,0.02203060806480267
-0.1283123569879438,-0.3293773934494488,0.4977720746402865,0.583381394636527,0.2190317866423547,0.1009414265406885,-0.28441076469744075,-0.38706397284818195,0.42618781372493686,0.5179556240941565,0.19702094003559978,0.1076093967531051,0.021801290415048136
1.0754602892931229,1.2900143328209055,-0.1647550323821568,0.7632133918000098,-0.483297418610845,0.2021750587805233,1.0500202988407636,1.274577377299238,-0.13918306074265274,0.7484945670800016,-0.4922346545199616,0.2797340841352707,0.022035435673302295
-0.3409574403895999,1.2702495587164813,-0.2586243489590046,-0.5677192129521746,-0.2435030823886947,-0.20813118025332,-0.34890825470802156,1.2566480190034781,-0.2396147892177396,-0.571218819933847,-0.24727362278053988,-0.25492685981225804,0.020363995335990814
1.874618090539398,0.4943304700269378,-0.1487556268279986,0.7797002421823875,-0.3472031395363931,-0.0114557726757622,1.8456288984850744,0.48184050697773273,-0.12231762154806347,0.7975701676031122,-0.3603562870312089,0.06805136280308943,0.021767099975867843
-1.2324468636926529,0.4410182549185868,2.422728055520615,-2.8461955445230216,3.103710590289169,-1.917087695422684,-1.190639158048043,0.43934361575816183,2.3921432758270385,-2.832323432539738,3.091709747408231,-1.8151636793027137,0.029553599352950932
0.0671894842075426,-1.4419496837941057,-0.60322823856534,0.3682589851403338,-0.4032563969393465,-0.3649500826680761,0.07511750441290133,-1.4441096232319524,-0.5988190030948317,0.38233029189245826,-0.4194412783540429,-0.14174452521911007,0.020699129396525684
-0.399512478500464,-0.2059515949562302,-0.5513598396121807,-0.3689192531202658,-0.5486196094069287,-0.393461441601287,-0.41051663342477696,-0.21327405579700098,-0.5486395616067057,-0.37611634861877974,-0.5535812783205074,-0.3993632760902983,0.020638091329196306
-0.6132962214051481,0.7226200698802837,0.1494470410128817,0.1596806150490004,0.1084557779365659,0.0853219883310973,-0.662980041663559,0.738707970184123,0.11561245370467077,0.14282444859463794,0.11807888934390576,0.0941321296922979,0.020683832080493125
-1.735827000292624,-0.55408404086085,0.5465132865838557,1.0701365493256374,0.2062896749144487,2.046473932862676,-1.7604063991329895,-0.5543935875830357,0.5293861923360055,1.0517766592283806,0.1770068352270755,1.9184763487501186,0.0265742471264116
-0.440165596759683,-0.4494759049797182,-0.1529092546318616,0.0871740592303038,-0.3362100511161609,0.0792159142017059,-0.46463865618306954,-0.45436133268776757,-0.16021723375524743,0.07717314974775036,-0.33332399917890143,0.05841113617498195,0.020687509068650634
-0.81416797798082,-0.9036194308135088,0.439010677021389,-0.2165470776487499,0.3816708935815122,-0.2876439340753889,-0.7916857310665364,-0.8618530898709196,0.43003537887125276,-0.22378926441433578,0.37958661100583413,-0.42603467027583974,0.021096829325017274
0.269939537562444,-1.117633922340579,-0.5226435453575069,0.4660719413635827,-0.3370677611152604,-1.23961537268748,0.34365851322081653,-1.063301657041393,-0.5876211638378663,0.4804567819976455,-0.40879384560275867,0.055251723708352074,0.020927910876785638
-0.1350153937219685,-1.1505821826755036,-0.095899778850471,0.2053709131073559,0.0801873370022349,-1.386621699662253,-0.125840918670292,-1.1441715664284402,-0.11346711744135973,0.1689305616728234,-0.0008750087304179033,-0.4605679674859857,0.020263845926627944
0.602544410355613,0.6458363468807528,0.1377825261779735,0.8124236999936127,-0.0635007702048836,-0.5299630366648341,0.6421096772533019,0.6594260085812493,0.11695448030877742,0.8577126711390974,-0.06384095693647396,-0.5303445530989848,0.021077811098073773
1.2940855932965898,1.0382680171554672,-0.2325239143788577,-0.3287058447531693,-0.2785879967498504,0.4540273579071373,1.271379308034966,1.023362064198409,-0.23207942922772418,-0.321818728210701,-0.27068249550984547,0.22366987538407557,0.020486873580018716
-0.1341965384171141,-1.1581568595672953,-0.0954395451693431,0.2058119436220439,0.0806884780159986,-1.3883081935545636,-0.12516448813858005,-1.151913620157984,-0.11285371147459955,0.16934267290866956,-0.0006296564720287279,-0.4605338486508117,0.020262736185010233
-0.7284811531207376,0.5081032347241817,0.0340868092313121,-0.7067476102431937,0.2166427673285996,0.0869514607556591,-0.7327247385815099,0.5058141989234173,0.05631445768131016,-0.7086936435482585,0.21327977164855838,0.19042458809781238,0.02046087569338767
0.0965824652972181,1.041064564772096,-0.0120696076266754,-0.2086794900509428,-0.0161712747950898,-0.1369807540922093,0.09996009674478046,1.0434167759794946,-0.013822885385252448,-0.20794109763755841,-0.015624997847226041,-0.1487267490447266,0.020137518445920655
-1.5367496482915308,0.149987651992631,0.8269557742734578,-2.288011368217481,1.478525037865742,-1.347847502004497,-1.5544053180683477,0.13925994584269574,0.8349176085421277,-2.275585380110442,1.5072371369719804,-1.3534112054221623,0.02306676560704063
0.0853580932099248,-0.4430445676057804,-0.0178853979917624,0.6460220977159226,-0.1764236833811367,0.1749125159424701,0.08434306489698429,-0.43694645241521357,0.002731664843395265,0.6558384177824337,-0.17501449184237572,0.11975129057100276,0.020485185351226398
0.5144690042347683,-0.1507218764090398,0.1028343481817114,0.3170239753104672,0.090753149535211,0.4121635148794068,0.46516508631475517,-0.16495194774893207,0.11161904419213897,0.3459426773838459,0.1409334672089244,0.13415018004889134,0.020641899617401982
-0.5631178674733469,1.1140519400070628,0.1013560351267099,-0.0998005208128775,0.4077573957977237,-0.3427848048654699,-0.5950566467354292,1.1597679658118523,0.09966350301647253,-0.10376160301530035,0.39914969628398467,-0.33162008243380114,0.023152894676200908
0.5840458816598099,0.7917591170513834,0.755361726407185,0.4199150140238832,1.2363095820268557,0.5167038644355447,0.5985134624811508,0.7934292450506746,0.7865629263646952,0.43373076751754525,1.2495821445481852,0.4665815262742399,0.02126769202605744
-0.5108831467924474,0.5339171968450248,0.0574594079885705,-0.1958181057052032,-0.0331701238914322,0.1634189309739774,-0.3704290761866105,0.4864343586650648,0.007734605264886341,-0.11486759338322372,-0.04849437154734915,0.05333114371387637,0.021162883031329904
0.0446310840918013,-1.4478212315192558,-0.588657724310542,0.3722784938373924,-0.4151956833214837,-0.0580927900515211,0.05532863427652046,-1.4533160648584271,-0.5644275643899164,0.3791460385134542,-0.4233737608219599,-0.052662054335087305,0.020689508335003104
0.4282407332316761,0.6966001129676969,-1.9238551913572168,1.3040149356224573,-3.411079550076248,-3.2443060993995707,0.43397238004479277,0.7029768624460075,-1.9144759276621244,1.2955416765241807,-3.4124845074393306,-3.1363702082926466,0.024443659703954956
0.2893473335875569,1.2110835331485788,-0.0352094240872176,-0.2014245434371256,-0.0335062291478403,-0.0982980453524799,0.28182730211528906,1.2109397055455702,-0.029491164750652388,-0.206720548264002,-0.0346606837406398,-0.09173826547703356,0.020163786737668665
0.4912029459521732,1.787857378817366,-0.1967899319235079,0.4857439975096369,0.5093895422577213,0.6241317753469703,0.6496732291441276,1.832575155921063,-0.20234852670910186,0.5290879309429783,0.48310702866410793,0.40693599277801695,0.029386227612938576
-0.7394601151339892,-0.1765107902630015,-0.5724360176280355,-0.4339672082474078,-0.5642937894095417,-0.4132585309053468,-0.7409622570885404,-0.17887242684082594,-0.5724813258607355,-0.433907491455102,-0.5694751945761709,-0.39081968819664326,0.020301051023501493
-1.7887293668198598,-1.7185393472951378,1.139620219167402,-1.2181202148044468,0.9516309444049408,-0.7629018857409865,-1.8621116820368115,-1.737766963123704,1.1422223209924596,-1.2401232133315716,0.8811470254058804,-0.49076450864595245,0.030755900001537106
0.0779607349790582,-0.3030884345092955,0.0485456054471538,0.3525643017459492,0.1621392212012249,-0.3792748003359855,0.07984524992571096,-0.30405917536427296,0.06200683075303459,0.30458693016680627,0.1170202385014818,0.06642632026341744,0.020239159971744136
-0.3792474506959194,-0.2755659359785404,-0.0199478409200656,-0.4767780125463174,0.104559094106659,-0.2695773423622996,-0.3806937479625958,-0.2736143349518443,-0.006487380187536473,-0.46955629328772375,0.06031433257385288,0.059895209491514834,0.020243624846066843
-0.4177773687111249,-0.4687864628459106,-0.0699875341942,0.1167329104068915,-0.2563916447248093,0.0100037225115451,-0.40336581275414574,-0.4692379969776539,-0.07200607481490806,0.12051175933447666,-0.2501895783739201,-0.03713328046433162,0.02062472545919264
-2.260877863824408,-0.5400439156635848,2.293625263915053,-2.6482480261536527,2.766210398044695,-2.3979119465546623,-2.2736614107989226,-0.5691899651885706,2.3564560639633783,-2.634107462711654,2.7341314774021157,-2.4310591847315663,0.036039307853691305
-0.4712554844173902,-0.1458584470509604,0.0599045853143585,-0.5053632184903392,0.0721881726910047,0.3811530810042723,-0.463787002150184,-0.14357271764879442,0.03777055478076363,-0.5082352129618357,0.10477223429552396,0.16298831761378096,0.020238877927539256
-0.4170063601876122,-0.4710478259296298,-0.0777572227031258,0.11734926407685,-0.2509692118372627,-0.0551316350977886,-0.40331984667136567,-0.4730797296331275,-0.07268070554800943,0.12200821764349712,-0.25362213947482815,-0.0324764670622244,0.02063534461191069
-0.60173959961478,-0.2543020851949476,1.7426490137593167,-1.68886298397719,1.907610365311264,-1.2350667706253922,-0.601616231537264,-0.25963789356228517,1.7043161679157492,-1.6880699854807517,1.8768527770616856,-0.9260414097479952,0.024472045191032243
0.2523435012697918,-0.1597042522753504,-0.1509139146774809,-0.0887568160502041,-0.1619941408640345,-0.4616082612187396,-0.05663698922217009,-0.3751298630677411,-0.20089814262064465,-0.130560738163922,-0.2567532861799009,0.10664846012878115,0.021323893358285495
-0.5997280361118457,-0.965236578562558,0.0175502454392692,-0.2491683039231431,0.0324448232642368,-0.2440664079014778,-0.6197316380998927,-0.9714144126508018,0.0099041533626405,-0.2434643763206168,0.008827519215174107,-0.0002247347219963558,0.020228402633698017
0.2361536500524964,1.1667451625736374,-0.0271317412132446,-0.2060973385996605,-0.0256707193356794,-0.1191229310371648,0.23253134161404887,1.168394876366392,-0.025971547370772896,-0.20470205087963222,-0.027797225398444425,-0.11081620426557492,0.020147737606783955
0.3892394450116966,-0.1753929454721003,0.070147997452403,0.3804236411248435,0.1906378129235653,-0.3145054051301689,0.38478174347073946,-0.18255501375620042,0.08787642751076419,0.3288951531676503,0.15010835839802894,0.04233068330358947,0.02054700122985026
-0.1350932627618264,-1.4686808523678787,-0.1223410649885691,0.1412393213997188,-0.1577195124540196,0.834243112987379,-0.1352693638496021,-1.47582643580472,-0.08333670886941036,0.18264730844225596,-0.0419542413869749,-0.11996168721088907,0.020176767472044055
-0.7605748084604234,-0.177865941897491,-0.2884472645793708,-0.4607667305536113,-0.2993527713621206,0.1054852103343962,-0.7422927826110026,-0.1722889429879615,-0.3309721095279201,-0.46471298999176724,-0.27325181495734796,-0.11834103875298752,0.020426391439485492
-0.572286699665447,-0.3285457679218991,0.1161805066143109,0.3931704852181042,0.1697016739524048,0.1418396612889704,-0.6791971440356974,-0.3865927308704613,0.1359720814539287,0.3647419043240916,0.15997562815300626,0.145115607745538,0.021597510645335383
-1.5746301938206373,0.2990939835137303,-0.7748446393121514,0.631875491628852,-1.5900609820663414,1.8982930360504628,-1.5849106892687814,0.30240673178832367,-0.7770132080754593,0.6513222421983755,-1.5750750325473746,1.8861537809061701,0.02560309884331219
1.2996583572491578,1.0375640566091782,-0.2645162810985364,-0.3158051565127518,-0.2882476831887245,0.0869249703539266,1.3073742726130604,1.0439180168179973,-0.2612689135544315,-0.3194520609672509,-0.28786375911431605,0.19517369227833115,0.02048514612187774
1.7967433632454537,0.3799474852704657,0.3337908789908367,0.5428233416872446,0.3058237301151242,-0.5393315624847665,1.843675999518382,0.3828262544489007,0.3742192925933523,0.5523764333646568,0.2754456163361283,-0.3858800899142807,0.023288380034486245
-0.7334532520484834,-1.0082451434427024,-0.9884229296136255,0.2051899586669394,-0.7194632143281381,0.1029379567651256,-0.725086222047139,-1.0058811523588247,-0.9898614751309651,0.2010349228380619,-0.7572487009615543,0.4314063245255966,0.020431547582930143
-0.7306951731502123,0.5170056895749517,0.0339188960064051,-0.7081534105717759,0.2176805289371367,0.0872531511612594,-0.7348724602684342,0.5148785377127751,0.05613765583393615,-0.7100450538514451,0.21450562637301118,0.19192170658425312,0.02046704207425848
-0.7054243033960406,-2.0433575200664964,-2.355775348770159,-0.2410618137378154,-1.7585605943553946,0.9605990277665584,-0.737658336334789,-2.0622411022695815,-2.329037620775125,-0.21438644507202298,-1.741058386115128,0.8099372249562293,0.02520316690971186
0.4036920179860766,-0.6614582537993527,-0.3684963574760322,0.3251054924228081,-0.4121958356228409,0.3607937904790168,0.4268088662156515,-0.6400130229628758,-0.34617865166183037,0.34076659004722387,-0.40181933793746794,0.22451061349420343,0.0230438963781478
-0.1264305936768743,-1.2606822689656123,-0.0897886423654624,0.2105005053392429,0.0861084035571051,-1.4001279760785064,-0.11984359618872986,-1.2568930798254314,-0.1044131039311651,0.17411725547140122,0.0019056064597862132,-0.45545284725085367,0.02024992230434436
-0.7114380332549972,-0.8431376974581455,0.0530352076005827,-0.2660295653952274,0.0170048923123768,0.1995463904028311,-0.723262467306995,-0.8520857566377344,0.05787333699299779,-0.27398539433625047,0.028500102370344393,0.07760622040950693,0.02021627602531567
1.663022736129196,1.3019669774131586,0.6370436472118056,-1.4874929731502722,2.49455934153498,0.8720566782892536,1.674168170331086,1.3145682492051947,0.59844754889059,-1.4387325691986348,2.4972978789191984,0.6860664373380132,0.04008350383100606
-0.2725225306051473,-1.199023134333118,-0.0127608431159636,-0.1537957564413965,-0.0335685033046627,0.0251075198247896,-0.2739936554989981,-1.2002679765853372,-0.01418883240512514,-0.15535786349073533,-0.033129872381778114,0.03612223338132026,0.020244555484061955
-0.7273187672242692,-1.8827405706613367,-2.056185847663244,-0.1581746268306948,-1.5687609067258852,0.3464888860632537,-0.6925377699626551,-1.8850704420835882,-2.042990316339001,-0.0967842926695539,-1.5804357759129743,0.5020235609299561,0.024639661146785563
-1.3144717537554786,0.2936633926666717,1.468413533752849,1.4804859552137468,1.620461655328178,-2.8078179821819487,-1.259320535551069,0.30180867227113595,1.531782101263616,1.4802120105572385,1.6083788654786986,-2.5026728511875262,0.026941876087107353
2.2327545455670803,1.33769337688056,-0.56575834277722,-2.1644824979616533,-0.3963405096424863,1.8846859278349013,2.2530631060517408,1.3465042178186195,-0.5596773223078344,-2.1514815161112892,-0.4044166087528538,1.7403524990986625,0.025254257384233092
0.3716967460762594,0.2426621235428646,0.8900477668090276,3.133693734835481,0.2101090654908222,-1.244700339204212,0.41496619211829966,0.2516360804688702,0.801077325946153,3.114362171805851,0.22351076263839786,-1.631282973485213,0.030051619973839372
-0.1666027771396608,-0.4727809418621047,0.0273028799956237,0.3150119244986517,0.1339619726684326,-0.4295443823755135,-0.15775336396791317,-0.4690902690410894,0.03397442634877734,0.28259050213932824,0.08366295166115378,0.11043912851891946,0.020247254066844966
-0.3614830331437709,-1.3426797353221471,-4.7258260400669,0.6695714823963074,-3.7742959211670586,2.935332770418414,-0.36684443863896377,-1.1457695226420128,-4.525781929847199,0.6348096379482513,-3.7476967477646213,2.8728991179123113,0.04858255791454241
0.23599173210686,-1.3679463444194409,0.1189256009092195,1.4120724332203458,-0.1976478310706537,2.350805794131907,0.2720522299159711,-1.3552299761715858,0.1502608864020658,1.4738895261880316,-0.05345611479970103,1.4845249948157289,0.021976717598071793
-0.4262945802467408,0.3173543771726069,-0.2636523608024433,0.3833731409250024,-0.4210430013160202,0.3135995584108746,-0.4528851685452082,0.3114734107116419,-0.23300105588668885,0.3607265866853595,-0.44115581006917637,0.3727539506398898,0.020319221143722366
-0.1865865677131578,-0.2585614173233687,0.5961028097512843,-0.0134884730910787,0.3291322609622198,-0.4574502488456256,-0.05743877809618425,-0.16404138060534024,0.521906920229867,0.034616819503753504,0.30596186978209516,-0.07890248367039021,0.031549685125334015
-0.2498180449726515,-0.1229915442701347,0.8573480329733862,-0.6892955299768733,1.0747706290120465,-0.659580482701563,-0.2598977744773947,-0.13567657666499144,0.8191099661726184,-0.7147966865616127,1.0481016001263015,-0.5520184148590488,0.02324518605227127
-0.2084820826028871,1.139610592450401,0.2347870753972511,0.3893275184308527,0.3263743530535021,0.2875977429072181,-0.2288978352205504,1.1560607237313434,0.18949431575038034,0.40191371875289406,0.3133432085401182,0.5220575260937039,0.02052149828112676
1.4246136438742605,0.4288590614216311,-0.2172432694420533,-0.2603841469400983,-0.2754176781824625,0.3559790082756347,1.4125251112245678,0.43022829276128505,-0.20348594326469538,-0.275120683462319,-0.2845921930838813,0.3445674753274943,0.021067717865470292
-1.1195833481496371,0.2383897950024897,-0.4678936512296039,-0.3486350554272338,-0.722703563691368,0.3454501351059634,-1.1090106026235844,0.23188244467178265,-0.3807854462229443,-0.3344448373729847,-0.723464686832358,0.47361233691117377,0.023518524904040994
0.0960863058350978,0.1671114180408921,0.0778706734655096,1.9746172597324383,-0.7080098193429686,1.422162745585026,0.1279314474199964,0.18975754988196059,0.07055427406658055,1.969271869134218,-0.736954250119652,1.5122037565379287,0.027408234142498322
3.328847911820261,1.27236406608104,-0.068099240179423,-0.1943090520588728,-0.0629820890178313,-0.0867737182788782,3.4776484257904485,1.3229388331060363,0.0025414940459995705,-0.0683302677211941,-0.08929002554805265,-0.014339700639538933,0.026175511547563424
-0.1529008488671417,-0.3627925300716835,-0.5445321906467456,0.0034849349675036,-0.5236375964572949,0.3340684110025408,-0.07820674672075256,-0.30245558064461875,-0.5498638693202338,0.01347603135764075,-0.5147777385068366,0.20711358496191679,0.021065808148094056
-2.323618756263239,0.4450143653818301,0.9648513605409909,-2.6502754374338062,1.9792575056259856,2.268731196335315,-2.6732455699525417,0.3500321068776202,1.0540522996112713,-2.808522237673344,1.8014427601829084,3.4839371210591707,0.4450267027870393
-0.6158076724507595,0.6240269359288637,0.5245654938863497,1.2838828076692244,-0.5836126277741494,-0.9453398749596228,0.08187484145287272,0.2654307734003396,0.6019323363284457,2.1612090707888,-0.5936768078840942,-0.39094066690813634,0.04573206774851685
1.2171134225308842,0.5375707859439366,-0.1924765003559037,0.9161385252259502,-0.5478304361313544,-0.2396385871323,1.2282210676555678,0.5429655214045397,-0.21327201550866448,0.9260889965859178,-0.542565258671857,-0.3243092383600015,0.020872761881548463
-1.492393171245274,-1.4584841349337287,-1.5424249372417569,-2.5968345513923365,-0.5053062886308544,-2.886947579044852,-1.4977486587408748,-1.449611854336581,-1.5527773617870935,-2.619923204191309,-0.5727253853110597,-2.1625862369619426,0.02652025609157932
0.1208987364947216,-1.3510640121614528,-0.0488759371657438,-0.0509031285710533,-0.0737065308225524,0.008193173361983,0.12934204463681453,-1.3445604872754302,-0.04861100872267343,-0.04652828723760649,-0.07516671230814609,-0.007663186344871065,0.020721402825195134
0.6959098553096884,0.1436620363913617,2.1845601359982427,1.0301660981478682,2.434790357935962,1.4570602829081147,0.7233127070419414,0.14060179401735695,2.210912054476921,1.0233010869603731,2.4148546755413918,1.7093408655418898,0.023621097181745376
2.0338469092526337,1.8139112667158168,-0.4691904101143591,-1.8022819084996269,-0.2368550439748903,1.6263883559100647,2.068956012372837,1.8189272732051904,-0.5279132771779587,-1.836925765075648,-0.22111166388685888,1.1990199222527735,0.02198349696753582
1.6502743658926051,0.1094442479680009,2.019610347462173,0.0830431646845881,2.1466973791720907,-2.5772754998776595,1.778489628140278,0.1488285561451903,1.9879899923780613,0.12689095414975782,2.090644975010491,-2.2544747141400876,0.039565710350487115
-0.5408715356654383,-0.1087022770844534,0.2160446019512782,-0.1547371215592652,0.2042764555273008,0.2603674794862132,-0.514019912569438,-0.10135696644579184,0.19244296183796905,-0.13644926793790546,0.22487655533632278,0.08991602757305373,0.020581433335692345
-0.9948033273029484,1.149453042699569,0.3129041729695125,-0.1236774790122861,0.5938973323898497,-0.4099509065672344,-0.9716553107650725,1.1694129197735492,0.2732704275854303,-0.10158999051623141,0.5848416846429245,-0.3783995448720816,0.02104861091184035
0.1360693939274327,1.0822364816297891,-0.0212656859219784,-0.2085829139614642,-0.0185188606671811,-0.1344773254474461,0.13451887048313438,1.0812098664773657,-0.015470991858364869,-0.2089118332075941,-0.021002312379550858,-0.13348966802368523,0.02013645111932022
-1.0617372848439874,0.4831609830405956,1.616259681760284,-1.9542436527145672,2.256043034958384,-1.5243688510816888,-1.0922152941311651,0.47907668372613443,1.6686741895173327,-1.9713076594947552,2.2410346142842172,-1.4146060749444587,0.025308870041989173
0.9506334118685744,-0.0974001390443714,-0.7976424568420253,0.6672337813130411,-1.1281245762216967,-1.226755669303475,0.9600319702597062,-0.07520214118699187,-0.7310559433590242,0.668805210658661,-1.0869231229985417,-1.0105025142402155,0.02492559506640618
0.6757076846897232,1.120835102865896,-0.2028090552754453,-0.7923302310179708,-0.2932092295879113,0.0830176237813794,0.6640442765256012,1.1091290541212402,-0.2033293016247626,-0.7897780544265061,-0.28968933458372703,0.09868313954939367,0.020352716415075356
0.2826883967244064,1.3185616918980982,-0.3095666366080397,-1.6996912194305345,-0.1248358203453235,-0.7162056124917916,0.25192375364576947,1.309716755568843,-0.34806864833444706,-1.675427398296506,-0.1417799941264093,-0.7682713743306522,0.022053435905412477
3.016330467487318,1.229190970725182,0.0849020154345516,0.474160485700449,0.3227523259591081,-1.0601966682812107,2.927588115889307,1.2327463671490477,0.17329465361740404,0.45532461571423255,0.3181904928401309,-0.593148683520667,0.0404154854619489
-0.7174434148759602,-1.7938530942179298,-0.7352355106394503,-0.6348465879840124,-0.3172401423831688,-0.8388139269688705,-0.6801721207475566,-1.7794756930538824,-0.7594349061164394,-0.5987125454660145,-0.3204914334141904,-0.5472950858711556,0.02185739614115051
-0.3225974167336433,1.4284633317408677,-0.1810525962543256,-0.4184239693969731,-0.25329832158281,-0.179339529585192,-0.3193428840518209,1.4393125623153082,-0.18855582589230835,-0.424628565083367,-0.24592297239405525,-0.1414198723177833,0.02036678649776008
0.9272138695840232,1.4445721543101422,-0.2970352274165899,-0.3912276745902101,-0.9125379039074832,0.3909558224758956,0.9596042922523793,1.4700433801315285,-0.3107382184139169,-0.3729362653214139,-0.9159048477504257,0.5546127689958666,0.02100114337756026
-0.0918958619190283,-0.4503174137280159,-0.0204344235994277,0.5602708872171965,-0.1427000462027221,0.0049651210761648,-0.06048987304939146,-0.4495874153208206,0.00019264649745309725,0.5751713313923119,-0.15163181084562893,0.07656769260211149,0.020401913800646987
-0.0127769503530126,0.0500218558105946,0.5261981838375321,2.074245165522919,-0.051122184767888,-0.9696115754126036,-0.0038074414032962522,0.06334075291579211,0.5141314426291501,2.065000916675899,-0.05306775958342769,-1.0568600753431383,0.021807479169993094
0.1631498549913488,0.9611305346303276,-1.2941460130691849,-0.5858993369085337,-1.5941274754091102,-1.0369664083728134,0.14246570137675008,0.9605421698242935,-1.2542566835072648,-0.586653952223287,-1.5880596483757472,-0.9210171500599245,0.023399030447016578
-0.0246265531818214,0.2177672236951177,-0.0059409985324158,0.716480971942,-0.3272374720700238,0.4379522481832112,-0.05766950444467511,0.19998045308648216,-0.00303293456636311,0.6685805750826148,-0.3113096698903064,0.4635497133167519,0.02189457749351903
0.2323786554130704,1.1637265104019516,-0.0268912844791673,-0.2060932579476353,-0.0254481309393902,-0.1195026783812857,0.2288481160021547,1.1652749250620218,-0.025566673091816483,-0.20470839540189445,-0.02757621621958606,-0.11169051023898646,0.020146949720810603
1.0897538896063104,0.7349900088346647,-0.54408714934852,0.6841649637485734,-1.0283970421455093,0.7721462817180187,1.0844896180738033,0.7362880433272494,-0.5600157148242033,0.67555350222176,-1.0126560853618685,0.7908357813539624,0.023396923165890093
-0.3578409482805764,0.51393724176138,-0.4435936794585013,-1.3339620115246729,-0.0899266530926552,-1.3783818675382156,-0.34741895270599343,0.5101467638703525,-0.4304149474960468,-1.3240484965917858,-0.10667009926737592,-1.1807117621574434,0.02136043078958466
0.9600843404235856,1.0424084124816235,-0.5374864116861202,0.4575545254360799,-0.8172651339409805,0.3326905181491399,0.906498536845902,1.00083405086707,-0.49377853433315977,0.4357660305313402,-0.8606226206347856,0.4056316943242564,0.02114209066998257
1.5634343528791874,-0.2445239874937996,-1.397730976797942,1.9011317385142128,-1.5733659541558769,-1.730775914436803,1.430213330692368,-0.22970042965698667,-1.4302644531267106,1.8322822561665362,-1.6113440258950504,-1.581275446984364,0.026873932007525247
-1.5759054736747904,0.3136246215503226,-0.7763049081118801,0.6180961364244558,-1.6008662631701915,1.895638921207764,-1.583007939327672,0.3187219062363056,-0.7811470867327444,0.6381095328881656,-1.5868496713474087,1.8806245248379128,0.025449849397837176
-0.7163607978560239,-0.8356865055644537,0.0537956324836118,-0.2680712483416844,0.0187618056925152,0.1925544603189261,-0.7281567004115459,-0.8444876820365153,0.05848884923352671,-0.27572739928518786,0.02967562693720538,0.0763331283305888,0.02021612734964834
1.2726003587172867,1.03845595243599,-0.2684530115844963,-0.3211672231207996,-0.2897713235753744,0.0954778169775669,1.2795293512149328,1.0450345405313328,-0.2652720589717319,-0.3244353633233459,-0.2892858995746792,0.18883186815219233,0.020500041426678883
1.9245978135531143,1.5951852020632722,-0.4301933525013229,-1.620800122250835,-0.1681680393695245,1.322720167610414,1.9184965309227664,1.5840544410925759,-0.4370890462309944,-1.6672263385812585,-0.15469642737389222,1.084763724982622,0.0221598204518611
-0.1157867305946812,-1.557233635339904,-0.3645457785168446,0.3600086283213407,-0.2889617260121878,-0.1164093067802998,-0.1011183283567334,-1.5500251076214226,-0.3693609316801485,0.35843603657349377,-0.28790183059709307,-0.04376284024328925,0.02039805029689007
0.9822667200837883,-0.207061007477546,-1.1172062477648352,1.2044992062067164,-1.3254687256656643,-1.0560380883309677,0.9239540171959106,-0.24792723592463517,-1.1860360585255876,1.204632201923232,-1.3263258158549434,-0.816794905334973,0.025218671036789153
-0.1181402874447607,-1.6852960065379867,-0.1902323582326741,0.2718086732166481,-0.1703120119609209,-0.2240074100981452,-0.14597376030451414,-1.6970481552511956,-0.18592159803029062,0.3123069403734462,-0.18490687952908047,-0.0567984480803716,0.02076795757317712
0.0014168906510128,-0.0948811635923938,-0.0024270916610086,0.4989799203151137,-0.1447041509766516,0.1377031626402962,-0.005676995251178596,-0.09770346859386336,-0.01227970463787642,0.49861117607702,-0.15102878953712207,0.11402773243025877,0.0202309004595162
1.726369069550964,1.260609630718819,0.6860491076500194,-2.0719140093572816,2.415779468356438,1.1136443578337736,1.718503658377358,1.252539833679407,0.6416242372047236,-2.077143212232727,2.4394085888743575,0.7795632995002961,0.028756328262644792
-0.7909579274234019,0.6702401976691887,0.1382358598206713,0.1684229741297767,0.117909239853183,0.1230804872594797,-0.7844600900421028,0.677803975997449,0.14811217995202242,0.14543076850372927,0.12176925833409769,0.13287246151958243,0.020791046670296687
3.46323793362846,0.036360036241413,0.5183294437779404,2.477011006338396,-0.0960749197949242,0.3187241814326177,3.1345765100901417,0.02047256322055091,0.11899628643709548,2.0647820439838824,-0.07927794016814005,-0.3213482053761254,0.2781025479781573
0.2117401191139075,-0.2752465529698915,0.2999969881107537,0.3030329575399164,0.2167061924275137,0.2719108107909542,0.19846876232350041,-0.2768213501824448,0.29520707060601126,0.30705218887351293,0.19297566693285262,0.5578904818830779,0.02065507209147882
0.5511368675833207,1.3673212048557912,-0.4035986658115123,0.7054182238497047,-1.682764677458347,-1.1430627523646195,0.5616243373632415,1.3760537803538,-0.4204960968929754,0.7146180550898862,-1.6899655568690832,-1.0990664971450315,0.022130052270995015
0.9544564328622256,-0.4881024235797486,1.3939572359707564,1.765511556387845,0.9446441870009762,0.58703551139374,0.9097017108049386,-0.48357074793534593,1.4118369831735436,1.721157509225577,0.9584316361256242,0.2745895834850671,0.02439800550562382
0.9508595957892048,1.1434189963932782,-0.5666339010490569,0.4637286129692483,-0.8979028966567264,0.3089136118788965,0.9649532581272524,1.1489894207823,-0.5630499093376784,0.47012386627125125,-0.8980300797356904,0.3265550870637526,0.0209303252582555
-0.2618857445886926,1.4711668761478116,-0.1837911547040843,-0.2093863367854947,-0.1567522083589311,-0.0951502545597551,-0.2830811525629997,1.4724464512787563,-0.20428985314811143,-0.23673989603071277,-0.15416591279108616,-0.16094800904829754,0.02071976575678719
-0.4666314196474237,-0.2925867590758049,-0.6746460526883338,-0.0198448656409654,-0.6509556706583045,-0.1981070791894141,-0.3786121981593169,-0.2630412528217221,-0.6653701925151836,-0.022814115216988284,-0.572827722546208,-0.7860357746321824,0.02183914441560092
-0.1545909876639962,-0.98900051028841,-0.1152229436979611,0.134569666315882,-0.0752654549853343,-0.0038532219593323,-0.16496464979172742,-0.9867461879150596,-0.10893779084472044,0.11334434376794889,-0.1006816711897045,0.0694245992708602,0.020257594878117124
0.1292712912031522,0.160524556839565,0.0579557432791795,1.639439543325472,-0.619854506389569,1.198586040098616,0.08833625117358679,0.1559031584524746,0.07244078686471767,1.6193972158832821,-0.5983571064170974,1.1776005715619249,0.02543161770344654
-0.3182234496421056,1.2712057730796522,-0.2371419721576017,-0.565269440866501,-0.2314356850404913,-0.3473873645985952,-0.30331292916071106,1.2814300698935313,-0.26322609450289747,-0.5472466457808878,-0.23948312142920258,-0.277689371327142,0.020369233383142393
-0.2119999476191209,0.5375471271111123,0.6287454670382471,-0.9102539557724144,1.120366332137937,1.242622841117941,-0.17984502447234263,0.5288863912271609,0.6447009125904515,-0.8682385579722904,1.1310278550231487,1.1919447548170865,0.021968717787849534
-0.5334462646114805,-1.4215158761800808,-1.8353872364530888,0.6017186462737544,-1.4196140577640333,-0.0637349274013411,-0.5471640493915402,-1.4145960000453215,-1.8763690042678718,0.5720531010811101,-1.4851864387374007,0.8670742278154648,0.021069473640906444
0.1291598225323969,-1.2732027630734275,-0.1559923458352801,0.2681996838355643,-0.3095462106736927,0.164914274150643,0.07969463479503247,-1.280026867504148,-0.2061049419758092,0.2533864681424802,-0.3609089818405664,0.3274813944735797,0.023565508922153533
1.5200359521090867,0.6270967555592257,-0.1676217438157255,-0.5082522119111448,-0.2010271109058299,-0.0720837776681939,1.5160599902997092,0.6272101550625848,-0.145788167588762,-0.4891248446274403,-0.2144247198884841,0.04048658941974281,0.02033384982298231
-0.321477840445809,1.2578316396044045,-0.2425083514370228,-0.5790448106520203,-0.2328433087414909,-0.3536607755462188,-0.3065287137492305,1.2674789261918704,-0.2701254146249994,-0.5601982534931267,-0.2409475550307434,-0.2862462838747888,0.020399555224215937
-0.3080156103772165,1.322845271473434,-0.2170181366173186,-0.5132608386123462,-0.2284572211546978,-0.3175764307688087,-0.2946006818535807,1.3348188984193712,-0.23685217404181458,-0.4994577093443695,-0.23520949735711838,-0.24539287337029236,0.020283009054118117
1.8937196312407505,-0.207122731779931,2.7059498029098705,2.7097365387107777,2.1511746751148517,1.966146891591952,1.8890322707486575,-0.22490902100128096,2.7268831461506124,2.7151785669135506,2.145074268274584,2.066287933717831,0.02378055772658144
0.7881852281418353,1.040965167082144,-0.1960976753222891,-0.7481966832501723,-0.275785750367038,0.0761975894732898,0.7783505371635329,1.0306471613928352,-0.19504097168919543,-0.7464252661177397,-0.273451983011455,0.07573876698370441,0.02031069856970874
-0.3238263879213093,0.8748807619158885,-0.7890981640616674,-1.178748338167302,-0.7135267204983802,-1.6892979878439989,-0.29089956791040095,0.8916861975163783,-0.7747517226562195,-1.193640687234165,-0.7006785352309635,-1.7484738777529856,0.02630339916254315
1.2158083821559966,0.0057244637356428,0.7627645931635022,0.8480117893029451,0.7821901890923545,0.4843501905945216,1.2697405107101076,-0.002344442103321853,0.7756404995029698,0.8773718124541574,0.7812204561396356,0.5997560493524361,0.02612272359864648
-0.9563203389069032,-1.324481027427481,0.6268873533768622,-0.1080029408083446,0.5677368754579964,-0.8969856299752637,-0.9552854760486298,-1.323103798876673,0.6207905953069712,-0.09933654520705204,0.5341273983576684,-0.46158793655922636,0.020620128080565514
-0.1775719602972568,-0.8892125317424799,-0.1142587363102005,0.1805055428745456,0.0566732324819975,-1.2698554151665575,-0.16554783855917776,-0.87829094221388,-0.13271390755380708,0.1474270280834844,-0.012590364516654518,-0.4419164680293761,0.020313416353687053
0.7292439273792956,1.3643385049440149,-0.3124138659382476,-0.2568355097892472,-1.0604849498093871,0.7539856908442019,0.7707619039395013,1.3789225137263657,-0.3191171704934277,-0.2601650483694584,-1.0495032457101843,0.6852250910742441,0.02158032841806773
0.1459726002854147,-1.4849579774456696,0.1040116260294702,1.3671356485002668,-0.106308839247626,1.52154731360236,0.14516915128797336,-1.4611719371266645,0.06760000323356508,1.3484382039273441,-0.14670579123458083,1.7594448881172866,0.02164870820895687
-0.0075855781265213,-0.1230006065661159,-0.0061341680057953,0.4860123972916765,-0.1549355260848832,0.194387481005805,-0.013988513200729358,-0.12719467391639228,-0.006656492243109824,0.4983306472499862,-0.14108667881646397,0.09709747435044846,0.020225288069219693
-0.9235676055517738,-1.31224798594655,0.4575982830256579,-0.0910432536455721,0.3912297316321682,-0.2493393123621814,-0.9189646362588064,-1.3187147470177933,0.46319668278283643,-0.07419389800475074,0.38943225888579036,-0.15844878470670665,0.020626671874687197
0.5736792197386074,0.7761039307255779,0.4344808016774232,0.2174155213763081,0.652316544047088,0.1402664337386289,0.5898358928670859,0.7904806339734023,0.4798895727235504,0.21349441659253898,0.6578753057247013,0.3422646716608142,0.021891955471644742
-0.4988683129785212,1.1797549827938345,-0.0701860955271393,0.5045218090231592,-0.3871628763357519,0.3440563646942781,-0.46437326045406735,1.169583408377548,-0.08178445560633918,0.5548442548126786,-0.390483820126974,0.4458684588644246,0.024902916278051357
1.339448127222192,0.7150858002289165,-0.1285424515953002,-0.5120966596604648,-0.229413807360905,0.1174078193946715,1.3733345353161894,0.7302275526585618,-0.15702840091853432,-0.5207812203291269,-0.21473670546720314,0.04667332200915553,0.020305870161123785
-0.8848002555809871,-0.2290674218842294,2.0913495896933707,-0.4116382435368905,2.2201778640958505,1.5528211180891398,-0.88509379452762,-0.2335873644358344,2.111908853748446,-0.4090885871930823,2.231392491050883,1.5998174426349578,0.021658230893919217
-0.4828325802845034,0.5722774021203587,0.4371785137786633,-0.8954366730779609,0.7715202724759529,-0.6606953063618396,-0.4532065287776277,0.5708004868486114,0.3934013803191192,-0.8777464593297282,0.7863204621617115,-0.7829386161902221,0.021257453394305237
1.11641929286803,0.8960880737562001,-0.635579173356991,0.6810879414668439,-1.3033437930777083,1.0519876441279776,1.134273346210648,0.919299535502887,-0.6676936048429525,0.6762554302531498,-1.291792586374413,1.0141497089280165,0.02204138210271339
0.8056528651327594,1.0342787795876909,-0.1818133664650389,-0.722411889022543,-0.2801234313353515,0.0766911821864064,0.8106641284298348,1.0351082411391417,-0.1995440824484831,-0.727537836987949,-0.27004871693725363,0.06763374146976275,0.0203034049970367
0.0054104258275698,-1.132220292306365,3.5301872969067776,1.0462896887278044,2.5683796630666262,-1.674856911552688,-0.012047202535995893,-1.127976690662308,3.5723857025845973,1.0356278912233847,2.5757018731128483,-1.0012274534201424,0.022664708849972903
