Roblyat/algorithmic_payload_estimation/payload_estimation/data/result/effort/25_02_025_01x3_effort_results.csv
Actual Effort Joint 1,Actual Effort Joint 2,Actual Effort Joint 3,Actual Effort Joint 4,Actual Effort Joint 5,Actual Effort Joint 6,Predicted Effort Joint 1,Predicted Effort Joint 2,Predicted Effort Joint 3,Predicted Effort Joint 4,Predicted Effort Joint 5,Predicted Effort Joint 6,Variance
-0.8630657277379125,10.117354910401932,43.174107391687045,26.41931540462344,4.40686298149489,8.384501963500034,-0.8710218839074698,10.157292552871079,43.1547693826334,26.193992105167542,4.418776028975202,8.410578261928068,0.07263895536093715
63.78093455365608,-2.3336008333358,2.835794821312381,-0.4067731263336572,0.2126867812337724,21.09471570729904,63.81422162284548,-2.260407448520482,2.8357539751595056,-0.40789189991726005,0.21242025487301142,21.0935015507942,0.03506371988769588
-4.457303987963676,0.1403464326731044,-17.6117642448851,-51.03702785721184,-16.838536413573856,0.5542578830441522,-4.4497696411610494,0.1429627174015522,-17.616595130208545,-50.88202410711588,-17.009014078701483,0.5701449877457634,0.06433341251906968
9.58769588181987,16.221055600867768,5.526481654195212,-3.639974558723545,-4.850748453383213,-0.44011044905863,9.598101695931177,16.186066248780122,5.463091526931635,-3.6303823475510164,-4.8517523064248,-0.44078643674766926,0.03267657906784707
6.112218740604833,0.5087554946890359,18.81539216138556,51.88496907767035,-16.00324801209247,4.66795482741538,6.1131823833628545,0.5087851927708655,18.82081831684448,51.89586638316143,-15.981675622902344,4.668891705435918,0.03241226242463627
29.43083590406168,-8.992538545244733,-9.543070537253708,1.381458699579135,0.3077554374117433,4.030356047565357,29.463131565748824,-9.054810598473068,-9.54733878030953,1.3794999168709694,0.306879311662434,4.057642387374699,0.03590410726563023
0.0726737325702318,-1.942144109576305,0.7213500167281084,0.0006953945778656,-20.42384848204371,-58.5074886162283,0.01260829060316837,-1.9323974466483378,0.6993565286039711,0.00541293870037407,-20.408371155835084,-58.55375781822045,0.02998335134399413
-0.1746941751335353,25.55582097133449,77.51007550179847,-39.18427619816935,4.942855511026806,4.149728051694188,-0.17768471898866348,24.96369505817599,76.28466536602576,-39.364327788225985,4.819565431217647,4.119598749255122,1.0178104683191485
-0.3858171062948414,-3.5272202892042888,-6.357186698069889,-13.106597779088794,-5.020078427275735,5.2771519118644346,-0.5367345358701929,-3.621457078075011,-5.945424817327876,-12.574966785700099,-5.056701121887274,5.230250968625294,1.894286170886496
-14.246595100202477,-0.2207053497958724,-3.499634574770504,0.2561601576902158,-16.743270821614445,-48.248333371074544,-14.27714149580329,-0.2208916488275321,-3.4887150487065757,0.26466522917344637,-16.76955454696227,-48.317741490477914,0.06443289491475271
-10.341663196542232,-0.4176963876194454,-2.483075719799728,-0.046057903848132,-20.9015335088784,-51.873944966692186,-10.774165864399684,-0.3744903226274526,-2.503202910890827,-0.041744727124434805,-20.898908078177993,-51.837808475961964,0.0744042743107022
-21.93471582887389,-52.88782634295479,0.0351621832479371,-2.8071658337653465,0.0809348975769362,-0.0005129208862922,-21.92058742941299,-52.825669043845664,0.011231432000158748,-2.811298871996769,0.07439961164726583,-0.0005822009481448731,0.030567266413961264
-3.5272202892042888,-6.357186698069889,-13.106597779088794,-5.020078427275735,5.2771519118644346,-0.4116979150884957,-3.542525327774058,-6.500260216078232,-13.205617548639339,-5.029799891863846,5.2965887582579825,-0.40341089703059296,0.06832272271649545
0.0710620038169551,-20.21582088032617,-49.21286813437048,-3.1380908307054067,-2.853285085328506,-0.005879897779109,-2.9490479679692783,-22.442820414258335,-50.061051084972135,-1.1408935475233761,-2.42945319799594,1.8205684258611825,26.467872318087394
3.1484499243511257,5.869420205892372,0.3654592294412183,17.326084869609446,40.42657007509296,-21.087498207227817,3.142388133158306,5.873407528714154,0.3662498651170445,17.39163332878973,40.27399676268146,-21.381907913224154,0.05511700985150783
-64.59300767567679,5.375213609175652,13.374062343532309,0.3922180298407077,26.58951301761281,70.74941367006737,-65.39210877373932,5.377787732231553,13.39946725489908,0.39297022878677446,26.57093108365106,70.97403689182829,0.0570578032191881
0.5444609477851401,3.1119283065761705,0.0512640861744318,0.1979490559583367,22.367771996668136,62.43606639574055,0.5369538252908796,3.1110672236705446,0.050676719907259304,0.19790789155067934,22.355109594060124,62.444592442776866,0.031853073145193506
0.2326854220898281,-13.450978999953389,-37.23630586092542,-3.8048367980048656,0.7474070494030873,0.5591138998011073,0.2356397749500445,-13.016967071768477,-35.33823016128508,-4.196886761308178,0.7855050733992641,0.4348097038785568,3.9888806825985417
1.9250245463242843,-1.3043479207755335,0.0451046792703575,-13.451793540398716,-49.14858873229344,54.2492749503365,1.9390981282974782,-1.3073210559724513,0.041418597065213725,-13.363432961431542,-50.052774850383756,54.385386436101015,0.08076434526308476
53.348864416719984,-26.26385411885148,1.5172880378560791,-6.26674077885073,0.0224162628365183,20.487987120009013,53.279586531380346,-25.556215509841195,1.475702323520835,-6.228339629574632,0.023964530149274132,19.88095473548961,3.751815501251237
-1.0159684094998391,2.175376791459116,-0.234654441492086,0.2611574101603778,19.199013364368,60.828016558481686,-1.5560658884614895,2.178594263802781,-0.22284483426168578,0.26128596318747555,19.16142543728543,61.45766004581492,0.07655281848557452
-4.013062396839524,-24.1141263939476,0.5990990393288733,-4.615929363073101,-3.2855366099797694,-0.0460952506774907,-4.174910061928326,-24.114800724118673,1.4622430136979574,-4.6587573363680335,-3.3840569073006166,-0.018381579856635355,2.065472208719577
22.36314454219089,63.10941602509109,0.3287168676695843,3.153807139217412,0.0076042813779413,0.2043067434338328,22.361044354926094,63.1113150293902,0.32113842109595225,3.1533803998929386,0.00771643620924678,0.20496155797008697,0.03373943412984973
-3.412615334317104,0.5877993214631813,-0.0831138283292441,-21.90079984757501,-57.04563250278535,0.7212810114258936,-3.793836920452499,0.9423100325689688,-0.3490783446080741,-21.6854590691041,-57.66532157064083,0.3037383590948224,3.547676137120313
14.030814660106676,5.544350592326098,-3.418661197585748,-6.218279799044969,-0.4922346659063966,8.112323644988717,13.930637161561208,5.272920544321096,-3.4170161035104627,-6.215308259886754,-0.4926054982013124,8.117384272253322,0.03509173127171353
0.1148907854121531,16.177514495715048,57.45801954002774,-4.682429969892013,1.4311374117121922,0.0248392232125487,-0.927538441470702,15.87475407465572,55.019785921978,-1.6337483109731163,1.0927560934014906,-0.7407775488399864,110.22672230714771
-3.776993791863737,-5.434980184678018,-0.4586374038422817,9.295249587975634,15.835246984040614,5.741675480507946,-3.75657762525152,-5.435176111068906,-0.45822652141336606,9.267822474927783,15.97012038903108,5.720325333147457,0.034806730086679366
-28.908366602526456,5.091283676296777,-5.393824682066646,-4.323485693224294,-0.1598685219657484,-8.105049210545422,-29.175988919176234,8.106438428699676,-5.621258273370444,-4.471211529723828,-0.1355815743790032,-8.064173215415558,1.8933494988769233
63.72655757142938,-0.6851390443902897,3.140413212733405,-0.1693573197074267,0.207571715055252,22.078577311357527,63.84494839721117,-0.6600056224563104,3.143210621459187,-0.17017975186285028,0.20868355629471935,22.072549228932672,0.03846755503642699
0.015843386836785,0.1848154988833826,22.253800877861952,61.041869585712135,0.3351157745106977,3.038916280832339,0.018921190466485882,0.18398860334851186,22.254168019652056,61.18545700737059,0.2951863794577321,3.0394723247293345,0.03900396103851081
-0.0270803809933756,-2.8073283512620546,0.0742088232025742,0.000364956531385,-21.950906775191005,-52.672733836418764,-0.00026301554331098487,-2.8107753463991685,0.07418664231022376,0.0003950935715693049,-21.932857019219796,-52.76576554354119,0.029743961200133257
-18.60781872336124,-25.055929227158494,0.5316849729097655,9.35757789976501,0.5587744438521746,0.4593133423751952,-18.602826124496367,-25.025031192612346,0.9560764737279897,9.349236321015262,0.5599475759062642,0.4591574023455127,0.061017805261066954
-0.2868626205943816,-20.959976458955904,-53.15295514254457,-12.281509686904936,1.8046493366909468,5.480478614631794,-0.1521459347699441,-18.065376292196703,-45.94757589606411,-11.696472889152574,3.214334522587727,3.171798211291751,65.08373812000183
77.47739800941936,-13.095753724961185,5.027571802882449,-3.592131803640387,-0.1706606906409913,24.37460206794893,32.6928408651006,-1.440365184995428,1.6652726656415506,-1.1794326636855204,-0.03672410755386138,8.267349743433163,260.50655071163936
0.3211975389017806,0.4958726298235831,0.412448797285499,0.1883895734920406,14.767606896139474,36.71727764965356,-0.27855715640729084,0.8598254673355734,0.2983965929246808,0.09112694181941183,13.951699108318849,34.079254569932985,4.982521316435943
9.6265191261427,2.798871781460192,1.6052130585052076,0.1482298587108355,22.343303624918327,49.81635208331998,6.269428402824175,2.0148810541726823,1.1688838429215895,-0.09235231629296692,17.62770299310371,40.98257114801956,103.2342959948367
-40.69148915836095,0.8303845490869002,-0.818035759681519,0.1753878190240212,-0.017778930707234,-14.458656181226688,-34.49021684326101,-2.067632140014666,-1.96868233328712,-0.6030353366431882,1.8789361644130622,-16.75480590312884,4.77217301864895
-2.176736945121336,2.793895182470956,-0.4220667983023882,0.2133975360843993,20.97904557032924,63.85051791304563,-2.2474537159455394,2.792379404637807,-0.42067844901457363,0.21350636791586908,20.97777977578818,63.81149775387348,0.03232447794560103
70.16563476067223,-24.72253703774269,3.395269203788923,-1.7859831388690983,0.2781808128515149,21.497404938634453,70.94744273529604,-25.187178855627383,3.5266291242013605,-1.7838269946873035,0.2930164619805481,21.736853681457408,0.6608729516801551
-20.2752827013588,-51.01253154431088,-12.375685345360685,2.5830175236506543,5.925939135865742,-0.1984910114559681,-20.44212986418705,-51.315119400942706,-12.883314152601088,2.573654868595373,5.933828538926731,-0.20787606610927645,0.1622544186361458
0.6368243909830007,-0.2850684605801945,-0.0186202103399666,14.51133495158482,40.03389156639223,-1.4061620307203118,0.6635657593052606,-0.3112004258018999,-0.02244081793194752,14.520148736963186,40.118802635929725,-2.1468259551562454,0.1631468741222554
-17.291721818129865,-50.91822854555158,-17.163636944565898,0.5858845682398841,-4.50340013710767,0.1450392304796107,-17.305965796164003,-51.00776747902273,-17.171551375590298,0.5867511799541205,-4.5035383515446625,0.15804892025739825,0.050666425455269476
-51.819147547198696,-2.3401311425998634,-3.487283426636597,-0.2126722178655434,0.0560259528851718,-24.2966025696539,-48.16958434660825,-4.271909186047196,-4.014822325121429,-0.90867107375675,-0.18639943689755967,-23.185667493973227,5.965564481394531
32.013847873415735,75.82092841004138,75.84579512272438,6.343485659842115,14.681352297215764,-0.5600614580689696,32.2882814794186,75.52649910354721,76.62959828238039,6.375443300393816,14.759467970390826,-0.5627370130253975,0.0762362982681927
-51.03702785721184,-16.838536413573856,0.5542578830441522,-4.442122235443314,0.1400216501070129,-17.709504780734882,-51.16011204260235,-16.68904914207633,0.5615960214860252,-4.435007654717438,0.14279938099476075,-17.671583656829213,0.21328263834218633
-12.739780360756852,0.9355673936372764,-19.825893041731327,-52.54968500192843,51.85017965567537,1.1083333364745305,-12.863002013821193,0.952386864623538,-20.465252752668363,-57.36264885499017,55.55010990845532,1.2469016413755636,17.71720849571907
-4.434540496033846,-0.0382370187381102,-9.10296496751923,-27.611110559045883,-17.674229073049542,0.0089515572445117,-3.227531373760094,-1.1322044558255868,-9.62729419862938,-28.423082487342157,-14.044291991819616,-1.1705538804801918,55.94634287176209
53.52903965925478,-35.70249006596461,0.9546396082317536,-6.925566664341608,-0.0331276214882742,19.09488474100179,53.36293196228135,-35.571466843101035,0.9921662754345846,-6.741602845260793,-0.03144204084258728,18.88082269619862,0.7555710933370184
-0.4231538084765902,0.0835924389979618,-13.64897101507299,-44.27471385438909,3.7980947624946366,-0.1943142550554628,0.06796536756223759,-1.6222009299171987,-17.874769827735236,-53.90372017520349,4.311447548274714,1.0833526957672461,27.283015811529403
-0.5592806860432676,31.00443874184328,76.14648970505027,74.98707212511675,5.508999354882703,14.69774063502067,-0.5605605105924998,30.966968130992445,76.12807679316677,74.69347918105092,5.509046749370463,14.696058011123476,0.10930085176719531
-20.424720997712303,-58.507230114005225,-0.0633692929660896,-1.9443456408407351,0.7205142404764109,0.0002511447621328,-20.400062079846975,-58.57103600062692,0.003131610435730181,-1.9445564249103882,0.7263068986162011,0.0009039676834845523,0.029799253610669624
-0.6595737954518124,-1.143900872026284,0.0340689617539122,-19.33087409278777,-46.58113998628896,-7.866036441920404,-0.6553955328793108,-1.1456271944772425,0.034127863735072594,-19.341029047707707,-46.46034349163119,-7.970973998319664,0.03406566748461928
-0.0733490896041796,16.54281573197346,34.632588848364094,-10.46700635195608,-4.24613987259501,7.163135335330536,-0.07634904025548916,16.866870326614418,31.569318638842734,-16.7986462080178,-4.238484020485126,7.0901385445787355,0.617138774332013
10.724561227865353,-0.5579918033237119,17.112702594517554,55.97941479512204,39.65056699979532,1.339225908616069,10.751848811986662,-0.5601421932852562,17.140023373638144,56.04314902207557,39.72484659461293,1.3487869967814134,0.059400135781495195
5.524404985443059,-3.48977053978238,-0.3936399526312698,-7.275849940986783,11.632968710932111,-5.344691337792819,5.524287281094198,-3.489201093810262,-0.3938202112975766,-7.250566577484278,11.434704853071707,-5.598451524914708,0.03262269699403278
-58.57555464065522,0.0234531842323933,-1.9421253328132304,0.7267482322330002,-0.0089300363922511,-20.41106578044256,-58.47683472262787,0.06961152266467252,-1.9401386778667984,0.712053510318583,-0.01580984597836732,-20.437048876718734,0.03087937235822183
-5.46218765978165,-2.971482689323772,0.3900301689241444,0.0248627546896432,-27.896926160829,-71.72513561109581,-5.498952638914687,-2.9726063540427994,0.38189483207884223,-0.0004815299417586516,-27.884593236520118,-71.5428371215931,0.09988709047920766
4.270897819946455,14.525147649058209,1.872747877170833,-1.5996007739784497,-3.828270215248639,-0.2041310777337197,4.335224199415439,14.472992710552795,2.503945731241174,-1.5991637361065916,-3.845751073587081,-0.20763032079346355,0.04308488538001912
57.21572854023589,41.27261708955072,1.3476660931872464,10.899722268629835,-0.5536926939115764,17.57392531915802,57.171760316074824,41.264230436131584,1.3415958158843289,10.906839395911192,-0.5539022377613989,17.58160091329364,0.033985132287832315
5.0536816242015,-3.131694313769244,-3.997268953246613,-0.4260067510061279,9.53907545024327,15.744601213423543,5.850500142655392,-3.1677865358024917,-4.001987304521531,-0.4260109792567235,9.393605198401701,15.912872272936966,0.09879654503127058
-18.294782953346083,-45.6353160365096,2.1811812270143847,-2.230783918769072,0.618300015188725,-0.035207766259322,-18.870618486043895,-48.50332707580765,2.529680598298455,-1.8410308884808728,-0.46661682844677443,0.5671598214570395,7.7374027968895485
0.0942653495844534,-20.55469279098829,-60.172913843093326,-6.657261681404859,-1.7967973854848591,-1.0558799294280754,0.106078430360661,-20.598682985134538,-60.171445707469275,-6.651568390803371,-1.848562860273205,-1.1403322833699576,0.10287628653200245
-0.8295227892828146,-0.2027822120787836,-11.19238708634706,-30.32298212938631,13.610887713553073,-1.8304496484241943,-0.9088988755970915,-0.30655536144178797,-11.0621323252213,-30.707149913401103,12.91092107074598,-1.7114331217994352,1.4592003580596404
2.9642659984973645,-1.638069075619994,-4.023960355857967,-0.2240789621341214,4.20367894837154,14.376597103464444,1.6901379656305835,-1.5366573311775795,-4.017664626766731,-0.23073405105586176,4.181463171590053,14.321096768280086,0.07135018894124615
69.43235713637952,59.641532707353264,2.34694440459816,13.19724700874546,-0.5340236726831309,24.07792156840202,69.231462028426,59.30174598782651,2.346205227004427,13.159580261498832,-0.5318804016511134,23.99799325544518,0.0587306201506769
-3.1770625790651685,-0.3220844759562636,-8.183262665487693,9.638116221574355,-3.7161233138958414,5.850869419997773,-3.17184557643715,-0.32063348103706346,-8.164274413926734,9.595343993641336,-3.707394617598993,5.8457257882739135,0.03895066899671265
-3.7775395507842977,-5.514669441185747,-0.4616722165973551,9.230943388253996,15.73146249115355,5.754588234235789,-3.7573806786728206,-5.514762542001142,-0.46116074217197056,9.201671731555393,15.877943561216966,5.741889516642914,0.034841929711980996
3.112306484308084,0.3848774679479143,-19.03930007277025,-34.946014908599,-2.9812608212014484,8.440269989559901,3.122999278824019,0.38718289159850855,-19.05307583596389,-34.36054179057849,-0.933858416233373,8.444935137933495,0.04117417742666221
14.147077253073077,0.2041911600083435,27.54922332784433,73.84942560653832,-65.57743403246316,5.280540400588484,14.147350667304318,0.20397772814322307,27.546994806725877,73.90790577383905,-65.53595470017115,5.28470027663306,0.03800970128546824
90.66663230524696,-6.669346838221738,-0.0408954304673492,-2.0993166307836684,0.4115645238321968,31.08917093470825,90.66738605469557,-6.338648417481522,-0.0494550823557276,-2.1007884808498787,0.42743458554848957,31.08262113895171,0.060034284361031226
0.7206526505367918,1.1922237213874329e-05,-20.399793684207165,-58.61794211287377,0.0734954607669342,-1.9436971703425463,0.7402418789999956,-0.040435247533423535,-20.396030298207393,-58.63475716036373,0.06857247896414265,-1.8328364079267203,0.03186843375423423
22.37152417293522,62.96738074811562,0.4005555423160675,3.146320765260466,0.0219292141976411,0.2031487892842952,22.359320791456753,62.98715957948389,0.4211526438796369,3.1461396316765544,0.022288591459417972,0.20206728182203193,0.03191825367188331
6.230629237215899,0.5462630537746788,21.49030139366836,61.81679052034914,-10.873660315310897,4.376392829330102,6.227688870758996,0.5455181314998798,21.46241830823999,61.78365620616637,-10.859485086861582,4.372790530368945,0.035080774722339086
-53.43409285175401,4.759518836015981,-2.003388531693359,1.4998232659197912,0.1286713582332121,-22.10320017278532,-53.53288083858675,4.786269836328131,-2.102044588853616,1.429135802108874,0.13889967139400738,-22.4233411259558,0.3273584796099632
-59.44463712001349,13.766477036736555,-3.5626704763767223,3.414094664222906,-0.1740164924877777,-21.30176501184141,-61.22581418070223,13.917456912294611,-4.0128940627851355,3.7719993829860208,-0.08985379719854159,-21.9862581825497,7.225768764702345
25.910241180523062,58.28782940229995,-0.9272083385418096,4.990910479837863,-0.5563184181215393,-0.1668385141953433,26.439118211352426,59.362908761799766,-0.8396862437083178,5.134975021670447,-0.5448899640233558,-0.18047072678500947,1.3212062270354543
-0.0629319108557158,18.187923686645536,52.45034885517165,-33.97362209035243,0.754803716224223,-6.341610036891756,-0.0637724380261071,18.225001656038728,52.732817530047214,-33.810475106618014,0.7429934083081946,-6.3440115229378335,0.08378111026966253
0.7213837384427491,-0.0004330198817425,-20.424728410744343,-58.50721260792931,-0.0633964784421899,-1.9443468368457053,0.7086526190723816,0.028122169712332834,-20.375517885917873,-58.54542096224213,-0.04425118299684527,-1.9992783720699663,0.03083539369905766
14.134445252457896,-0.5423717242776807,27.42210053079304,73.44250474472072,67.89263991802979,3.4895741192952934,14.139553489731284,-0.5438706945307246,27.428821927833496,73.2898304936607,67.63708965654041,3.4968302993412976,0.048028489659352275
-2.136066613265331,1.9082586263974928,0.1072696440199383,-24.03152568471593,-62.59638161937647,7.654984789583485,-2.159976647845168,1.8749862937719008,0.19592035774947858,-24.18994153273353,-62.80704341308064,7.766817318274516,0.24223285555118737
28.91922177752885,5.049924924619504,8.851558472304129,-0.9266621112235116,10.250063850769903,43.57703489253592,28.46753189634387,5.037437414927226,8.836188369820547,-0.9279852001462761,10.231070904131599,43.43978987245032,0.23430666864241148
-21.93471417577593,-52.88782833671843,0.0351622377922784,-2.807163846418125,0.080934739911726,-0.0005131972965103,-21.920772127503824,-52.82552831472549,0.011231553420657292,-2.8112686822687465,0.07442348720582004,-0.0006072420932241585,0.030567319265266818
16.798101413231812,55.172328822551705,38.69674973122539,1.332863472806106,10.546481866405594,-0.5622507281203185,16.802608695434426,55.19219799423566,38.697707650984,1.3359240445769727,10.546314871158119,-0.562597913627716,0.03620650666173533
0.5388897964553927,0.2068977490260544,13.411913130668536,34.25919723983886,0.5793619685204815,0.2809931788437002,0.6812806792809528,0.2118319049020717,13.655618447101077,36.47299963332209,0.38990741746503055,0.1722935301848061,7.512071775980737
-0.6312852030045201,-0.2396868912715799,27.337940040235864,57.18880166763432,-0.4550592296223974,5.742320457305689,-0.6329296397547761,-0.26512394683841745,27.16224549478368,58.015708660209015,-0.5777959467202649,5.692544066606253,0.5782196290676117
62.81194707285523,-1.1860358393447756,2.335213608710589,-0.2757216524599168,0.2110341877668675,19.48952205822017,62.84961925400944,-1.2620376152367498,2.3455100205374766,-0.27862261539821453,0.2308966071098313,19.540065771181546,0.24725296974904923
55.05054506583841,-0.0085645448509361,5.769215789851618,-0.5914820695831426,-0.2444242475851052,27.39534927864187,52.17751920419789,0.3015261693705895,5.55242744377578,-0.5466275631099506,-0.2614694693931021,26.696138970116174,2.4299643917407043
0.035162779071818,-2.8071517012174234,0.0809337499729954,-0.0005150695979042,-21.950895246098103,-52.67274571925359,-0.0018705753105336953,-2.8129418536482262,0.0666633391748519,0.009490512012916952,-21.92076561286251,-52.71378001683138,0.030497479903183106
-1.4296120850030023,-2.444546316616948,-0.095858787673787,5.419756112242893,20.267226607016525,0.3756404466696537,-1.4458887938248193,-2.452726949348061,-0.0967643139686114,5.3354500206052755,20.325051784192368,0.48761468225069393,0.08245546238894322
-0.000517632275721,-21.934693354601173,-52.88785477626562,0.0351638836317431,-2.8071381996737474,0.0809325855403337,-0.005912100240266227,-21.94378759170604,-52.80647845028756,0.009775724777227879,-2.809526297507432,0.07495163761851131,0.030635656953543006
-0.2196710964281013,-7.589482387813609,-28.525785291892152,5.310748395259076,-4.986973909448127,-3.981084107823728,-0.2261101376895599,-7.766574882143928,-28.553267593683586,6.428094247248282,-5.0661798725069005,-4.011856452366663,0.10130386811116723
-3.596434772168116,2.8983977652678328,7.68763350321886,-1.2548178144171491,0.1213087498630354,-13.657130284548296,-4.233121597490367,2.821171728168906,7.736340730567791,-1.2438753677414667,0.0977213341389076,-14.056035156518874,0.22839376101641365
16.19236056947108,5.405725250681769,-3.5261389610506493,-4.605798194345567,-0.434425543222642,9.616377545184616,16.095926581240292,5.582030317212229,-3.5229196706116,-4.607301453540892,-0.43488660994582595,9.650941563882924,0.03284860594275388
33.369238984552,72.28280546354294,75.3452727484547,7.789530023443143,14.399126896843176,-0.5667853675933171,32.51771188066431,72.66374897005787,73.64782383455425,7.5894299081542425,14.123678603130648,-0.5388199078036525,0.7548615884811986
6.110225622058891,0.5131630195639914,-0.1506600304862935,36.164817360421495,73.52497192209698,4.740221072492887,5.973308456468273,0.5227622444018445,-0.14816799164780758,35.660270819544685,72.04605037823626,4.574351012583895,3.3733160632176937
0.0243132295975077,-21.60268504417117,-49.9883949771562,0.0679178956151713,-2.719444568524782,0.4404274574394714,0.10029493697106773,-20.70311869895386,-49.193397154868364,0.8678017195661596,-2.5919420553759096,0.7603740049393934,0.5021673814971243
30.48209831761388,-17.068885497991353,1.9953881875776045,-4.634368171172851,-0.4919514576400747,2.516497225851693,31.28234136528306,-11.160186512888743,1.8571408662915463,-4.427980643824604,-0.34088688339708195,0.4201873930844613,11.705483611688045
52.89856038180495,-5.287725160775747,2.707832705082261,-1.791596597030351,0.0411741408451502,22.049258743077424,47.237825628660175,-5.494663476433809,2.4935087358434767,-1.4868183905592007,-0.04614893248496177,18.314024054606953,14.832731739757811
0.7213900619879865,-0.000465764250173,-20.399789893880342,-58.617847079497935,0.0735663472059567,-1.9437022102478465,0.7158215258396012,0.02457850639075332,-20.390932470684675,-58.568259197629686,-0.011997156433949385,-2.001715310381371,0.031088210389932286
0.2331825732545202,19.934150064181026,63.11587739404752,-1.996689455570855,2.41003604122604,-0.3759074630767596,0.23246400960029234,19.955039982182598,62.610526152963416,-2.249997812849273,2.4123087076537537,-0.3689939134680662,0.03736985067221413
12.272743913084486,2.733115182216462,-1.722808911523867,-4.769602483533715,-0.300669644065794,4.366792218817318,12.403771699893582,2.9849694538538643,-1.7715037513067458,-4.757091675798122,-0.2942993422243756,4.331172627299917,0.10398906539379796
-0.5466420300065371,18.529295202029445,58.76417341070512,43.38028144764085,1.3829934196431926,11.197090261164773,-0.5466535863692283,18.5376381586599,58.78766060632094,43.410398204470944,1.381326442415682,11.20731600348218,0.04025123008037981
-20.490130017950232,-49.71820838354227,-9.29688818814394,-0.6036999809153669,-1.8371317204786184,-0.0174451473053967,-20.48259737263612,-49.72480451325373,-9.333816814913007,-0.6075556378335136,-1.835007199366288,-0.01811739248413602,0.03276072197784488
-5.212231342844491,-4.002854490394423,-0.1385905797333435,-7.147376077030799,-26.248738712738103,9.22498394681308,-5.351905104430294,-4.157422748081284,-0.140274317993632,-7.695609232495066,-24.137434637921842,17.089252161106742,1.7792902592785615
-1.7395276954148844,2.981511340610868,-0.3449465817763735,0.2085101588118665,21.514938285683005,64.0660121895179,-1.7146462408068146,2.9818569885975776,-0.3454129737637963,0.20837712228033922,21.51231583895526,64.09054377550729,0.031145478008149624
1.9784218148069708,-0.1817127307252817,21.261039396320463,39.943794486135445,8.360778536412045,3.97750925193654,1.7033626930254435,-0.14747596411720187,21.10949357596006,36.744159262946646,8.590017100367996,3.947975185189917,1.2302395026630186
-1.9443431560146096,0.7206639174043142,-1.4446761188537893e-05,-20.399785875864023,-58.617818913394224,0.0735750438006366,-1.9478281436329326,0.704822998988675,-0.010835672651637651,-20.40712514196639,-58.47794894216895,0.016724848555440985,0.03080525660491476
-0.0791188424297632,3.681020373582238,-9.14350188826918,-7.106756143534296,-3.176707782272547,1.3796024753650709,-0.9967951317379082,4.89444799024951,-8.251029642212295,-8.118404709024823,-2.5744924505798545,2.9923376498306133,130.95543546956182
2.945038327701237,-0.3326199673240619,0.0422761561633597,22.139324675137217,56.4868944283626,-0.5348152445528336,2.8814065845109837,-0.4954649919330336,0.39783979816427006,22.291227900751522,53.526379192166814,-1.1907786253713653,5.2727637586042215
-0.6828377917233662,17.654150577251382,62.42192619603683,11.67887770232596,5.484602074615822,5.436760320251323,-0.5444973569227254,15.811586465462268,58.69865539815223,13.21247196941463,4.906495337226884,4.699182180071894,63.136822522170554
-40.830555772998736,-5.764975355728621,7.09470810159727,4.774230037788924,0.2533080167132811,-19.354519584365026,-40.83113352517853,-5.721512673386712,7.095429954878,4.768887857080699,0.2530151143862769,-19.374999912247347,0.042254860464745164
-1.7933124043491862,0.8200714482486318,0.0903072931269545,-20.70927181750205,-56.334813013410425,4.916971157066129,-1.1988746084860225,0.3045344463174615,-0.712896048769025,-17.596280993035634,-55.35850886545711,5.338613043841235,17.776185657708574
1.4641135005340011,0.1960641783574663,17.06093030637906,55.720873184504086,-49.23023707478467,1.9351299004080285,1.478103675440213,0.19364489229159432,17.6556737832031,53.89428268064603,-49.37087416399612,1.9056801180167326,0.09153301048619569
-1.6253110800364017,-2.052384359651404,0.510838189803132,28.26906989979184,83.82149394085148,-8.702042827552185,-1.6332653403781194,-2.063103711299675,0.5085119102062876,28.379927292837692,82.9813048160031,-9.683396183665536,0.04672831921207235
-1.1652933241762928,0.1208500299715408,-19.870296283325644,-59.36854770309293,-7.368906700843015,-1.3280582350956922,-1.3293090680147708,0.07151537527137952,-18.989943432705694,-57.974421535058156,-6.596894997447983,-1.4314102945663616,6.492570906862093
7.750860787772772,3.753053675423998,1.6084275842317968,-0.1170109375989645,20.92472589179873,40.568020039903416,8.35309214542013,3.7682760868348506,1.8879892935594,-0.11084464736860511,21.100920688171946,42.56211473323254,4.73878277897493
-0.0037286626219726,-21.780875005964816,-50.4061050592819,0.1599905279841273,-2.7205721722288296,0.3325020610990027,0.023628183412256476,-20.878399274906315,-49.45865482281323,0.07474561473850372,-2.7682440303448175,0.43481044344108,0.17115185502209643
63.9245255105301,-1.6881269512612762,3.0144659448194515,-0.3177600162510261,0.2084292848764947,21.63242210248092,64.0096339661934,-1.6094655644012619,3.016788775254585,-0.318720869784638,0.20843390635229042,21.619922483683155,0.03840391507410659
12.95843135387272,-6.307852409559362,-4.85276270699608,5.434156929389978,-0.1689483700605777,10.828005781327892,11.661894943878337,-10.949830087334249,-4.798183137235306,5.4403244232369605,-0.1741465595749856,9.817857740804357,0.8298959360124419
25.305023465464373,3.1387755035035423,8.253394031753842,-0.7484515668749302,10.424516650911112,41.93742368714352,25.33673147125762,3.141025588952779,8.259602159725361,-0.7490656367379733,10.442947627313089,41.94160660186378,0.04557194758317765
0.0382948201535027,-4.46373533154418,0.5316959245586091,-0.1606268066681494,-24.11036172717036,-49.9509456259694,0.011400444151405509,-4.45780450361746,0.5381696672693153,-0.1765791085653401,-24.094716321233605,-49.48888103767092,0.17765906750904806
-0.613075771454988,-3.5662127132445085,21.46421355926504,-12.654402449012844,3.302412852631816,-4.93663478573017,-0.6146882070264161,-3.5839118547761295,20.811060920319733,-13.060814699692273,3.3099324548494664,-4.930966103169631,0.05912105680099758
0.707081878071709,-2.058097130120061,0.3878299414838349,32.43290510921008,89.10806677692355,-9.218610530573503,0.699011603880006,-2.0716128162496545,0.3862999884717624,32.18247172787733,89.4738192126315,-8.240303271784796,0.08269566818089716
0.0334545530321936,23.08714626568516,73.10692791127188,-28.44029682313448,4.446360135498058,0.11398410516494,0.09925410911760649,22.268912995606314,70.82222992187138,-26.917716796408893,4.521144876981339,-0.11945772140487776,3.2220030456706827
-1.019604017163184,9.906542867983475,-0.3778249837122937,-15.715338231542034,-50.79127390815975,52.02576939350519,-1.0141403130087707,9.870171462037298,-0.37621223777102997,-15.698150804210497,-50.808006935978014,52.21320776360678,0.05176094055483618
-1.7336357886935736,-2.5680430376748404,-0.4443484423696522,8.10503967891368,11.312737661651765,4.194605633475304,-1.7362440622263193,-2.5744453063626764,-0.4457130159992593,8.111024450026719,11.404635346685836,5.359803793622177,0.04218641572331508
-58.75175001059794,14.597638159156348,-3.7429335051613495,3.565139854825935,-0.1909164413800267,-21.340550874692948,-59.585940200929464,14.75456115502085,-3.935619994642421,3.6952639869942905,-0.1708335376350698,-21.70679145370349,1.3516061927079839
1.942117230049646,4.701307484352652,0.1569321129834981,-0.0480809582967842,27.57975351324553,56.63690795173538,2.2088753854013596,3.4723571321277693,0.07130157737727139,0.17218528659334487,26.423961196769806,56.5771866161962,25.87399857045441
-17.25369754063514,4.604682537457596,5.993428807922189,0.485233254555711,18.04167147615232,48.7590005966057,-17.281375085579384,4.609697987809422,5.995177072432114,0.4860559529904309,18.065959530869975,48.65231853910541,0.03391685109338796
-2.807455267210753,0.0759570844273002,4.707534237983002e-05,-21.94152468531914,-52.76975817011768,-0.0040981626721681,-2.7973404861011204,0.0653186350082251,-0.004355021995081643,-21.92214465423922,-52.73747616759465,-0.018540934105431006,0.03071502424345654
-51.667013595353325,54.48853050307617,1.060268442121604,-12.051832389601374,0.7945446696947088,-19.08059951205768,-48.42502873404317,54.629136947653784,1.0385463318452182,-11.987929910225652,0.790043581069062,-18.21195317648943,8.988117653264773
57.72559025658877,2.1658688261459167,12.981449583857833,-0.5335952813715109,23.36100609902596,67.73675190715541,57.72015837844884,2.1663565284271495,12.981084654866258,-0.5334733937254699,23.38155703884979,67.60084014124882,0.03634228660357822
0.7046582555040621,-0.9628439060885088,0.1516600595770159,17.82905529838058,44.12030044332475,-5.234854811760486,0.7560264275273197,-0.9568321620365958,0.1286744527067022,17.861269502912535,44.72453301646276,-5.041996238576971,2.7638393437191344
-24.107238806151777,-50.93253982786306,0.1560190827085993,-4.586386349596274,0.5941560898920955,-0.1513190092743083,-24.068348405538305,-50.80055769466901,0.2053111934967795,-4.563136484669984,0.5670807588586091,-0.13790169596374113,0.0960141833570353
0.2193270723078323,20.639325124087502,63.43368909617133,-2.368048670926885,2.657069298647102,-0.4320465879151294,0.2197994533552068,20.635593954469343,63.50060674457836,-2.4303288372762495,2.654913411182907,-0.43194532618528925,0.031031455311144512
18.03627151105445,41.96780942447237,-18.28148339839204,1.3565927238876974,6.285880354842922,0.2730086732577459,17.72910711591885,43.650696295768284,-15.956907715692068,1.3562121550056219,6.297509687443267,0.2703888478648544,0.05509266131768045
-4.559736096789373,3.415957475891376,5.448304963068932,0.5163920841136644,23.753688969705536,70.51856580552096,-4.503353078214559,3.4305346647591985,5.456719476084086,0.5187431464370731,24.009302952922667,69.0601933201583,0.043963097912617016
0.0367741598722339,21.55601702272968,50.34901844555208,0.5290631127473671,2.7647731005977065,0.2451917044991174,0.05354377329600535,21.9058553840715,49.133559248479976,0.2630349862350716,2.7534756907322633,0.19748854030140672,1.2902248815073356
0.0928213098415489,13.729256775823863,34.569833332688084,1.228502777275975,0.3937255071696013,0.6370137399369511,0.13355372219892017,13.201305678724639,34.602220490074316,1.0231835541751888,0.25848693212453333,0.6313833463662292,5.2203108354006895
18.67432958240159,41.68657460767884,-15.465783658830114,-1.3879840902113536,6.988577236680057,0.118322845817225,18.810831134902628,41.055028865601344,-16.32456355292743,-1.4302709458098377,6.972355262318885,0.11691442004723829,0.1811568483765106
12.39645987226096,39.84241925885216,-2.285513626487268,-0.4490453772344697,0.4596281935186019,-0.0329750476255258,10.272945474832897,30.778067085980172,0.6795055900558326,-0.7929814877792836,0.32925602565146694,-0.03354909817107532,36.58740136798904
-0.0659353431313336,1.3586420931131586,-14.005465716928471,-4.464152281223393,-3.628380244675992,-0.1025956427749405,-0.927313224490895,2.3854262406727855,-9.069871063512878,3.2144377818748993,-3.5191428093162536,2.446357112334134,170.77335277301833
-0.0839737510101016,17.206373410269627,52.10727868698231,-35.72450081814769,0.4988970772680677,-5.774518951685574,-0.08387277921953373,17.218129063068034,52.37094721648327,-35.7402240973945,0.4943784433038729,-5.778061483027216,0.04524069838337455
-0.6138553638794585,13.495060371231007,48.277483789072086,30.78247288905766,1.6993185845585983,9.277160863197151,-0.6130260754098226,13.459544887976078,48.16229118111462,30.60145372414902,1.6992261142093785,9.266765143817743,0.03376532680668079
0.3117615251133458,21.894015915828827,59.523438137899085,-0.5855225925644691,2.845380189365209,-0.067210404150208,0.29356537715147235,18.929350398114806,48.97145913050598,-2.347197839616374,2.5034777686921292,-0.041789654805246546,20.890132418994803
-0.3568172122897727,0.2416536928282559,19.83831622989329,63.03620311422608,-1.912769434325072,2.372078893429299,-0.3514224228778495,0.24213533246160823,19.8614691406544,62.92208983559476,-2.0221947058597607,2.3733234745862504,0.044833614176731956
11.548627332418604,4.254882960468166,-1.8122888619920576,-2.65624319143946,-0.4433019889943878,8.255841493252577,11.316494997749032,5.274070335664874,-1.8271877734332094,-2.6578366764530443,-0.44093271271984946,8.197911959293311,0.03849030574364379
42.370911402574805,25.89748376498084,4.275890976598722,8.333486660616195,-0.8550592997949997,10.085616823947095,42.63526936662379,26.461037529744544,4.307272060026982,8.379674272100004,-0.8582291765204673,10.149760842986893,0.10829509941218221
4.27169581814297e-05,-21.94150198036358,-52.76978349368304,-0.0040998430359149,-2.8074274964237502,0.0759546859983109,-0.0008629207989088172,-21.94192712575159,-52.7439975267792,0.004889305223059637,-2.7976015989036114,0.07883792305989346,0.030729437151344158
1.3207890852016433,1.7426123826654498,0.0748561451730531,-15.790376893085485,-44.23841379127269,-5.700522666898548,1.2398690268629764,1.155744041613076,0.12243710129391516,-12.020476255749458,-41.112299065960116,0.7409274163710506,36.107878833496706
-0.4725937558816036,0.1283992331893088,20.13452407018198,42.63379520677217,-1.499735639318665,1.9272514931648803,-0.6585779697381218,0.13060274950268846,20.896295472870687,44.304057726303256,-1.110644064350522,1.9692702724147715,3.4211474019875614
0.1302733779697551,-22.60699602799722,-61.171491166605215,-6.661362336444629,-2.495687760997901,-1.5679852634048423,-0.2882085424687375,-23.183568356249452,-62.63099908532291,-5.680259881506572,-2.171434013714162,-1.957296718740352,1.5117706884503057
3.993998685023305,7.019587027231215,-0.1413757096487289,-20.285390029341723,-50.26286248802098,-12.615146959746976,4.041043376509273,7.017836505648279,-0.13339318168572922,-19.97382021706255,-49.10424814799332,-11.753550806264483,0.9647585955228598
0.2402302485248814,0.0375760685652553,23.35413805617828,73.65526604662915,-29.15070122676804,4.528996871897816,0.31411998008317377,0.05462017634278471,23.561778469653575,75.84020446325223,-27.51154311681813,4.352095991264406,1.1864509716230394
-56.50869946582031,63.31353661923587,1.842081496653536,-12.544908428032391,0.8010337299719233,-19.6214573246346,-55.10259866562518,62.49303624334836,1.9190865383926905,-12.28984209062837,0.8158473856681958,-18.980101991658216,2.0194897019617675
0.0735416288679145,-1.9436990636599027,0.7213866968231373,-0.0004560097281412,-20.399789525095645,-58.617876149682495,-0.010086574810031834,-1.9524126080696078,0.7133111932811289,0.002223425889496866,-20.385941115948526,-58.5450426482156,0.030575643923761803
-3.52106806786236,-0.1785143754174656,4.476050883184367,15.676391747272003,2.1552771796801675,-1.589697005911369,-3.515734749727038,-0.18340796384133995,4.512080494115594,15.728043486574506,1.0568730785812477,-1.4892664350682026,0.09151503582976575
0.0809350546984788,-0.0005126511597162,-21.950908241274764,-52.67273238223637,-0.0270801749364958,-2.807330347989596,0.06672382464284965,-0.0005016091290599434,-21.89941489646077,-52.76056337944647,-0.015482036308753777,-2.808306594684396,0.03060263086721507
8.918811467308378,-0.6420269178471343,12.429011800580843,45.9638583019432,28.450524345440368,1.9900173557029723,8.909184066858657,-0.641731640032623,12.4301472724502,45.858583548644674,28.47071971236801,1.9864586321545765,0.047142252058315265
-11.891945172820847,-0.1756467871544627,-2.934015993169698,-0.0406212417859853,-20.76701169050485,-53.6615836486435,-11.924498925146741,-0.17415351945182966,-2.9351399575119337,-0.041449719572046316,-20.887841893621836,-52.66101953899846,0.04448486142596467
0.0351625740921404,-2.807155395654341,0.0809340562241893,-0.0005144645409674,-21.93470736022036,-52.88783669615227,-0.0031624034713217952,-2.8156091895289137,0.06880949923822754,0.01223217349161132,-21.95610567718137,-52.80832123427513,0.030512504870878004
-48.46306056927393,-11.050370836909217,4.383897703861145,6.579628814377319,-0.0557560226155805,-20.059456122682683,-48.33849108521861,-10.830549336741456,4.401015945268405,6.609952517573802,-0.06384867520074389,-20.048322040864804,0.07346250119096767
-0.0004410154555314,-20.399792250933423,-58.61792583112071,0.0735178444612364,-1.943696608592188,0.7213854299495758,-0.012416220974273529,-20.404179933455453,-58.57817465022629,0.006575938002697512,-1.9011050578374125,0.7291101328510905,0.030578772450817
-0.4601535620352228,9.264384955041931,15.78585525887907,5.748655317579421,-3.7775395507842977,-5.514669441185747,-0.46052092578549875,9.271638359929312,15.801223158443612,5.726803694810513,-3.7638205336052977,-5.514500439662566,0.031245649111533297
-1.1479931597383348,2.338149890169248,-0.2703906816375345,0.209344730425611,19.533508772407256,61.455889968085096,-1.4102153794933656,2.338612378343363,-0.2657349886145042,0.20800576808453997,19.5055930532736,62.14574828224704,0.048625472110850027
0.080932217783612,-0.0005184685401906,-21.934690295697283,-52.887858937908334,0.0351643224938098,-2.8071343049854223,0.0741782507230937,-0.006646220478160103,-21.915986130941803,-52.77145274642271,-0.023135713642147948,-2.808453160742374,0.030650700784953827
41.90989334249786,25.368795941796616,3.958851946935531,8.252195958878726,-0.8244827012653763,10.0615026440508,42.179900751320474,26.004605847416997,3.9888140161392585,8.303377003212148,-0.8276198231774625,10.137211931465345,0.09903739822446114
12.876928565605414,0.4471647672481544,25.88447863724716,70.07948241971721,-64.01989225869245,5.350945973576072,12.89929391811748,0.447032149514885,25.94522877824052,70.02720929727184,-64.32085908873057,5.359330218003791,0.038971109622573025
2.892489239597107,-0.1298341985305811,0.1208400035481527,22.272099593536588,50.25845628308523,-0.524541998681724,4.127486571758633,-0.6802531317344253,-0.06495243058155764,24.14367156889108,55.836240233860316,-0.09986543751657506,67.81144610871068
-0.1839534698156678,0.2184133888520046,19.077340623389546,62.28694780930592,-0.6485586542334487,2.2500762141948574,-0.19121990771852815,0.203640158498696,19.02992680622799,60.57550725569814,-1.5561125175427435,2.2205933064803367,0.7444396397013199
0.3325020610990027,-0.0113470417844805,-18.513206157116084,-41.0833119647036,-0.8077347980201363,-2.474552364474622,1.4239119604590087,-1.885809873643666,-22.950570277607113,-47.40812622186695,2.793660475782019,-0.4441028700992149,3.667594178614799
4.86578283637813,8.66424932404012,-0.3604364116615006,27.417100006748164,80.36811062887601,-51.63749379926429,4.866119107505121,8.663900751821487,-0.3608292320173092,27.40047717854509,80.28474443938103,-51.769038052777546,0.04967773186823679
17.04465032611557,52.38976550947484,-36.016422982176,0.4633329352484174,-5.643460585753706,-0.0848438522235037,17.067954990541512,52.11464130204981,-36.0792093433434,0.46754682233604683,-5.646076597030334,-0.08546950508601703,0.034962233331420706
-0.5419530443545141,9.076589648817484,1.6569653712457328,0.4435057921986214,-18.79372306352276,-28.466508578208483,-0.9035788593810139,9.09188322814355,1.6581879288718007,0.4453005097601448,-18.804846517696497,-28.591933528847903,0.07434834805028659
0.0089515572445117,-4.370662127806188,-0.020381243215547,-10.23282110654366,-30.67643617861544,-15.329489671886003,-0.14620214890558714,-4.1677994255228725,-0.052180751056468466,-10.285868169398043,-29.23172093588265,-15.798200799427946,2.3802975659067234
0.720654657344515,1.793453322704178e-06,-20.39979107590685,-58.617909715228805,0.0735184646151183,-1.9436973966620468,0.7385616267099522,-0.03994320030324161,-20.405916323986787,-58.63041085850182,0.07310731013376426,-1.8347292723016153,0.031838542482298365
-21.64657792807831,-60.407832566848136,0.1116919016955388,-2.456054603089492,0.6263130484181318,0.0090891984199157,-20.96723370967129,-60.810984640788774,0.20525045557542398,-1.9917820715859307,0.43851370584437177,-0.2701612958022679,0.32287308511221424
4.854222930508579,11.311956729011635,3.4771847082280125,-1.9187549622069755,-5.506676895707416,-0.3830867471303651,4.862417362589395,11.270410513328684,3.6651798668519717,-1.926817424716206,-5.508917248624909,-0.38291468745101875,0.03208593947599839
2.3149845119901618,-0.3189016261765035,0.2432841329776064,19.633022632813475,62.206686494651805,-2.0599435743242003,2.3181255037922903,-0.32424038912259545,0.24622254376257757,19.682307771056962,62.01051576693058,-2.2236576354076227,0.05655248071517663
0.0303945655858142,0.1822917001738958,22.27086071678445,61.23809335704685,0.4000685193488024,3.0459678197241264,0.030317086504897617,0.18440461218670112,22.288650773181843,61.22262507772348,0.41031371758867863,3.0482532552135515,0.032925250557504754
4.783602539358954,10.281912665590902,-0.3761407197637128,27.88584757165441,80.3060362092471,-56.05581255235217,4.796167943738517,10.264420356143859,-0.37367102881804826,27.959542284655754,80.22719351595879,-55.7559694467426,0.08301542423536348
0.9826733869393954,0.0382975472865292,0.0098712522749879,11.992955389683166,38.68907143079844,-0.5878359590066821,1.7287835534761373,0.03149808466887638,-0.018464836170840215,12.553883404949184,38.3432268449069,-0.7305657600895881,3.917640129613098
41.72975783257329,9.60311099694412,3.727076270280759,2.12576072793373,-0.1424047583604117,20.32382538984888,40.648266795602865,9.865930432024982,3.7147941218645046,2.142506501343994,-0.14098019364896497,20.24367585245549,0.1802604854206399
23.33385666661625,50.79422033678566,-0.2999556999295683,4.027207652052921,-0.3269810437526349,0.0644988761333158,25.274077978105474,56.3882533126276,-0.7283768415053569,4.477957400021131,-0.17972620073230927,-0.08489447814571793,40.725760082806836
0.0777445512341462,18.696075064764585,40.03279220526699,-16.026377963926077,-2.1280614070417285,7.117908047989298,0.07924039668257965,18.063434515912597,45.625181601881415,-7.0362986029767285,-2.1089578436607237,7.239135921335828,0.8335441120814059
16.221055600867768,5.526481654195212,-3.639974558723545,-4.850748453383213,-0.44011044905863,9.576606115408476,16.168651697568748,5.622248809319899,-3.63228922859831,-4.851627585055141,-0.44064834520665386,9.60814567071779,0.03298746434783398
-54.745352250764725,-5.046006560451282,-0.6939862246489474,-0.9330123832704824,0.167823460778543,-18.14626401410098,-53.292174940424445,-5.276660531463392,-0.7845894136340874,-1.091391534739536,0.13656488803747102,-18.150007429149888,1.0356291805105478
-0.8403278680347847,11.684203105327487,47.97210639530881,28.2550494278676,4.663028291392677,8.336168176370133,-0.8859215130420647,11.414987995965863,48.18909233799459,28.828088673016826,4.849297524140558,8.269131025900396,21.584709845167005
-21.95088920499682,-52.67275233507987,-0.02708351989961,-2.807306527230759,0.0742068985138576,0.0003614683945569,-21.93742033185572,-52.790220762745776,0.0032340691757326567,-2.8093108064304033,0.07707721103071208,-0.0029132593608096613,0.029709016078790867
15.513293349724895,52.54880544731704,35.495970952565735,1.400405228087922,10.051471226483455,-0.5787602452517496,15.513709929188213,52.62535111448874,35.58012361296905,1.4040457642237567,10.052431489458954,-0.5790983928447704,0.03837435986455576
2.8215070713536745,-0.0368688163042355,0.0210866061278112,16.756375659955015,57.58671329887871,-1.4044516453509317,0.4347743392140657,-0.960992858604854,1.2071331534514478,12.511052355946996,39.96684722609754,-1.1556817586810624,127.87161015435244
-0.1618218460616258,13.621508067981068,22.818823394535965,-10.998626822508657,-4.93412434492443,6.435965712705588,-0.16258036164476874,13.614504826406659,22.921496928151623,-10.784382214091693,-4.934507781075078,6.437333304266652,0.06547686864983207
8.085519870377723,-0.5643223505313842,0.2420449292222868,-15.404012734112433,-9.782659922769708,2.881841437469681,7.980571606602997,-0.5770292223183127,0.22602300509315043,-15.174630187209345,-10.737723737922352,1.4128506185788865,0.2694189412046418
28.39870861647192,79.25726902729772,-60.25170855923065,4.779828845723202,12.173603462951968,-0.3215730020324914,28.322175716964352,80.0361595149011,-60.310994127281674,4.807387065918732,12.180386814121832,-0.32092698242077944,0.10981603121096187
-12.925756260781622,0.0388461075888821,-3.3840781044233434,-0.0247954651712868,-20.605714192982926,-52.822430637653,-12.87032384359418,0.03792022844167598,-3.3825990589050163,-0.022937765543793065,-20.596070382081606,-52.97397368884587,0.04982330853480535
8.956785702918042,-0.6391343823325939,12.52503165405432,46.16512534448246,28.64535441990674,1.9583130874448769,8.951683890591099,-0.6386977728734893,12.536240038560209,46.08516689476846,28.65831654067597,1.9590293156670953,0.03857367511299317
2.984813946100308,-0.0653404308822065,5.566817123159711,1.1850534365349064,0.4569360541756078,-3.14317371966038,2.898454546048214,-0.07190314179190516,5.576894204362592,0.276335365484897,-0.8026228086080209,-3.0700367281572536,6.777955629050248
-21.6937315659314,-57.24183323297278,14.058343555925171,-4.029469161079003,3.371591928769486,-0.2194566219353552,-22.17337008268825,-60.31629706506823,14.97655006593265,-3.9378317883609677,3.5250652415206076,-0.10722814559773042,2.655534334356027
0.0233027301399016,21.82597670716627,51.264812303301845,0.0278569086702835,2.839983394737103,0.0279636430055712,-0.04233525595674337,21.660451255853786,51.48053566403238,-0.5655609730679743,2.7835890455177683,-0.03442908564748848,0.5119378232693427
-41.96830407377759,-6.4573052201274,6.760293710043151,5.0959523488087495,0.2167959944613773,-19.432472884252547,-42.003651116156675,-6.503052826155397,6.759282474426641,5.0857748208127305,0.21635206357220138,-19.451147345188787,0.0413288850284991
65.42272881086139,-0.4321946610970881,4.670631494792283,3.3066071437236384,-0.4303229992804203,19.60012290586953,60.696281420767875,-1.8123434335726727,4.279951573196984,2.71880444718855,-0.3582298890225271,18.364480169062062,63.57628717518171
73.40787000304945,-28.84377605769725,4.493758233263958,0.2402302485248814,0.0375760685652553,23.35413805617828,73.1190889178836,-28.103217327703085,4.340697110225987,0.45659732409472564,0.04729808386551218,23.15251245168772,1.675616414347396
-18.79475005856415,-44.59987609009712,-8.080520588036336,-0.6131257491053155,-0.8609439596530502,0.061255148284915,-18.778142062800782,-44.99631243119529,-7.709998420605643,-0.612537102252162,-0.8620158174294517,0.06087595157455894,0.04260818620114351
3.1889503081993364,-1.5678080283266236,0.2112589327350084,21.41712574779289,69.99761811225417,-25.651656709564765,3.794038995376983,-1.1690368497160932,0.05248162119515598,18.816557304643197,61.02030969096268,-29.11951404391624,23.617908324151507
0.4620718574645041,2.856019229197892,-0.0018153168733865,0.0086530250335489,15.699680555244989,53.87515360574677,0.6923763396535776,2.3553205518376785,0.21517371806920593,0.16425587455778867,15.735667482490701,55.676300966452686,3.2698485290339154
-0.5395936633596496,1.2276564001228294,-4.767884081942049,6.305314628651985,-0.6262587405143697,-1.678334038332831,-0.5425798102700243,1.0779485970984553,-2.0350126448930723,11.56411115402284,-0.5106835197168778,-1.6717030543202034,0.27732979895089527
-41.67505711394409,0.5787738667041806,-3.1060608962737284,-0.0356635648293325,16.084240240071427,52.60689836116246,-41.82236786224229,0.6009649109847999,-3.079893699917413,-0.03561726514966468,16.088879856346978,52.11628269109269,0.060257325907891485
-61.69221542427924,0.9567766140675088,-1.374607957097473,0.4338443732545687,0.0956754077100744,-23.59192829025996,-61.071888428041774,-0.018744914562830672,-0.5108840212009795,0.39880260005463697,-0.5143207515504145,-22.474300431100858,9.126222662881538
1.947004380882873,-4.939599291026195,0.0276169474044498,21.22502606479711,54.12029795658529,-22.16820344589616,1.9546179007778477,-4.916086151232491,0.02308272612821405,21.22936579770149,54.66884646161361,-21.943084690872183,0.17437626919977647
-0.2840085848976501,0.0872068055647801,-16.783692975571377,-52.794274452013575,1.9098739648774183,0.3377139229668791,-0.056961130143747596,0.14289756849575497,-13.150141669432458,-44.790918785255144,6.0365648512917005,2.622966119793837,49.078381690431776
-1.288057937027444,0.224621877918822,-18.3282870967218,-55.30171051035093,-5.593570036499326,-0.6969657819719528,-1.4191552527226694,0.14967963691272423,-18.153090739022627,-55.69612624096212,-5.61366990339198,-0.8389671808799699,0.7593244239858811
2.36959251221944,-0.2328545239506444,0.0651354026519102,21.344488932669023,43.98020266202356,-0.0415581286205405,2.508270939458212,-0.29402250210693115,0.2485977135275922,21.5837011526882,48.52991576734918,0.5456332447329117,4.703527269027668
76.43783194053056,5.95057816895065,14.705121346769436,-0.5622427450577753,31.566876708698288,75.70167509096416,76.52715958659957,5.965988998092378,14.726325209783191,-0.5615990668670519,31.589246526234334,76.06265247906644,0.06168582386241242
-9.882727671109194,-1.0633010532997882,-2.260999523571511,0.2528051103099491,-17.930232790074438,-49.03365609673244,-10.410456278423137,-1.2574753710226645,-2.1123456699381222,0.33815723322312863,-17.652851943506448,-47.54447442725578,2.030976253192343
-0.40478161462755,3.023042148874875,-0.1034278007879179,0.1867001493345375,22.152118017174928,59.65280404719824,-0.2674597211759391,3.022262736432258,-0.10097923673527236,0.17202548821784358,22.24993092644172,59.219627754552164,0.21868400593039242
0.3729332380436627,-3.5734352040687583,3.254992135136148,-0.0826577591859393,6.054453062944851,2.801484244501469,-5.653727287823585,-3.5247581995976596,3.214851165636457,-0.07562176017780542,6.293486302232424,-2.2383312378403843,21.307943040147656
1.372938234408277,10.214722353868227,-0.5732211846446735,15.782743682776834,52.99312687896055,36.058378236203644,1.3797460591283084,10.226128441961094,-0.5735209165116715,15.787647090535103,53.09239334631637,36.12696368006846,0.04365460839259386
-0.4273854427443776,9.580579266275905,15.930996971460578,5.180981724216326,-3.2796095338958136,-4.201499027210304,-0.4270104855045389,9.604492857549364,15.85078945670827,5.143663610417093,-3.2829697115233216,-4.20208645987362,0.032230232303540746
-50.4061050592819,0.1599905279841273,-2.7205721722288296,0.3325020610990027,-0.0113470417844805,-18.513206157116084,-46.36486601105503,-4.015553334188098,-2.831096186529294,-0.14471188784091282,0.16287762764784475,-21.117047239396015,1.1702479909870156
9.360542575453348,0.3445704279230088,0.4652729016956126,-18.481311265063084,-23.868263211052465,-0.0652827191931832,9.361338173057357,0.3447938729513631,0.4622395079581933,-18.4793696853856,-23.439259078876763,2.795137972914711,0.05176198552406022
9.719329108874772,3.77726264507329,-1.4773419746333765,-2.3804825036629405,-0.4555246796803175,7.4339479143036975,9.519420499917032,5.429012320196307,-1.4917401092279476,-2.3835952460806666,-0.45188232874414425,7.543471677064648,0.05948164645511925
-8.46948497614103,-0.4971103860659884,0.5975662413347351,12.018911479445125,49.68200945472377,-11.202945206256382,-8.47008532708503,-0.49645758047878985,0.5987523479042949,12.007895323800994,49.80177937534427,-10.991635909391334,0.03616583661105524
-1.7631598523896632,-0.0129524275657293,-20.362775846454632,-49.277188058585786,-9.084251135343171,-0.6250945498548441,-1.7601315238970372,-0.01431486642048796,-20.358455995570637,-49.33043243429985,-9.105456105366315,-0.6329536053207683,0.035431170417702745
33.89475057912095,88.93744320884964,-5.326244463084186,4.468212558895304,-1.0837009215492357,0.0165847948816829,33.72326675782285,89.72990867489564,-4.482855657517661,4.449682434497053,-1.0988985574342607,0.010106824000150283,0.4550587327794139
-0.2916720637996855,3.163421910808961,-0.1017009167611302,0.2076303854240537,22.188309353905915,64.00942586766078,-0.28040104852357217,3.1639213922137532,-0.10003652002897923,0.20752490657473643,22.209159033509266,63.77345726335852,0.032497541552438364
0.4137480482787898,3.0487453567821343,0.0341382573950408,0.1850569914607429,22.27989711386602,61.33031612926208,0.40307147927771325,3.050666131851499,0.034730159056429066,0.18419901763100377,22.28868587421453,61.328820564935654,0.035303516468538604
3.1385812451824817,-0.1730272171226447,0.2075795467895488,22.0702644959816,63.7461288741079,-0.7325640117696884,3.140085287247352,-0.1738101583012881,0.20797876414335903,22.055807390564652,63.96090531353934,-0.6985254521449917,0.03616073741043438
64.06941749288025,-1.7395276954148844,2.981511340610868,-0.3449465817763735,0.2085101588118665,21.514938285683005,64.13208055507789,-1.7391872370442343,2.9817950089849043,-0.3451259569694898,0.20798128001143468,21.507195505138895,0.03172004636170614
-7.500423787491493,-0.514921577397066,-0.5544791107354563,0.0927160283363592,-17.871396761651706,-42.834439454351326,-7.531220186033392,-0.5126672030781577,-0.5558305242622187,0.09272314812096111,-17.839446273486768,-43.53347830756013,0.04296383357238001
-0.5363732999071025,20.8040168012633,63.47136410492628,49.91835200929543,1.6165109054141946,12.052168252991628,-0.5360683561048296,20.824462206329546,63.49539635447762,50.00774196486948,1.619237956801061,12.055554137653843,0.04011494656365558
6.693381439221364e-05,-21.942466200406347,-52.76057161884651,-0.0047832258990317,-2.8073861673029445,0.075874135270283,0.0005223281241342193,-21.939895329115643,-52.78155261303607,0.0013869443318981212,-2.8088564510157994,0.07822064040479404,0.02965338867378678
-0.1617169057697086,-21.940175862700126,-62.10072266738706,25.970701082542195,-3.0164646755855418,6.375986563617196,-1.300276091220411,-21.307081117824794,-59.97771193929912,24.097110398978856,-4.113709439915201,6.280457749398746,10.781608392325474
-3.261595399948192,-0.1518570239406505,4.554848382931554,16.733890013901647,0.9270455440698928,-1.519552169580205,-3.2691652555190664,-0.15601877345555693,4.625944001826838,16.751922026524653,1.101360913919052,-1.5091535809750667,0.03633762092179241
-4.235612152280636,-0.2093362024897578,-8.108987199801653,-26.88857912709064,10.054372265727832,-5.2028113133980645,-4.207307267372016,-0.2021845426441118,-8.237875641662242,-26.042554794934404,12.193937584166633,-5.2277025689596535,0.14954829462627886
-0.8305490244198929,0.2491465688344914,0.1013469792998927,-22.03948495289493,-64.03789129077266,4.234251910865141,-0.4917007110323368,0.4915409666652977,-1.5452828498444404,-19.612500698653093,-62.460689400306336,3.3488404452217537,14.177415857172697
3.888717750183911,2.485434306578353,-0.3301881624079308,15.321301367508063,57.37324535790621,8.742149927953792,3.3870993605793434,2.5598804071906383,-0.4086919903818105,13.728969160726955,53.07029905585655,7.3950391990157875,12.88541014715154
32.09598558605001,-13.686891971420469,3.357387043181732,-3.242200755775982,-0.2351959516250937,13.800341897653274,30.242849469230478,-13.77859181754536,3.2293864593247914,-3.2601531059511735,-0.3326227647403157,12.895388073277003,31.58978132035046
4.641250591657034,6.203702232872514,0.5265852312011892,19.65652276913224,55.08931625189597,-14.494117973277808,4.636572286493234,6.201617694148098,0.5258755296910298,19.646258762245886,55.07925481394818,-14.541821583691558,0.03327713965323001
-5.072414339975461,-4.025407289065234,-0.2159510739106625,-7.569092652863445,-28.5561994777412,5.234550608158131,-5.047004005509564,-4.022805563450495,-0.21454581865733036,-7.676226397570275,-28.199725621850007,5.9426662174143985,0.2952956825149974
5.699988590651769,-3.573264379508631,-6.077427375248293,-0.4848518996974125,8.502608120274985,14.5164954506383,6.118359357527424,-3.6047224686629065,-6.078122770454648,-0.48420554254271764,8.486793724519544,14.327596675129769,0.04492036532671109
0.4664208238329801,-0.083826572629771,35.537094222612005,71.30380612421804,4.092413241855843,6.129901710551337,0.44111580812707074,-0.05747310792849172,35.813313076948226,71.66286996124829,4.059752763111488,6.189732560480415,6.913398766112075
76.37799933474732,-35.76958911032943,4.858454690007884,2.941851346907082,-0.1168650738970551,24.98816509807176,76.38816019005742,-36.176195607494435,4.8577919122339495,3.0006400096053327,-0.12189727927665062,24.978011350651023,0.12380348072483885
0.1845205386075504,22.13599657368147,59.966100181142366,-0.40478161462755,3.023042148874875,-0.1034278007879179,0.1390450318187053,22.144275216427218,59.3886377816641,-0.22236646089766055,3.0169575941164304,-0.09916850439755365,0.1654344654411736
-4.598673514303012,0.1767523738873777,-17.09020462995456,-50.63123878987985,-17.389078840971692,0.613829355237332,-4.608686466767405,0.17320965024808288,-17.054374560069803,-50.716155762157626,-17.30041107124461,0.6105621025849501,0.05884844475631526
0.4518752746323065,-18.74118171797649,-28.691491680949472,-1.1614568838499628,9.16542692403176,1.351845182465728,0.45148093282453416,-18.72500125654892,-28.412889015944074,-0.005420801982836565,9.15577879848442,1.3496136065276545,0.039993706248517086
13.612023170534592,0.3542937038370402,26.68540685611389,71.89234133706927,-64.76430406129423,5.372076874691203,13.61575201614802,0.3551662755903504,26.78836256546805,71.85186102207194,-65.58241615493071,5.3750186661662696,0.06741179610876516
2.535201529824008,-0.4182184354499818,0.2263220240420049,20.29277693789448,63.345417123689565,-2.353172902350172,2.5372571209851005,-0.4178237887524341,0.22678947705843733,20.308390380941432,63.194260124438415,-2.376851850801245,0.036684666839086916
-1.519552169580205,-3.199536586084557,-0.1466008285620642,4.647186826042357,16.89383521607693,1.2337439786790376,-1.512343536438129,-3.2050485667953508,-0.15005731153038493,4.6562860083292605,17.008351425815363,1.0867884832360346,0.03424639208820027
-52.76057543430696,-0.0047835103909766,-2.807381888685961,0.0758737613412006,6.627692599472223e-05,-21.942462903621728,-52.76794893930901,0.001283465124288341,-2.8070753125283545,0.07769766651176724,-0.0007065176680498553,-21.928682187951722,0.029751071941043122
-1.907706154125895,-0.0633076058885164,5.921259027032332,22.51450077443773,0.1446674451285021,-1.3225600892327134,-1.8823477964762958,-0.060386266761703666,6.031744803074616,21.88285870570644,-0.037594654077111045,-1.4414476707937638,0.27378632922509694
-0.5587978228188542,33.03001142833775,72.99267723591399,75.82667515811067,7.372602019969207,14.461548943205342,-0.5741690101418802,33.21774667776654,73.98562012771828,76.33572113047404,7.43174706241891,14.588422205856515,0.19798520870885086
-16.91342415415714,-42.15180874133714,-6.097322578686432,-0.3193373713161132,-0.2507816310330053,0.1298742167644171,-16.894942300199602,-42.32671563191525,-6.005273418827528,-0.33350023581994037,-0.24719473613242826,0.12683135047257466,0.059308226163672956
-0.1740190790260143,11.458602191454936,15.601297169503187,-7.925732928994639,-4.743244995734383,5.761574253058283,-0.18040776816778803,11.170286200667505,17.229718003118002,-6.6366491915366055,-4.747774886980395,5.738964356865094,0.5975781758293485
-0.0443749084601656,-20.783464787889617,-53.3340703515369,-11.699805646637834,-0.1958479648321617,-2.97115152785928,-0.04185569681435197,-20.681678884484427,-53.576048544918194,-11.624886273688844,-0.1883815264415034,-2.9632403647461274,0.14967744060962987
1.4497525830766107,0.3455933102600479,0.7028385577350172,0.1025150913837765,13.002120904156689,51.2980430360978,1.2101602849553927,0.6050839505651098,0.5400967230972444,-0.786698519825606,15.356762012196974,55.475834456955155,51.53138973693658
0.2832072671898726,27.18490328689447,72.78465040237256,-65.45609352929218,5.335081149676723,13.896828008141055,0.2832375707764738,27.186503984360655,72.89005899394897,-65.43596997128935,5.3390815163117615,13.901248903747074,0.043991949230907906
-1.8608937797477856,-2.6975854642216595,-0.4417971398812251,8.29199425540501,12.261425846226064,4.775784070887939,-1.8875788200420516,-2.699241958305768,-0.4408570433562107,8.44766471401438,11.434078148767412,4.242818935521882,0.04982640537591779
4.533281759999363,5.936660260790527,0.4724169607335539,17.729533452761487,47.39946241907838,-17.894925281712336,4.5363972984033865,5.937662930529655,0.473039762895862,17.729258802819814,47.46504879173756,-17.770292267482432,0.03257591638092863
4.597672589743546e-05,-21.941517931329013,-52.769765401262674,-0.0040985760629923,-2.807447283589713,0.0759564268351816,0.0002963835165701312,-21.93930394246354,-52.74444154342916,0.004129200446868708,-2.798537129046508,0.07815344812340186,0.030730565701539675
4.461736016421737,0.4674883827957559,24.33460292815819,69.60939463371948,-4.7000448309894365,2.796546810166468,4.375033262855034,0.461661276902416,23.487677918073217,71.78797185669197,-1.3703259487450055,2.7585924868940834,1.1968535504971463
5.453948316740214,11.312137286350456,4.07218658439879,-2.148436137875131,-5.919129328625601,-0.4316061999677455,5.4675247003869485,11.209157082929151,4.16851156453248,-2.160742101624816,-5.920241355287885,-0.431308170138913,0.032017225902259
5.677916979132999,-0.5221294736385074,-4.230587353147666,-9.936229318020963,-12.923360155531633,-4.549602476556526,4.857787706587803,-0.45255594197174354,-5.716643384915759,-9.251672999304873,-10.915488468136056,-4.413914790658308,29.839525168192246
-1.761415687818798,2.955198462877389,-0.363018660902464,0.2087119933210159,21.43452291283196,64.0402799411572,-1.8174725488972854,2.954356526553239,-0.3618644660906014,0.20885363499481002,21.43040118392645,64.06914706662246,0.031301307507683035
0.0448788442041807,22.039287606404613,52.89856038180495,-5.287725160775747,2.707832705082261,-1.791596597030351,-0.03280055863186959,15.072026607368418,30.662275760998675,-3.244061667267051,1.583781831680731,-1.3507875716190083,76.76586023945269
64.12905327527864,-1.884289865324577,2.9163368403308527,-0.3827996182434042,0.2095350668150277,21.30631466748441,64.04024100392326,-1.9924323358229685,2.9150412095692086,-0.38090486746195396,0.20960297534892547,21.314268023210587,0.031802172515064925
1.9802796668987668,-4.8839582825382575,0.0255739383153919,21.273044544626075,54.74421647989183,-21.88446652080892,1.9807378454647022,-4.882293080832511,0.023123737951684653,21.273285079141132,54.83126287189327,-21.838679652527503,0.103057450992346
-9.306034587282255,0.3515659333310875,0.48520507430045,7.918698517551927,40.2228126090188,-8.751413604166855,-9.314160204783917,0.3509178686769019,0.4852345715744537,7.946554830074092,40.024661413521244,-9.200915803043245,0.03778595104959295
63.917196068411485,1.9482483876582528,-12.06081426569782,0.7244079483620381,-19.625559362974112,-57.2302629106058,63.89347517140595,1.9640375571965905,-12.07354625135207,0.7493624316115941,-19.79742483393511,-56.14734117027001,0.06522695685462368
4.430190278258685,6.247849702123241,0.5445980730395084,21.157856271023707,60.60674487940537,-11.576955662910432,4.423119910722022,6.247862021241502,0.5437931741182425,21.15182333576596,60.537251001453456,-11.707796104035651,0.03587601755956685
-0.5999559010318981,-0.7146024817380048,0.247260264193889,0.0525357528066471,-9.4845135801646,-37.812759657824216,-2.7254148345394213,-0.24461405233250844,-0.7916048573894159,2.905961289792458,-12.99564605744564,-27.28753340993285,25.455352123942113
5.741675480507946,-3.7779294590115686,-5.475165067083344,-0.4601535620352228,9.264384955041931,15.78585525887907,5.649281846320946,-3.762610329180575,-5.474041406076445,-0.4603746836110503,9.263740803569704,15.846413485720916,0.033121021336434936
-37.251282484075496,-3.974987441407944,7.994190974742373,3.71362380499573,0.3464053447550934,-19.14658589237481,-37.09588044428085,-3.4570181032926826,8.001614281291424,3.722897456240119,0.34689612689913885,-19.173806666577065,0.045533164000155196
2.808620729665648,0.4013519887973565,-19.00655607288009,-32.882749015544206,1.329371205342536,8.614098494608589,2.8149384818378547,0.4003916466204248,-19.0157786440714,-32.93684456651269,1.1123097782970848,8.614656553633315,0.05492877488527684
68.73129001134481,3.537629059289668,14.134445252457896,-0.5423717242776807,27.42210053079304,73.44250474472072,68.63367707153571,3.5358016942118287,14.127450198975204,-0.5418735042902729,27.415101698746874,73.3628253658888,0.037651198742687214
-58.05581724495334,0.1071406789422748,-1.925803125361517,0.8089956806584144,0.0034931334181112,-20.268762689247,-57.82333420913341,-0.4303087242287802,-2.1844226406396956,0.8872536863073037,0.2332036292303883,-20.162375028305974,0.18245477105157507
-69.15060643701291,-4.778851279425371,-3.156119757819788,0.3950415085671898,0.0181500492777834,-26.796740250956045,-69.11775904394256,-4.861768521654312,-3.1377078384344372,0.3271826943569067,-0.011696007494823135,-26.92479798604336,0.12279727554980782
-27.896926160829,-71.72513561109581,-5.1757488689452655,-2.95144263958332,0.4128481304429567,0.0276228699976925,-27.850413207913846,-71.666198601509,-5.11426713023117,-2.965176703417015,0.4453127217451289,0.049564208747931104,0.10168786364764829
-4.834730877385061,0.4092672029429736,0.3157476023051034,0.2151944717962534,-13.930817482257863,-38.16284176103857,-4.531569627661352,0.4265058839146803,0.3140849582264847,0.2221306683267804,-13.949518702016256,-37.17566304595228,0.13283599945626948
10.273148511316055,32.12361249283399,-0.4708073324367573,-0.187125492609097,0.3958669390819542,-0.0501651563739979,10.054783217764678,30.44578770314312,0.5626099916224896,-0.9082802233935405,-0.04944082041990194,0.15319048179776296,14.862153376574419
0.2539507198221397,-16.77033507784229,-48.12602205638299,-14.246595100202477,-0.2207053497958724,-3.499634574770504,0.5278406847376278,-17.22449270760569,-49.54973640885146,-14.878757606648605,-0.285213490367326,-3.567698047691536,3.7672234323178846
2.2903855698640894,-2.480497217588984,-0.1248414097174101,18.077226500613964,49.18295710138347,-8.731541064317183,1.9520218312012787,-2.337440039353986,-0.34329004592371737,15.605966147178048,40.0011673005845,-8.334903265372258,130.41921538579783
-1.4895639302864951,-1.1741305136557274,0.1775018840544457,-19.393467519770866,-50.49084969223205,-6.718086074944983,0.5286706664277858,0.7969965677139044,-0.548442365829878,-21.88315815975716,-50.629157089482874,-10.686029891569774,23.69172120910256
-53.10419160348752,-15.338888010570464,0.4001586069016758,-4.110636123071336,0.0646462121086594,-18.95317281061255,-53.16590248559919,-15.33262899326428,0.39499007785866525,-4.1105066459087425,0.06880727838223866,-18.92759142371972,0.042428743075938385
0.4001586069016758,-4.110636123071336,0.0646462121086594,-18.95317281061255,-52.46673444782802,-15.270187568333736,0.39159520818419935,-4.104885050360281,0.06894711873237114,-18.925539971624005,-52.710295345304985,-15.188883096280051,0.046686258884769544
-58.58219151674279,-0.3537840023642524,-2.707008753063556,-0.0644060137943998,0.0252517022079522,-21.566681576759347,-57.82125324712649,-1.191977112625409,-3.8872170392072576,-0.9739929247527925,1.1624425043871156,-22.294741006405445,1.5625987322985473
-3.543511945404008,-0.760370470866637,-0.6580447776543756,0.1893861493685793,-18.08979165115607,-51.73324536021886,-3.6164131620338216,-0.33049109004952015,-0.05939289622060073,1.0309466893939003,-18.074543416901392,-54.8109610213948,6.779912547808899
-4.4142578264470655,0.518292122665356,-0.1659544897706655,-24.063552780154406,-49.75709340373576,0.0382948201535027,-4.582987828749921,0.5337282914939081,-0.32087905346617873,-24.04394480963309,-49.19585293232245,-0.14678938829676724,1.1154145891896199
-2.2173168344749903,2.3106171268290128,0.3665443817163596,0.2135989703874519,18.73465156310009,64.80432889727747,-0.32301992849065897,2.2554052242902736,0.4367622604986287,0.17132392264010132,18.889501844512683,61.982744006313844,15.395573227015383
12.63639927859476,6.422075911990419,-2.2263488982377577,-3.0054574613102383,-0.4310125151499434,8.787969380170038,12.995618416211073,5.564485742605029,-2.217525918169244,-3.0076019067819217,-0.43202091235457374,8.824356656817905,0.033615991248247795
-2.97089675808777,0.3747996587255456,0.0149471546039791,-28.05577461971102,-71.89235160361709,-5.591790684369827,-3.4228183960271394,0.3743485115120393,0.0018952072741740267,-28.01432635507922,-70.79845505187066,-5.344976514182676,0.993852975568395
-18.147205241348978,1.817887788046236,-4.252878238390127,-0.3755920180323552,2.740521103520724,30.003266625087345,-15.600201373301843,1.7701208729281026,-4.348421820246813,-0.39397131555630915,3.038861478209796,29.53626863383954,0.45020507688875766
-5.634349112349195,-0.3983587326944344,5.051354002716059,11.07875854099887,4.73429794689889,-1.970219932426188,-5.624348068364071,-0.3968563475957154,5.074412101464986,11.171587312347128,4.115846695861819,-1.9146799665285243,0.047669566390063395
-0.3285065777493694,-7.422217341094471,-27.45922374318785,5.698072450034872,-4.216604343467717,-3.555098946198938,-0.3307316924112371,-7.417816590944355,-27.248782136838088,6.113825951934132,-4.203347288838714,-3.5530405296334404,0.054367735024791
25.53542222605151,3.9098515085516494,8.249365761964977,-0.8192460594621156,10.06460498728666,41.90989334249786,25.55308931925083,3.913239365348481,8.256044257255127,-0.8194506105100761,10.074441734408907,42.00763156658036,0.048966259974840526
33.13116547618391,88.81153908918489,-4.200671901931979,4.4423731668559086,-1.0000456411981085,-0.005028156392115,33.118151241887276,88.76409901245606,-4.105044250619585,4.4426950861500565,-0.9982294865353918,-0.01503593716915752,0.07923962630165052
-0.563260215143528,-0.6939039008404684,0.0784176360875033,-18.23557811591322,-44.30466192994405,-7.010398888452901,-0.5573945403291276,-0.6934403438895345,0.07916148404020618,-18.241991523940726,-44.58628784257735,-6.726073175577085,0.04125102127770988
-48.677448463136095,4.919949826730536,7.649660507404305,-0.3345193468826248,27.054918935843023,80.04098731052837,-48.339584843963735,4.913471066556603,7.5849656343253855,-0.3269015097011536,26.925717144861892,80.44904871048857,0.34060014675149175
0.721385827915057,-0.0004510806722172,-20.42471464401998,-58.50724295777359,-0.063361826290132,-1.944347079992723,0.7055485114060502,0.02900179046082485,-20.393233870423273,-58.53771102387236,-0.03626338561969078,-2.002623069896515,0.030864060644014174
51.264812303301845,0.0278569086702835,2.839983394737103,0.0279636430055712,0.0124880634650311,21.84500843525264,52.71564064452747,0.32645953194793265,2.5783513088509835,-0.6438824040919542,0.21727115185994705,21.18100211683481,9.595198524386298
-2.481808247124939,-2.8968805893302387,0.0826138953345841,-24.786178211959708,-68.39067661946656,-15.913306473124528,-2.52434878329192,-2.809416112315358,0.140694982993943,-24.23287368085317,-66.67632722316971,-15.945268714000846,2.2210768548036204
22.209510744432954,63.76213484493208,-0.3071537594901862,3.161945722814129,-0.1071867919695564,0.2075105521173147,22.206815197096546,63.83191453095219,-0.3164780090840509,3.162124473966216,-0.10770429046750252,0.2077262604773722,0.03233165935231655
-0.0101697188213238,0.1871965092069334,22.226826698636792,60.66674751701687,0.1673138386673577,3.0291420984107056,-0.010278755029855091,0.18584792036551523,22.223253455756364,60.814247661679474,0.1352330677128748,3.027939719208631,0.05889099466256967
2.232860478439044,8.659399087314243,-0.6675335252945003,11.715482297676743,44.49686170658653,27.07765584231663,2.2286955710699132,8.65399255977101,-0.666976489995043,11.71511956164423,44.38952586073262,27.022506299572683,0.03454403060940395
-0.3412845912534931,3.0186687633852256,-0.0964119394842729,0.1852195514054122,22.14488193773198,59.67804496024725,-0.2628513582246086,3.02081744456086,-0.09192139411888867,0.17922140896429095,22.19115031853798,59.79224136844829,0.3150489979824235
0.2634238364667776,20.69381812902269,64.24791437945967,-1.750728727876062,1.998096001667529,1.097847538652811,0.26053959758683964,20.60891196499469,65.81956785982402,-0.8505095003826995,2.0130991474913245,1.0778441442672637,0.14749064360413713
0.0819400592535663,-13.971895767426124,-54.34450716227116,-5.051374898155,0.944533518194366,-0.2146124007510848,-2.190510676561985,-10.741519070808863,-42.318017522286226,-2.723470163959405,-0.5637574571290713,-0.7957639472851099,119.48248211292308
-4.020805385317124,-4.765278050958304,4.915170576461116,-0.2006308427916433,8.30299026557265,7.274009578779793,0.30471689906516986,-4.970184517427057,5.353214265154108,-0.1649686976870579,10.617858769039287,10.905124642169085,12.77565163337622
8.234808965340413,-0.2152798554624996,-21.67073704124073,-61.49156878104768,35.04207863756855,-3.0585073182652445,8.428383687378599,-0.6886655203890655,-22.160954713586165,-59.092544594012494,35.63617766160548,-2.686415466290647,11.430628991281857
60.22078620580492,-0.2441517687780068,3.0089775382186303,-0.079702491262259,0.1609810791157502,22.14709735002011,59.74446037665567,-0.18215967950142442,3.0176756615805758,-0.06819031392927144,0.186222253141338,22.192642257486995,0.05828518547785025
0.1108052412250405,34.16185858588264,90.20861062465016,-6.619177437038284,3.639309272365897,-1.4627539394283953,0.11652814102373732,34.27311393813176,90.53127296744015,-6.764197140260421,3.6632369092563692,-1.4614792208027403,0.42327387419201357
2.8104677268619938,-0.014331579173175,-0.0052400861191705,16.420749375793783,54.78894634134395,1.618534393402669,2.6871612308192,-0.011800236710826084,-0.14429799281638594,16.148052811010302,53.36887717679626,1.6644271233723202,0.8874887588171779
39.38928459343122,10.224471977992897,3.782851607877309,2.114582489863466,-0.1351723024038462,20.42080799898709,38.567159114564,10.098950619977533,3.710024896829684,2.0735888572473464,-0.129615569090769,20.063442354072684,0.3958510780054004
-25.01057218019776,-65.44378357533924,9.009436304563888,-2.217046746531027,2.256507813149833,0.1185011875478453,-24.88203026398233,-65.42972430070743,9.073781336372917,-2.187531946798746,2.231667593650588,0.12979521091324742,0.2821524721837042
-20.68899676313386,-5.704208471165696,-1.5763982750969423,-2.217003637954856,-0.5263458246593771,-2.374583918906374,-20.510346519140512,-5.840467598534815,-1.5796818885751094,-2.224197650478267,-0.5293124174989465,-2.266737471545113,0.10306317388492717
-2.636542603038931,0.1746399865326553,-0.0064762536665946,-21.704492897593724,-59.53173909970485,-0.2039554706088704,-3.754149950222086,-0.8372556089475438,1.4704009997694243,-20.041699317799612,-56.41801639997277,-2.409591528105466,0.632975116419154
8.039344352376778,-3.231599401313534,7.360971793292272,-0.0077596223495824,16.257264785694325,48.31726322034572,7.162393967009848,-3.2028054048393315,7.258072373679383,-0.006236472052086661,15.10205817873424,54.72435963155158,0.9791693291126441
-2.6685964166034504,-2.717291164696562,-0.2978632751540571,-0.0698188852062807,-20.16352440647352,-57.2079163872894,-0.18142410789278074,-2.434942974478531,-0.28081725208002695,-0.22949661260417997,-19.114881027270343,-65.15150000780409,6.419450472187386
27.19541615727979,-10.689500935549672,-4.768866467905299,6.812811030299813,-0.1493156118572412,15.004272427213866,24.973387853825557,-12.627404463470157,-4.776677548128241,6.797322401879878,-0.14090247839704184,15.13696773707943,0.5784232558913592
-3.606849953918052,-6.256227971320357,-12.291201901207252,-5.046542344444258,4.993222003931384,-0.3858171062948414,-3.6839299468198163,-6.2567065323758015,-11.912322641132732,-5.075343968006436,5.036287226162628,-0.3658306661525792,0.09869337153200122
22.42228253869904,65.24011436686823,-8.721017157302402,4.119436686514749,6.118289026083057,0.5458176544168384,22.639082999048128,57.693794531896856,-13.753491989110444,3.9669518199286156,6.000533519416329,0.5275901124941251,1.3570253466766438
3.110572661196933,0.0521056320412181,0.1976799604012471,22.36666805881138,62.41087898720929,0.5444609477851401,3.1108065841590324,0.05205119257141,0.19799310439245943,22.353823631122864,62.51578390403711,0.5284117913944328,0.03625699460011647
-48.55564746312079,-4.401445515079337,-3.3356737879138407,-0.3055646605584707,-0.1577946113288333,-19.99099875327404,-45.66566875453415,-5.761407761770187,-3.419359406668235,-0.1826110323904757,-0.14262790117955593,-19.203233589618407,13.500951012603572
21.88470006737014,54.42836913060471,-16.992564674881116,2.3365137910458413,-4.08252586400759,0.0496143130457925,21.864484297983864,53.70962754908986,-17.080427467589608,2.326287518418057,-4.096916110345425,0.049432559604943305,0.44953591782738356
13.720022922322476,-0.5343145459412423,25.88113837012052,71.20045876527983,63.571560612063216,2.884790569228053,13.706427465936883,-0.5335572941595217,25.856243965714953,71.24986988542105,63.66560808746863,2.8777700806998716,0.042514841222648286
12.429011800580843,45.9638583019432,28.450524345440368,1.9900173557029723,8.883898291837363,-0.6450369617128893,12.435500063245911,45.9303787824625,28.39709941758005,1.9890037378931624,8.883256275021955,-0.6461492905152866,0.034969157921331956
3.3846148226528103,7.872878903160728,-1.0353136993166658,0.1751256039876535,-14.277430897407475,-4.694764039722044,2.6639284120547018,7.867527517159843,-1.0416035247580169,0.1734550426268271,-14.26414157213425,-4.931289016446726,0.04580875230457396
-30.054558757823024,-0.5999559010318981,-0.7146024817380048,0.247260264193889,0.0525357528066471,-9.4845135801646,-35.30152945684813,0.2475954165768144,2.525376463590817,5.137244916113218,-4.759628942270275,0.23908636957770568,48.989019705904845
-6.998287037323933,0.3772878294571405,-16.481311645790456,-58.05490598513279,61.30485787442532,2.234830586502863,-6.464902866233537,0.3428482308197045,-16.07267666559686,-53.504595524492444,58.20027200625677,2.3214007940183006,3.470762880713132
20.59034325193984,63.43826202411885,-2.4254959162948784,2.639230883121427,-0.430900691177166,0.2206866850450252,20.586512063358015,63.48082218035256,-2.3717316213091806,2.6395093251848696,-0.4314752337551413,0.2210795347694603,0.03655363125668801
6.157591811170331,0.5173552465348975,19.1855649474714,53.31210224790675,-15.346769468317268,4.668508372937965,6.157303732121875,0.5172188726733133,19.184405533531276,53.310483063082245,-15.318639049154772,4.668250462139093,0.032509169925767495
3.121589020200196,-1.3862414755318055,1.9168527456222928,0.0828453113763422,-25.12391950555047,-68.9143715708059,3.3653410774419967,-1.5485903317370138,1.830802032954523,0.05793775260146106,-24.994255468764862,-68.75514641825453,0.25478658965156653
8.915059900571476,-0.220696187690842,-21.05272507122852,-60.16316642358228,40.6623483881052,-2.9355087641869844,8.795379991169785,-0.236102362838277,-20.798492377113178,-59.283700074291886,40.20736484206213,-2.9049572218346924,0.21624021298473708
21.504846210785324,61.39538243394764,-58.19887591816117,4.142587694161056,7.580158180891262,0.4827096359106632,21.510264453152104,61.34924757689669,-58.26699060418923,4.139262429106793,7.5746793216582375,0.481661204712891,0.0338976823277696
-0.1718295594059792,-0.0308740147134622,13.82232555421839,34.013637764733296,-1.318467478791649,0.7584468600931581,-0.4819879349985441,0.022776494111645285,15.617969100999384,43.344747951365605,-1.8246409279186833,0.977737112659552,33.466295014069864
-2.80742523535558,0.0759544748487605,4.231506210997452e-05,-21.94150034529895,-52.76978545310208,-0.0041000025786198,-2.7960602225251705,0.0666807581460489,-0.005628509560324346,-21.92595166695537,-52.73662035516321,-0.017582276035909672,0.030713453429861787
-47.85476246369407,49.761505918169206,0.0799349327222521,7.4788085516092035,-0.3316566229371795,-13.686803505773584,-47.85328610780857,49.8323348914786,0.07872084034468685,7.479655631049972,-0.33082480065352726,-13.68893866812482,0.038972557126250834
-3.573913366835275,3.133673578460036,5.065875967283736,0.4970099244332737,24.32289100857652,68.69017566375659,-5.878642432537845,3.1186055321094033,5.073058758643837,0.49668671860722435,23.844761522883317,73.22870506439313,0.17787791819180457
-0.2317645968255989,26.517187283260128,58.2184798335416,-0.5834077846803203,5.327189706515711,-0.5910352379842625,-0.1894837092010162,26.37086969855357,56.79264488430289,-0.44182282969092057,5.31543556405714,-0.5592732531917601,0.4620649504920854
22.346631364111417,62.13760063319267,0.5607097759085311,3.095306012692977,0.0555363690622551,0.1950468743194151,22.35200363534335,62.08579903379325,0.5717671804652014,3.0957667242333464,0.05606935242558819,0.1943019263352781,0.03133130722412916
-0.0964285410382333,-19.82896576595218,-51.78417167950269,-4.215919168875093,-3.105825615276084,-0.3488980231010367,0.20374445996834112,-19.61323894205904,-51.29322220472899,-3.9818977146588566,-3.2338882326467377,-0.39785097464863917,3.2065066604628574
-2.8073962432906234,0.0758749864002851,6.842326394644884e-05,-21.94152104329542,-52.76976204358981,-0.0040983780942302,-2.8164608204650676,0.0705144286353061,0.007623006654966957,-21.913020315241738,-52.7366763810042,-0.018802960254106438,0.029815110761582858
-55.93922334788157,0.7351628068748531,-3.600388012958629,0.6150161278156433,-0.0858480166226812,-22.03581771632902,-54.76428891137776,0.9313823096692602,-3.9370969148053305,0.6256630927694182,-0.038237093037498227,-22.595709702553464,3.4974435666240216
-60.28156781188542,-2.648509929301833,-1.44576306105242,-0.1781075246210124,0.086643910869728,-20.82010239505857,-62.632375104269215,-1.3103900708345009,-2.1730219561107447,0.6485946781741632,0.3826725241911362,-24.191649490219817,4.036759265788853
-57.95861401492356,4.831797857386097,11.511765268647984,-0.3418590704547042,28.27535547057207,79.71197057990871,-58.48662125390945,4.775076722971889,11.525658791397532,-0.34940235570427447,28.234753312468968,79.4642691786512,0.0912242855039628
-10.249038117244393,2.570825971059365,-2.781239969877689,0.0495108115263421,22.07962431600817,52.70542037925789,-10.352895951957034,2.5705796175655267,-2.772162295548512,0.048838984501266,22.01895776603346,52.93801123115317,0.2171209409213836
23.98795355149112,51.26162630075696,-0.220446204539112,4.325921963871294,-0.3775507524949024,0.0066795317506731,24.83318815707869,54.09509748888576,-0.5105622071679061,4.506517412905827,-0.3144466438776419,-0.03955679023632808,8.599122746968284
-0.1228347119165856,20.562655210502456,39.06317977939389,10.128471644984426,3.791487611308681,2.055765963924755,-0.14406493607856652,19.407882832090642,37.360129929196816,9.014764659162406,3.5934901852724233,1.7700482084484197,17.705484371287845
2.7406462518193564,-2.256444076686152,1.940944774347221,0.0261141893932187,-26.7927330666918,-70.0799164482043,2.59855139185305,-2.2291948228129144,1.920088483005145,0.05682881782151128,-26.904298962592406,-70.61682201914994,0.10693534761211568
-52.76976716876466,-0.004098684613716,-2.807445305530609,0.0759562603652516,4.571997539611892e-05,-21.934712211791496,-52.82091983204123,0.07894247564763646,-2.785288947051299,0.08321565141523024,-0.0050086782057832124,-21.962492566831884,0.031950615501479845
-2.3890337534734223,2.241818740532535,0.0963980658388483,-25.72331760539407,-68.17780043907992,9.709943579937097,-2.3908266136388017,2.2400580143163777,0.10152222179263504,-25.72015774872007,-68.03866715901346,9.669580983407126,0.06830587359511556
6.070094367994004,-0.1761994213490781,12.253586787249889,18.234695887017228,-7.893726004652598,-4.892969411555217,6.031970114207553,-0.17726393990035483,12.35272417306139,17.681897676598737,-9.340285755200966,-4.92816554409929,0.2784420039887229
21.561141926170308,67.76373152785065,-7.868202349738986,3.1509421836381395,-0.8161736651012759,-0.0327332704826001,15.77184493966297,57.08120777555462,-0.06332798414309515,2.3398733145067485,-0.11019344917005358,0.023807379943345808,109.59392982899469
3.009129906005109,-0.0701534371840463,0.159370259487224,22.164407104753632,59.53248971446117,-0.0714919501949482,3.0135181935314073,-0.0715652464439307,0.16227943427212566,22.168425934625034,59.95715411664628,-0.12017911181024488,0.10215649724305167
-8.70753956941536,8.463209099674131,-2.859323528086684,6.0589363631599324,-3.040699603934486,-0.2898634779990792,-8.71568278733136,8.497836632798453,-2.777303593833267,6.057869220209115,-3.0392882000957258,-0.2893621495369132,0.03250885832731201
25.72526131855477,69.25440807207707,-64.14745138084312,5.322096306820307,12.550858460538404,0.4719871654100733,25.7077833814692,69.37192159111123,-64.06533926843395,5.326921275167081,12.558100637641694,0.4730507658238565,0.03391816934934214
-6.853791120565576,-7.386588025260242,-1.0743248620293373,0.6473768315931343,15.3825859974243,60.14385423737536,-7.134748643286002,-7.389762766142809,-1.074069375487339,0.6473824553074508,15.345528790671437,60.35056964978958,0.03814851026502511
5.63232026977188,-3.710329787080277,-5.870379029908747,-0.477558328435929,8.835599241668392,15.091655829038094,5.605347363383544,-3.7071671803871027,-5.873029621708291,-0.47606098583152345,8.821559340322096,15.116799437071052,0.03386901060444161
-2.270628379135132,2.7376247394950752,-0.4302221745291256,0.2157358397244623,20.83672325385223,63.66841824752243,-2.341683016377374,2.736030664712085,-0.428942585913056,0.21555896641459782,20.825093654414815,63.697911094419396,0.03303316040362661
-3.039934283250984,0.1425434006457253,-24.272677026971856,-66.36402373276093,-14.434494003715267,-2.372274046391847,-2.171012204612916,0.2764247245487379,-18.88026086278836,-55.864057505232836,-10.147237573841528,-2.098259299472951,51.944478151476666
-23.10885431851712,0.8460176392433363,6.378876679425314,0.2507361043382426,18.553593997335675,39.21393393839927,-23.143789826404827,0.8281254121078305,6.37848856214957,0.24935548703331367,18.486647711963087,39.898144295105794,0.09747193237488064
-23.630777438934377,-7.263092744360707,-1.914668161025633,-2.40576580969649,-0.5116884826060564,-5.135161097441865,-11.479595945987057,15.93319529679593,-2.0202655127736193,-2.3567306669613473,-0.4740663796642668,-3.3102252201580455,10.30224576730641
59.38604911664798,2.2412693666421184,-5.484286923184737,0.2824571456506062,-15.585309078346649,-56.27021526614664,58.77067920812459,2.3396454389707486,-5.3306593751658795,0.24244388417263707,-15.556190395304043,-51.23508533300446,0.5533435509037551
8.859183927910529,-0.9699049276595856,10.66608634788711,45.00758371843049,27.269834073900213,5.072011333056161,8.69742943087099,-0.9433837875490072,10.505842202284356,45.05569930858394,27.955675485792895,5.096175071838143,0.4369184423031035
-21.9424551350386,-52.76058413768709,-0.0047842289482443,-2.807372307995684,0.0758728924524046,6.456949357006318e-05,-21.938012175405674,-52.789495835060734,0.0025403617685242352,-2.808480524166498,0.07739384856413523,-0.003481330718273057,0.029683130096920834
-32.788686595296234,-2.2720119095126177,8.768209311065512,2.420587630799086,0.4181599503989865,-18.94573362086719,-31.958802668806584,1.0509744185184218,8.77882711307079,2.438438043337115,0.42165352880970364,-18.951079213401584,0.05057642012034394
22.12558011173772,64.13516500500599,-9.445399867396633,4.212613752787055,6.170977748237076,0.5468256540485519,22.118080029705823,64.14929979043882,-9.470070436547758,4.209698688733486,6.170844424467479,0.546579492751738,0.032136141305763616
0.2507414996246105,3.034484393419356,0.0068542621860887,0.1877273595642727,22.25392192337996,60.40370852354202,0.27198433222591234,3.033518633131278,0.006719661984596392,0.18692693876968125,22.222879868129223,60.47560668771263,0.06840306941232002
-24.966323720876936,-19.34706390884005,-0.5224626368907057,-3.9023180246236726,-0.0322051472932106,-8.728094395721405,-16.798178769450203,-3.0066464362130887,-0.5657074765414052,2.4430594395416563,-5.986516827482971,-9.129003391930581,294.9525941440309
2.1887795293806653,-0.1273500867697345,-12.561785456342935,-47.083564207507806,51.1394199881037,1.3999313900174373,2.014824338120576,-0.12204056085134019,-12.579248237357916,-46.60325823286561,51.30929025658014,1.3969233975662743,0.19294814077185465
-18.92034667003835,-50.036980451631,-9.852198799848884,1.5910782011100708,4.139206597161755,-0.1708597051049252,-18.478695122593003,-48.051193703582754,6.3844791081093035,2.3093213440674365,3.14408533806793,-0.008573123822724682,56.01324281447214
-61.57767344854891,4.925606213168602,10.32304666368934,0.5346420208011693,23.63021892187409,65.11644957730758,-61.813363361434426,4.931648666283557,10.332342912878843,0.5355696231517619,23.651031383197534,65.16792948630837,0.036937857065176743
4.582171036449042,6.240975055254309,0.5354889313963054,20.234062669214254,57.2302729139814,-13.413404410512848,4.575941123611116,6.239065553166682,0.5346163933484185,20.223798149600754,57.19079031350191,-13.501777385989953,0.034117052116507424
0.4569360541756078,-3.14317371966038,2.934768250154882,-0.0701904178572025,5.369959137089682,0.6184482856952986,-5.609241793163619,-3.2393831553112733,2.9914667246517226,-0.017811935389419498,5.743953896144532,-3.1736111615808795,11.076564163953755
-10.61722646238221,-3.715481923303877,-1.913639752764186,0.6029617000630711,24.364378350273626,75.10169215285009,-9.959799991700493,-3.7165345916882018,-1.9231908270753777,0.6054705105014904,24.329569928461467,75.81419838629199,0.0364660818637296
62.35459690953587,0.5506149750359065,3.1084748668423883,0.052490061354558,0.1973958497184063,22.36417271593329,62.38561784388685,0.5455136258667039,3.107688127945819,0.05280320925409754,0.19602648360081787,22.352016010407738,0.031143457271732317
-40.80511782392055,-6.62427762091549,-0.2646331413739461,-0.1514213581712968,0.1396591646858724,-16.4964756460114,-41.24064636512753,-6.281305308558387,-0.2582914912095191,-0.15336816473519121,0.1401965657805544,-16.479815370715578,0.04220864709717689
-21.941511207941243,-52.76977282813159,-0.0040990534325759,-2.8074390339137696,0.0759557222864718,4.47629032922268e-05,-21.955251021391177,-52.7274051697068,-0.00969031428985545,-2.7965847559307804,0.07240535586174701,0.002796302002934681,0.03074044039423343
0.7206571297956799,-1.1765560708783176e-05,-20.41168814940629,-58.56512196967656,-0.0102837496915383,-1.9443390715955464,0.7133037918972605,-0.03814916387000267,-20.449510132036608,-58.54056614696037,0.025056247690230293,-1.860865435341566,0.031780585573678494
1.1647286268167096,2.8366072492747003,0.0283391093801018,15.867349383157816,43.68072491587579,14.7081907362277,1.0665945456540695,3.155931908850526,0.02579384978860516,16.441704358992304,45.05733437723398,14.074737766795378,14.546958565262152
-2.242587530844245,0.0016714633451439,16.108666826226994,52.15561786798045,-43.059460299503655,0.7390176589968669,-2.1619855488154656,0.00471836965165906,16.055738386375225,50.77804615501191,-43.34970003400497,0.8493655739943193,0.3618519827331076
18.71298133656367,65.78535828833762,-9.377834471334252,-6.276401565205029,-1.4496917478246083,0.6573079431349731,18.75361281544111,64.881222123871,-10.876554122032758,-6.286311533171293,-1.4545911667988456,0.6599017344067699,0.06181458090296901
-1.0509664598086974,6.849869274984802,0.146489020047836,17.983494278643217,46.32615599454519,-8.411406746324607,-1.0305265320019146,6.867692432285196,0.1457700483786759,17.873662852301866,47.08684337603751,-8.059457063608875,0.09406429006183062
8.211689410096037,-0.7817323185788924,10.183221944035088,41.71471478069875,25.03898360118405,3.545598949691583,8.210663792278552,-0.7807708010705918,10.179082866978263,41.76819003482444,25.096402923680216,3.544081779262914,0.044404776647504335
-2.978201059536274,0.3836112725025655,0.0211502151782456,-28.05737689483173,-71.76480202530215,-5.46218765978165,-3.432761011238725,0.3225443972191897,-0.009227488539060857,-28.113441493512084,-71.2635603692231,-5.215783846659335,1.260378684976765
-0.1382367313675214,4.75196386331656,17.39253369192831,1.090873207705716,-1.5053021026962223,-3.009311280811641,-0.13881397462536427,4.78849849365298,17.576548269845773,1.2040903131942287,-1.47428196646419,-3.0241648708449667,0.04159106018048733
53.953169184065295,-7.059788971363576,-8.274327079778583,-0.6231998855357165,0.6116158035121063,12.560014066343763,53.915363162041615,-7.0631242495823585,-8.285400649322213,-0.6198687716542848,0.6121234492853009,12.546152932556765,0.03946156317503183
-16.13113427359522,4.6657099593215285,6.092884149752646,0.5050879753280697,18.67382031263965,51.330037878479146,-16.149952475147074,4.66868343917584,6.093841746175883,0.5054710241893305,18.679741750996612,51.336828314554396,0.03368425069536643
0.3331411390323457,22.24234425679433,72.55801346290833,1.7633894464391076,1.8843605806756545,1.7726626043920644,0.30759005690532026,21.569251252005728,72.31108164745504,3.438017832523201,1.7264441332412943,1.7009396227349214,4.6781283089475005
-2.7300000995856344,-6.324368573732891,-0.4848843030979991,6.708354088066971,12.103586655691188,4.842024871271286,-2.741664154135602,-6.3299390889351805,-0.484700792843511,6.699654644094444,12.12729641537436,4.811177027373219,0.033208829708862325
6.170909901660721,-0.2934075571714192,-13.08872088378189,-47.41109333259429,49.55497491601861,0.4803829930232827,6.163498811555002,-0.29257290391402124,-13.085086861231872,-47.13181761643838,49.66435299326963,0.4715314101449106,0.04807409008734767
-2.807419631500021,0.0759539384774619,4.116090220857024e-05,-21.941495972568184,-52.76979081739591,-0.0041004640351586,-2.7957443740116332,0.06700154663394642,-0.005955949104759384,-21.92684463892965,-52.73636910110764,-0.017395953407458364,0.03071313045385496
-0.2340120707756022,0.2721846826480186,19.267110759616703,62.46901116583462,-1.0914836941589618,2.202000010858711,-0.2293284656551542,0.2719409801501367,19.327593012788373,61.75566754478268,-1.744885482087824,2.206860074767526,0.12687773746362355
-5.320481622030169,-27.11281293074097,0.458795065984237,-5.037990129341846,-3.689238321442425,-0.1120470134686668,-5.3053627270435335,-24.683237789809603,3.830132466624093,-4.862704487451216,-3.5993895981697577,-0.0501604511043241,4.023352130794572
-4.27248885014777,-3.584726143631721,-0.3285065777493694,-7.422217341094471,-27.45922374318785,5.698072450034872,-4.259257679204914,-3.5807977263412063,-0.32940277007312235,-7.368477649142903,-27.43506747702645,5.420560730429543,0.04363644799381264
-19.26745890962589,-39.20182682265367,-4.8765669135887055,7.5337974212853105,4.296793766071742,0.2998124507765788,-19.258786828895715,-39.11371787048108,-4.6398048364235365,7.5310953653139165,4.2962614620618,0.29951347886155766,0.041339649468263545
-20.320709633062464,-58.40645990209823,0.0635786524945415,-1.9166805876002244,0.7332431663112932,-0.0076354086388576,-20.430943801672584,-58.60491754780196,-0.0644556538948109,-1.8389139712658107,0.7381445345287432,0.1032031644544702,0.05594491763273682
-0.4015019488367317,-0.0875164711202331,-0.2319503190943957,-0.0945740809983357,11.712100413417364,40.20774466483277,3.0660417671461673,0.05547748777077999,0.45535035707360194,-0.1382418640318388,13.012953755137918,39.38818744387902,24.850879567843982
4.194950994949287,12.99262496094324,1.7538366213620695,-1.6857999405632158,-4.5399626941342905,-0.276704012110909,4.2761235598173535,12.650986430444242,2.984810221683702,-1.684716740359316,-4.553849281024261,-0.27756753360072384,0.0343992348335084
-9.51400169044272,1.5521328547346167,0.2763638437085259,3.608101482520994,26.020137744707785,-11.362546729226151,-9.528009963329382,1.5603551776112852,0.2787121184399197,3.601504123331779,26.322727072578346,-10.847131379925486,0.039918071235526625
79.38046975515476,-53.90861751672767,4.866096998144608,9.95252621075891,-0.3659518761043209,28.19937201490266,79.72992520926871,-53.77525791532718,4.793265033203161,9.962014527543172,-0.3696796100351579,27.99286927796588,0.23272818917545438
-4.717448993774988,6.872377245009939,-0.1520325091936346,15.12189277186022,27.19541615727979,-10.689500935549672,-4.745465613637819,6.847112286198808,-0.1455112657806641,15.736495580775685,25.398238618618166,-13.000158098947932,0.4132553063921952
