Roblyat/algorithmic_payload_estimation/payload_estimation/data/result/effort/25_02_025_01x3_effort_results.csv
Actual Effort Joint 1,Actual Effort Joint 2,Actual Effort Joint 3,Actual Effort Joint 4,Actual Effort Joint 5,Actual Effort Joint 6,Predicted Effort Joint 1,Predicted Effort Joint 2,Predicted Effort Joint 3,Predicted Effort Joint 4,Predicted Effort Joint 5,Predicted Effort Joint 6,Variance
-0.8630657277379125,10.117354910401932,43.174107391687045,26.41931540462344,4.40686298149489,8.384501963500034,-0.8664101605961756,10.145800314196737,43.13984567961006,26.38989131914127,4.413348816516958,8.398161765371057,0.052386774736487327
63.78093455365608,-2.3336008333358,2.835794821312381,-0.4067731263336572,0.2126867812337724,21.09471570729904,63.850329412626365,-2.2519831159452224,2.8365779801430495,-0.4083585286715632,0.21288377096627897,21.098857776562795,0.03779408305872477
-4.457303987963676,0.1403464326731044,-17.6117642448851,-51.03702785721184,-16.838536413573856,0.5542578830441522,-4.445139808007353,0.15486305484053897,-17.61432370915833,-50.9843827795645,-16.929695975315695,0.5656214103164707,0.06404020310192192
9.58769588181987,16.221055600867768,5.526481654195212,-3.639974558723545,-4.850748453383213,-0.44011044905863,9.594305306846024,16.208994715896324,5.529929877762697,-3.6355450251703303,-4.852113472891929,-0.4403306830641007,0.03605738935699475
6.112218740604833,0.5087554946890359,18.81539216138556,51.88496907767035,-16.00324801209247,4.66795482741538,6.112342962118603,0.5087607097787128,18.817234440253287,51.88707559469185,-15.984152090216867,4.668616300973042,0.036019401263683734
29.43083590406168,-8.992538545244733,-9.543070537253708,1.381458699579135,0.3077554374117433,4.030356047565357,29.559220432354778,-8.894535085645657,-9.545669111297116,1.3811969172987242,0.30703180522282136,4.064946180260279,0.040149527209007205
0.0726737325702318,-1.942144109576305,0.7213500167281084,0.0006953945778656,-20.42384848204371,-58.5074886162283,0.029991785306378915,-1.942108001826739,0.7143118619949291,0.0006080389609905978,-20.427055181721244,-58.53604988453753,0.03462240048243058
-0.1746941751335353,25.55582097133449,77.51007550179847,-39.18427619816935,4.942855511026806,4.149728051694188,-0.17502074343994956,25.547900679139843,76.60336701048868,-38.82535510975869,4.946114866011811,4.16905326672304,0.5127967039917506
-0.3858171062948414,-3.5272202892042888,-6.357186698069889,-13.106597779088794,-5.020078427275735,5.2771519118644346,-0.4043768513105537,-3.6634512792736587,-6.228626318325041,-12.333063639262946,-5.011589866943552,5.360487057787459,0.4049601062803957
-14.246595100202477,-0.2207053497958724,-3.499634574770504,0.2561601576902158,-16.743270821614445,-48.248333371074544,-14.24651279742628,-0.2179973404619293,-3.499407808954521,0.2652289049269152,-16.75910569081259,-48.348641389500926,0.06494497910535967
-10.341663196542232,-0.4176963876194454,-2.483075719799728,-0.046057903848132,-20.9015335088784,-51.873944966692186,-10.71172133292987,-0.3799720265857731,-2.501989503508195,-0.044074474469011804,-20.861826879916578,-51.95382247331145,0.06891010532917773
-21.93471582887389,-52.88782634295479,0.0351621832479371,-2.8071658337653465,0.0809348975769362,-0.0005129208862922,-21.92709223653833,-52.77654914311006,0.00021131545622665726,-2.812220248500921,0.08092770206212663,-0.0037183697504588054,0.035037273030707014
-3.5272202892042888,-6.357186698069889,-13.106597779088794,-5.020078427275735,5.2771519118644346,-0.4116979150884957,-3.5486752306190894,-6.518751741774707,-13.27406688548399,-5.027156369181094,5.292968200601914,-0.4097722610717618,0.08080578559623729
0.0710620038169551,-20.21582088032617,-49.21286813437048,-3.1380908307054067,-2.853285085328506,-0.005879897779109,-0.5699928898555413,-22.123639411681495,-50.42668440094701,-1.7763800924611814,-2.9361371074811586,0.001517110835834501,6.701571493562835
3.1484499243511257,5.869420205892372,0.3654592294412183,17.326084869609446,40.42657007509296,-21.087498207227817,3.149306096018421,5.87514014046036,0.3661662265506713,17.36362410674866,40.435833139460556,-21.280084663208072,0.04866923228111074
-64.59300767567679,5.375213609175652,13.374062343532309,0.3922180298407077,26.58951301761281,70.74941367006737,-65.38332583271222,5.366399713828677,13.39774935975744,0.39164085971106033,26.58450225485376,70.77038876801907,0.05480761250130382
0.5444609477851401,3.1119283065761705,0.0512640861744318,0.1979490559583367,22.367771996668136,62.43606639574055,0.5473708681140579,3.112095200467131,0.05156213125815157,0.1972721111981528,22.361937269222892,62.437638567294016,0.03608843162909335
0.2326854220898281,-13.450978999953389,-37.23630586092542,-3.8048367980048656,0.7474070494030873,0.5591138998011073,0.22737702573816776,-13.455360753558999,-34.67429610787963,-4.870744056293574,0.7260215531194198,0.45338119200063787,2.3733473725331007
1.9250245463242843,-1.3043479207755335,0.0451046792703575,-13.451793540398716,-49.14858873229344,54.2492749503365,1.9329187451706886,-1.2987808105616097,0.0449491465204499,-13.449524927968753,-49.43657353636195,54.23669674128967,0.05251651398482392
53.348864416719984,-26.26385411885148,1.5172880378560791,-6.26674077885073,0.0224162628365183,20.487987120009013,53.87118417227384,-25.68775875447011,1.5146346208246904,-6.279532015928636,0.020980833355903172,20.43345381005605,0.5922980245848178
-1.0159684094998391,2.175376791459116,-0.234654441492086,0.2611574101603778,19.199013364368,60.828016558481686,-1.433708345006245,2.1772801242077504,-0.22502997195601115,0.26252051498558515,19.152983924987268,61.574553427044066,0.08876483857114846
-4.013062396839524,-24.1141263939476,0.5990990393288733,-4.615929363073101,-3.2855366099797694,-0.0460952506774907,-4.04574650164713,-24.10020390727317,0.7699445261565643,-4.628083127892182,-3.301612417862991,-0.04451415014872673,0.07487636344962977
22.36314454219089,63.10941602509109,0.3287168676695843,3.153807139217412,0.0076042813779413,0.2043067434338328,22.36366963486546,63.11914067965017,0.32428206283486816,3.1538335276661194,0.007781196686760694,0.2049753794760214,0.039111976440790217
-3.412615334317104,0.5877993214631813,-0.0831138283292441,-21.90079984757501,-57.04563250278535,0.7212810114258936,-3.385966663102394,0.5610941679351962,-0.058847799907571385,-21.85888744059349,-56.980410964289604,0.7246587155507314,0.08577099671448406
14.030814660106676,5.544350592326098,-3.418661197585748,-6.218279799044969,-0.4922346659063966,8.112323644988717,13.91567356466237,5.377779718164675,-3.4156365733005067,-6.219200464178908,-0.49217518043356323,8.122700796473609,0.037686939720413024
0.1148907854121531,16.177514495715048,57.45801954002774,-4.682429969892013,1.4311374117121922,0.0248392232125487,-0.6651904930751087,15.381276571986916,53.16065442478097,-1.8540134274277733,1.169707765839462,-0.37477329794725733,107.33950455281554
-3.776993791863737,-5.434980184678018,-0.4586374038422817,9.295249587975634,15.835246984040614,5.741675480507946,-3.7649832932289655,-5.436121086231793,-0.4585868263584807,9.28475034448013,15.901117949512354,5.638860596878658,0.03721604317264547
-28.908366602526456,5.091283676296777,-5.393824682066646,-4.323485693224294,-0.1598685219657484,-8.105049210545422,-30.36528425653421,1.8106272503362106,-5.417764801725696,-4.343080510158858,-0.15783623877414277,-8.10340007013778,0.37316562774931283
63.72655757142938,-0.6851390443902897,3.140413212733405,-0.1693573197074267,0.207571715055252,22.078577311357527,63.74676991842193,-0.6927194893913509,3.141529457629769,-0.16925360479755724,0.20781484560999175,22.071437445590504,0.03898816535901216
0.015843386836785,0.1848154988833826,22.253800877861952,61.041869585712135,0.3351157745106977,3.038916280832339,0.020151640760098566,0.1853350442504258,22.267369578516337,61.119172030829475,0.33144163139945704,3.0408070418137267,0.04052375976125387
-0.0270803809933756,-2.8073283512620546,0.0742088232025742,0.000364956531385,-21.950906775191005,-52.672733836418764,0.0008296112300740788,-2.809871898005241,0.07643046834601819,0.0025811412029952407,-21.939158281697473,-52.77400897051257,0.03435185520414717
-18.60781872336124,-25.055929227158494,0.5316849729097655,9.35757789976501,0.5587744438521746,0.4593133423751952,-18.586815065877786,-24.955201613028578,1.1540998621940872,9.337838536552667,0.566112537935247,0.4590822375646617,0.06942857563144554
-0.2868626205943816,-20.959976458955904,-53.15295514254457,-12.281509686904936,1.8046493366909468,5.480478614631794,-0.22196913078855118,-18.889254894442864,-46.28929263436055,-11.359732641658411,2.369398061226822,5.022307759109113,30.491099530890732
77.47739800941936,-13.095753724961185,5.027571802882449,-3.592131803640387,-0.1706606906409913,24.37460206794893,78.86917958324509,-13.899763803448757,5.135141679926343,-3.7132026443259063,-0.17465666498350596,25.444903273334695,4.135311062448932
0.3211975389017806,0.4958726298235831,0.412448797285499,0.1883895734920406,14.767606896139474,36.71727764965356,0.2539385569011676,0.9213284764592196,0.5368748384036863,0.10886112600680967,15.278605603030288,32.87921606155264,5.525913905085827
9.6265191261427,2.798871781460192,1.6052130585052076,0.1482298587108355,22.343303624918327,49.81635208331998,5.12104379085314,1.517508794212425,1.5105891594985703,0.05966069476024416,17.863138434452715,40.21348855433476,60.560916910279744
-40.69148915836095,0.8303845490869002,-0.818035759681519,0.1753878190240212,-0.017778930707234,-14.458656181226688,-40.63359206523319,-1.9822264553043851,-1.9496215040570632,-0.1532459536775832,2.3646628625588164,-18.07223919381545,3.072027493504788
-2.176736945121336,2.793895182470956,-0.4220667983023882,0.2133975360843993,20.97904557032924,63.85051791304563,-2.280083885973454,2.7929805809316575,-0.4204432455535816,0.21382893028496852,20.985190244628598,63.790021195448844,0.035613081209771566
70.16563476067223,-24.72253703774269,3.395269203788923,-1.7859831388690983,0.2781808128515149,21.497404938634453,70.48116396424336,-25.391868800760918,3.5046131230318576,-1.7503489713979974,0.28578332496948033,21.71521676049997,0.8346015144700344
-20.2752827013588,-51.01253154431088,-12.375685345360685,2.5830175236506543,5.925939135865742,-0.1984910114559681,-20.44217349493581,-51.19948427202405,-12.315019194415015,2.5389971982837523,5.957333374025069,-0.20969545465353434,0.1581079345033457
0.6368243909830007,-0.2850684605801945,-0.0186202103399666,14.51133495158482,40.03389156639223,-1.4061620307203118,0.6532014310747485,-0.285328712262924,-0.01632914006193875,14.492759011817242,39.71185191774779,-1.8608870891192453,0.2494446875005677
-17.291721818129865,-50.91822854555158,-17.163636944565898,0.5858845682398841,-4.50340013710767,0.1450392304796107,-17.337569250513557,-50.72464300100631,-17.36963446877361,0.6114526775346206,-4.514416512266574,0.17006882079514338,0.0731486661406505
-51.819147547198696,-2.3401311425998634,-3.487283426636597,-0.2126722178655434,0.0560259528851718,-24.2966025696539,-51.49301668264627,-1.1028593118376193,-3.809318015639633,-0.7292561615270188,-1.0474352517508123,-25.688741173114977,7.406911374844197
32.013847873415735,75.82092841004138,75.84579512272438,6.343485659842115,14.681352297215764,-0.5600614580689696,32.15536345066562,75.29052859837338,76.34594474316145,6.348763763757329,14.70229348179281,-0.5638733559653861,0.04399905636382738
-51.03702785721184,-16.838536413573856,0.5542578830441522,-4.442122235443314,0.1400216501070129,-17.709504780734882,-50.787224736347525,-16.73311813784187,0.5832844025860879,-4.443096012860067,0.13439519071574324,-17.520592723336833,0.205736100877982
-12.739780360756852,0.9355673936372764,-19.825893041731327,-52.54968500192843,51.85017965567537,1.1083333364745305,-12.718266200465166,0.8869729702667399,-20.041162418226108,-52.222569210444135,52.994905456461964,1.120830944660753,4.489786305918142
-4.434540496033846,-0.0382370187381102,-9.10296496751923,-27.611110559045883,-17.674229073049542,0.0089515572445117,-3.342391073829866,0.31944854453398364,-10.260837152517993,-29.082686672786593,-14.14354669354303,0.3235751046480857,66.58918925938356
53.52903965925478,-35.70249006596461,0.9546396082317536,-6.925566664341608,-0.0331276214882742,19.09488474100179,53.68270612383566,-35.66106515344791,0.9588646397274303,-6.934882609736338,-0.03336665662310323,19.10900213830189,0.07427607701170001
-0.4231538084765902,0.0835924389979618,-13.64897101507299,-44.27471385438909,3.7980947624946366,-0.1943142550554628,0.44226399302885966,1.3116726529131029,-15.684585222717715,-49.49539845468229,-3.2270521002412806,0.9711292819313257,24.078251931772524
-0.5592806860432676,31.00443874184328,76.14648970505027,74.98707212511675,5.508999354882703,14.69774063502067,-0.559043861350077,31.04315430160031,75.91439240867749,75.12901339310201,5.506799784496025,14.698604947069313,0.042045692512101426
-20.424720997712303,-58.507230114005225,-0.0633692929660896,-1.9443456408407351,0.7205142404764109,0.0002511447621328,-20.400865429539635,-58.568266979344116,-0.0018717978389304335,-1.9469992693825589,0.7213579583103638,0.001015691251723183,0.034453376819680956
-0.6595737954518124,-1.143900872026284,0.0340689617539122,-19.33087409278777,-46.58113998628896,-7.866036441920404,-0.6552637560135963,-1.145347456128917,0.03495276168083272,-19.34060446824151,-46.49415502356737,-7.947095540676173,0.03793162340765531
-0.0733490896041796,16.54281573197346,34.632588848364094,-10.46700635195608,-4.24613987259501,7.163135335330536,-0.07744494131286839,16.905744168832,31.824439348799956,-16.645772643712462,-4.254846520487462,7.1251779803084645,0.24698176526591153
10.724561227865353,-0.5579918033237119,17.112702594517554,55.97941479512204,39.65056699979532,1.339225908616069,10.73805892844858,-0.5594337581383755,17.125108410364774,56.03135143871407,39.68270786762514,1.344940791788268,0.05008213812631067
5.524404985443059,-3.48977053978238,-0.3936399526312698,-7.275849940986783,11.632968710932111,-5.344691337792819,5.524469369156748,-3.4886281480865122,-0.3940400106860569,-7.248169676782595,11.483293109826263,-5.524804181657601,0.03644890422920054
-58.57555464065522,0.0234531842323933,-1.9421253328132304,0.7267482322330002,-0.0089300363922511,-20.41106578044256,-58.45290948488375,0.042568103665416857,-1.9403824592800447,0.7028332762181435,0.003684504770717467,-20.44417130163447,0.03500748339093872
-5.46218765978165,-2.971482689323772,0.3900301689241444,0.0248627546896432,-27.896926160829,-71.72513561109581,-5.693118485652409,-3.0335453049755543,0.3503281055408536,0.015203078655943614,-27.768063362219685,-70.72242779670272,0.2780228530101111
4.270897819946455,14.525147649058209,1.872747877170833,-1.5996007739784497,-3.828270215248639,-0.2041310777337197,4.277022782942822,14.573094539518024,2.0678475286804314,-1.599565503103264,-3.833957603180174,-0.2046374004213689,0.039056400070546546
57.21572854023589,41.27261708955072,1.3476660931872464,10.899722268629835,-0.5536926939115764,17.57392531915802,57.18255969833524,41.25349886556842,1.344693920175203,10.903633926497093,-0.5538739522177201,17.5779192602037,0.038015684131050706
5.0536816242015,-3.131694313769244,-3.997268953246613,-0.4260067510061279,9.53907545024327,15.744601213423543,6.42610652169833,-3.157891899462328,-3.977733529954648,-0.42263679256229514,9.38644248170067,16.263959893415176,0.13907175009707073
-18.294782953346083,-45.6353160365096,2.1811812270143847,-2.230783918769072,0.618300015188725,-0.035207766259322,-18.335932378528014,-43.31291778695049,1.6132118044554318,-1.9223905372037962,0.2124690649011427,0.38712432223815085,0.8286512284381159
0.0942653495844534,-20.55469279098829,-60.172913843093326,-6.657261681404859,-1.7967973854848591,-1.0558799294280754,0.0897357281417035,-20.5591060749757,-60.17598266687709,-6.717873351401529,-1.8017030536959027,-1.0603208402374253,0.05183239139172412
-0.8295227892828146,-0.2027822120787836,-11.19238708634706,-30.32298212938631,13.610887713553073,-1.8304496484241943,-0.8621292847404973,-0.1812144469549004,-11.131249344257121,-30.540928568511305,13.023895621718282,-1.7992649854334957,0.49776519477070436
2.9642659984973645,-1.638069075619994,-4.023960355857967,-0.2240789621341214,4.20367894837154,14.376597103464444,2.743431817634246,-1.6327139064758995,-4.019942944596092,-0.22430664875164918,4.222397616453122,14.14478749771024,0.0440588172445585
69.43235713637952,59.641532707353264,2.34694440459816,13.19724700874546,-0.5340236726831309,24.07792156840202,69.44518649668441,59.654946284239486,2.351007694557431,13.196061146867166,-0.5337758857068291,24.05237637178287,0.0420122642793329
-3.1770625790651685,-0.3220844759562636,-8.183262665487693,9.638116221574355,-3.7161233138958414,5.850869419997773,-3.1764502416549547,-0.32197091896466556,-8.166092054641354,9.532737164618084,-3.813739011884536,5.849066741176074,0.03783266463410638
-3.7775395507842977,-5.514669441185747,-0.4616722165973551,9.230943388253996,15.73146249115355,5.754588234235789,-3.765238971797487,-5.515632433561223,-0.461607813023571,9.22126973076331,15.799138110388412,5.654448308327119,0.03724023950537668
3.112306484308084,0.3848774679479143,-19.03930007277025,-34.946014908599,-2.9812608212014484,8.440269989559901,3.1237738904818997,0.3872000527390309,-19.06146383622481,-34.533366120587345,-1.5781304814433952,8.452070566129256,0.04340278438207844
14.147077253073077,0.2041911600083435,27.54922332784433,73.84942560653832,-65.57743403246316,5.280540400588484,14.142744276248052,0.20426637765255506,27.53678730528852,73.87263243445705,-65.4908493681894,5.287281308634242,0.044551204538788455
90.66663230524696,-6.669346838221738,-0.0408954304673492,-2.0993166307836684,0.4115645238321968,31.08917093470825,90.5214681567229,-6.662735065597417,-0.03897212138657835,-2.096353963944072,0.42473522335782743,31.163871537555963,0.05160231360191557
0.7206526505367918,1.1922237213874329e-05,-20.399793684207165,-58.61794211287377,0.0734954607669342,-1.9436971703425463,0.7317637784876752,0.00533599579159727,-20.42583778289366,-58.642607271798624,0.03412124865917576,-1.8796471945906887,0.03588574040038549
22.37152417293522,62.96738074811562,0.4005555423160675,3.146320765260466,0.0219292141976411,0.2031487892842952,22.356054515309722,63.04363391606148,0.4111542509390347,3.146368886943698,0.02219514665792488,0.20240164457355547,0.036502956095728054
6.230629237215899,0.5462630537746788,21.49030139366836,61.81679052034914,-10.873660315310897,4.376392829330102,6.231173169042123,0.5459197220018659,21.479174809366555,61.86594831598654,-10.854929087035089,4.374524113752415,0.03700005451476028
-53.43409285175401,4.759518836015981,-2.003388531693359,1.4998232659197912,0.1286713582332121,-22.10320017278532,-52.97504827162123,4.689719731931191,-2.056957041165859,1.552026123250144,0.070098543716,-21.877850173749408,0.30737268040293186
-59.44463712001349,13.766477036736555,-3.5626704763767223,3.414094664222906,-0.1740164924877777,-21.30176501184141,-59.276853742498474,13.514151868187405,-3.5828220409188702,3.502637983297526,-0.20937616690427596,-20.898937881781016,2.1515349038712768
25.910241180523062,58.28782940229995,-0.9272083385418096,4.990910479837863,-0.5563184181215393,-0.1668385141953433,26.039137735522786,57.574820278983,-0.6897821699507745,5.018131556747889,-0.5425974920496159,-0.1848861006170326,0.41247318329528737
-0.0629319108557158,18.187923686645536,52.45034885517165,-33.97362209035243,0.754803716224223,-6.341610036891756,-0.06429052663573387,18.1583250635461,52.72900861041569,-34.01619330303072,0.7579688831703493,-6.339625424685522,0.06397234948066154
0.7213837384427491,-0.0004330198817425,-20.424728410744343,-58.50721260792931,-0.0633964784421899,-1.9443468368457053,0.7192233694706829,0.0010894476212115478,-20.383546861689908,-58.54763902063678,-0.015136346494273312,-1.9605480138643543,0.03479139358831827
14.134445252457896,-0.5423717242776807,27.42210053079304,73.44250474472072,67.89263991802979,3.4895741192952934,14.133978055717904,-0.5424499652399568,27.4208145811796,73.25958655653722,67.60946758932596,3.4933418664120097,0.04383029261186931
-2.136066613265331,1.9082586263974928,0.1072696440199383,-24.03152568471593,-62.59638161937647,7.654984789583485,-2.1427371454791455,1.9159115209021707,0.13006538612860652,-24.18699995968936,-63.03728374612615,7.68783045720798,0.10243093607540442
28.91922177752885,5.049924924619504,8.851558472304129,-0.9266621112235116,10.250063850769903,43.57703489253592,29.020931742279487,5.052027311040597,8.858338668586633,-0.9283992848062024,10.26843480688553,43.7131218006063,0.09215214848405805
-21.93471417577593,-52.88782833671843,0.0351622377922784,-2.807163846418125,0.080934739911726,-0.0005131972965103,-21.92727971912541,-52.776390690936296,0.00017893056167395116,-2.8121865324421833,0.08100654129066243,-0.003769962454725828,0.03503730919375113
16.798101413231812,55.172328822551705,38.69674973122539,1.332863472806106,10.546481866405594,-0.5622507281203185,16.806095738645524,55.223120081341904,38.71415380720396,1.337815720117689,10.54782102603938,-0.5625599715294953,0.041620400246256226
0.5388897964553927,0.2068977490260544,13.411913130668536,34.25919723983886,0.5793619685204815,0.2809931788437002,0.5441194648100294,0.20336202165692951,13.563025804500924,34.67156644010443,0.7249316897162501,0.3160480609957168,0.4780453116195643
-0.6312852030045201,-0.2396868912715799,27.337940040235864,57.18880166763432,-0.4550592296223974,5.742320457305689,-0.6218234368880445,-0.24009592993676399,27.36740021665438,57.287832005219165,-0.45467826306479797,5.749737746655158,0.06569020098619359
62.81194707285523,-1.1860358393447756,2.335213608710589,-0.2757216524599168,0.2110341877668675,19.48952205822017,62.738665541254136,-1.1989557923367329,2.3349025737311244,-0.2755117235691067,0.20905202867967887,19.522039666957795,0.0598367857884453
55.05054506583841,-0.0085645448509361,5.769215789851618,-0.5914820695831426,-0.2444242475851052,27.39534927864187,54.61530837366297,0.07398955334954849,5.74610805158186,-0.5827254615864335,-0.2480381217785279,27.38228785521062,0.13570232909729596
0.035162779071818,-2.8071517012174234,0.0809337499729954,-0.0005150695979042,-21.950895246098103,-52.67274571925359,0.007488674398587136,-2.813166536012858,0.07501516329779179,0.0024437907925403124,-21.92164397323495,-52.71225448004952,0.034914693656969406
-1.4296120850030023,-2.444546316616948,-0.095858787673787,5.419756112242893,20.267226607016525,0.3756404466696537,-1.41988173022483,-2.451933392625392,-0.09732377206653631,5.5221701702986365,20.11455020954577,0.6075586041109773,0.06089559963636458
-0.000517632275721,-21.934693354601173,-52.88785477626562,0.0351638836317431,-2.8071381996737474,0.0809325855403337,0.003082517494021886,-21.939388266627475,-52.792711518070064,-0.004761598101140407,-2.812432053329303,0.07633838830315653,0.03501891248766907
-0.2196710964281013,-7.589482387813609,-28.525785291892152,5.310748395259076,-4.986973909448127,-3.981084107823728,-0.2299492265716876,-7.677862126594761,-28.065557733296373,7.064103490870366,-4.990430846045285,-3.993565400976056,0.09024568025467926
-3.596434772168116,2.8983977652678328,7.68763350321886,-1.2548178144171491,0.1213087498630354,-13.657130284548296,-3.9397485074341603,2.636381641679094,7.691974774261917,-1.2460373593369525,0.12080499165604941,-13.699002496709454,0.05957125639146153
16.19236056947108,5.405725250681769,-3.5261389610506493,-4.605798194345567,-0.434425543222642,9.616377545184616,16.16102674970182,5.554570810402311,-3.5242076582815303,-4.6082227860489215,-0.4343543466597177,9.640256646649192,0.036393745880059045
33.369238984552,72.28280546354294,75.3452727484547,7.789530023443143,14.399126896843176,-0.5667853675933171,32.90799473480433,72.92913461352055,74.52992437932971,7.657154127834753,14.267107233259114,-0.5411608178610878,0.4881623526703832
6.110225622058891,0.5131630195639914,-0.1506600304862935,36.164817360421495,73.52497192209698,4.740221072492887,6.180913437175923,0.5377047949635098,-0.15400257457122354,36.4239285127349,74.84251874544117,4.879265691164926,0.9612320095624908
0.0243132295975077,-21.60268504417117,-49.9883949771562,0.0679178956151713,-2.719444568524782,0.4404274574394714,-0.06833297558864615,-20.85527705591869,-49.226715919757225,0.6850161430797925,-2.4621840108777633,0.6905786829033786,0.2946864016411267
30.48209831761388,-17.068885497991353,1.9953881875776045,-4.634368171172851,-0.4919514576400747,2.516497225851693,30.521117058589784,-16.58383038626681,2.1217929907699737,-4.486375762954722,-0.44581663079649303,2.872106026728673,5.3956145794742385
52.89856038180495,-5.287725160775747,2.707832705082261,-1.791596597030351,0.0411741408451502,22.049258743077424,50.2201081687774,-3.9655988273439,2.611321553911531,-1.747651360558003,0.06655232253174681,22.65120474934784,9.601936345064711
0.7213900619879865,-0.000465764250173,-20.399789893880342,-58.617847079497935,0.0735663472059567,-1.9437022102478465,0.7093320535007024,0.022317697188100283,-20.426919467809274,-58.59208041921454,0.003720165480444848,-1.9509485528039932,0.03495150341951768
0.2331825732545202,19.934150064181026,63.11587739404752,-1.996689455570855,2.41003604122604,-0.3759074630767596,0.23208780413964725,19.947796880299364,62.7489596697601,-2.157537619627192,2.4114354089320535,-0.37142274278959775,0.03923188851667857
12.272743913084486,2.733115182216462,-1.722808911523867,-4.769602483533715,-0.300669644065794,4.366792218817318,12.446940300815754,1.8872920371263149,-1.704296315699904,-4.759083927460223,-0.3000059441692684,4.484825284127588,0.10864110178461016
-0.5466420300065371,18.529295202029445,58.76417341070512,43.38028144764085,1.3829934196431926,11.197090261164773,-0.5463433894105081,18.529023274107217,58.74623307525644,43.34598327550066,1.3816984381804076,11.199335772558754,0.04148844754616886
-20.490130017950232,-49.71820838354227,-9.29688818814394,-0.6036999809153669,-1.8371317204786184,-0.0174451473053967,-20.48669150697306,-49.72252924190749,-9.321017517724082,-0.6057405104996538,-1.8366305467536308,-0.01751459016799556,0.037395294704606216
-5.212231342844491,-4.002854490394423,-0.1385905797333435,-7.147376077030799,-26.248738712738103,9.22498394681308,-5.231358035910333,-4.003164889864079,-0.13719444188868213,-7.255158023415731,-25.282948614688394,11.747510111654265,0.11230918417244294
-1.7395276954148844,2.981511340610868,-0.3449465817763735,0.2085101588118665,21.514938285683005,64.0660121895179,-1.7444674814868222,2.9815930349384647,-0.34480191881198863,0.20848923557670673,21.510366744021184,64.11364761761024,0.03541838937128415
1.9784218148069708,-0.1817127307252817,21.261039396320463,39.943794486135445,8.360778536412045,3.97750925193654,1.9358425725212123,-0.1723545741610425,21.336049382099613,39.97260303980576,8.413179380932364,3.981848101970244,0.140707991508077
-1.9443431560146096,0.7206639174043142,-1.4446761188537893e-05,-20.399785875864023,-58.617818913394224,0.0735750438006366,-1.9325306962031732,0.7334516309344963,-0.0011008980850419903,-20.421222587169154,-58.57434433273875,0.09015494371215027,0.03537918874060307
-0.0791188424297632,3.681020373582238,-9.14350188826918,-7.106756143534296,-3.176707782272547,1.3796024753650709,-0.012933213568074642,3.9712643814464252,-9.861560575865205,-8.37506120899215,-3.144253719522492,1.2753511744255395,2.721024153210305
2.945038327701237,-0.3326199673240619,0.0422761561633597,22.139324675137217,56.4868944283626,-0.5348152445528336,3.031813497758421,-0.3213143466924038,0.14734009379810686,23.08703721895396,57.48322251754689,-0.23710350111170442,1.4568612026021808
-0.6828377917233662,17.654150577251382,62.42192619603683,11.67887770232596,5.484602074615822,5.436760320251323,-0.6820541465545285,17.6020457406196,61.86351539835934,11.341452390847012,5.453916126608974,5.410302726790187,0.938082618986425
-40.830555772998736,-5.764975355728621,7.09470810159727,4.774230037788924,0.2533080167132811,-19.354519584365026,-40.77978439962135,-5.608546011783346,7.093614808384189,4.7716678050339,0.25331345745089706,-19.346062951192167,0.04029717314513147
-1.7933124043491862,0.8200714482486318,0.0903072931269545,-20.70927181750205,-56.334813013410425,4.916971157066129,-4.28419435933742,1.7891016395934543,-0.5928682902202969,-17.31812389658856,-52.75789509570859,4.39627819310283,23.309708787525334
1.4641135005340011,0.1960641783574663,17.06093030637906,55.720873184504086,-49.23023707478467,1.9351299004080285,1.410415246340861,0.18076546084074963,17.00476042603953,55.4903286282987,-48.87273263465329,1.9931538916163447,0.25367268838290313
-1.6253110800364017,-2.052384359651404,0.510838189803132,28.26906989979184,83.82149394085148,-8.702042827552185,-1.638553204595354,-2.0686947419695834,0.5094804762021106,28.37033472119299,83.0198238337307,-9.513063042355498,0.061638312132072146
-1.1652933241762928,0.1208500299715408,-19.870296283325644,-59.36854770309293,-7.368906700843015,-1.3280582350956922,-1.1661949981478088,0.12303201309761391,-19.930710711774793,-59.10915937981264,-7.450452215089143,-1.36023455612467,0.18488899124617986
7.750860787772772,3.753053675423998,1.6084275842317968,-0.1170109375989645,20.92472589179873,40.568020039903416,7.914230758779581,3.616599616722226,1.6120314544277932,-0.07066045843872615,20.690705378397865,41.55623860783953,3.2460615388566905
-0.0037286626219726,-21.780875005964816,-50.4061050592819,0.1599905279841273,-2.7205721722288296,0.3325020610990027,-0.06847225667024759,-21.397899420174326,-49.407010625086514,0.0981386758339795,-2.5646968719538563,0.5696819660970505,0.1279601318954745
63.9245255105301,-1.6881269512612762,3.0144659448194515,-0.3177600162510261,0.2084292848764947,21.63242210248092,63.933354239890605,-1.6429744530238395,3.015845732649158,-0.3178696115184323,0.20852026688445235,21.62415873887508,0.039154364476200784
12.95843135387272,-6.307852409559362,-4.85276270699608,5.434156929389978,-0.1689483700605777,10.828005781327892,11.992370773115155,-8.841029040962965,-4.8249954818546925,5.45105117021177,-0.17453766161582063,10.434246168884325,0.6260701217755807
25.305023465464373,3.1387755035035423,8.253394031753842,-0.7484515668749302,10.424516650911112,41.93742368714352,25.30636520393398,3.137170951658238,8.25049437853021,-0.748017739921143,10.40822580945619,41.96181044084574,0.043788877714075455
0.0382948201535027,-4.46373533154418,0.5316959245586091,-0.1606268066681494,-24.11036172717036,-49.9509456259694,0.030055363668907376,-4.459633363504798,0.5081659273659644,-0.19351894759277144,-24.06925160964881,-49.70684970969919,0.23637411433322753
-0.613075771454988,-3.5662127132445085,21.46421355926504,-12.654402449012844,3.302412852631816,-4.93663478573017,-0.6148136039266094,-3.6622601579616827,21.48777506694256,-12.218745566180132,3.3015942631570594,-4.950033626925816,0.07683119481044952
0.707081878071709,-2.058097130120061,0.3878299414838349,32.43290510921008,89.10806677692355,-9.218610530573503,0.6945876599601064,-2.071045928395204,0.388341644034794,32.21099891685367,89.67672182956085,-8.166388703308257,0.07854629373407516
0.0334545530321936,23.08714626568516,73.10692791127188,-28.44029682313448,4.446360135498058,0.11398410516494,0.056307289495991064,23.120729508515552,72.4843557805117,-27.863958082613784,4.4907718981004265,0.050049840004717794,0.16823590838863522
-1.019604017163184,9.906542867983475,-0.3778249837122937,-15.715338231542034,-50.79127390815975,52.02576939350519,-1.0127352513308772,9.891316338438116,-0.3768974160711185,-15.722831941781173,-50.96584017857276,52.09894677716424,0.04608422081879536
-1.7336357886935736,-2.5680430376748404,-0.4443484423696522,8.10503967891368,11.312737661651765,4.194605633475304,-1.749511910219951,-2.578100025455626,-0.4442783363961267,8.037146132120142,11.752086558462906,5.578300755596501,0.04627452497863925
-58.75175001059794,14.597638159156348,-3.7429335051613495,3.565139854825935,-0.1909164413800267,-21.340550874692948,-58.833224318148325,14.551231274585177,-3.7518344978556124,3.5896316800554358,-0.19702840715001457,-21.29001914624382,0.3197202100753428
1.942117230049646,4.701307484352652,0.1569321129834981,-0.0480809582967842,27.57975351324553,56.63690795173538,1.2977818248925956,5.319262053958588,0.09310699468742811,-0.015451299249534145,26.66110117285194,53.086000735702015,9.038119482394631
-17.25369754063514,4.604682537457596,5.993428807922189,0.485233254555711,18.04167147615232,48.7590005966057,-17.468920988723767,4.604453569925511,5.993187223496239,0.4857504072850656,18.05199886351781,48.703520248526274,0.03641318325857111
-2.807455267210753,0.0759570844273002,4.707534237983002e-05,-21.94152468531914,-52.76975817011768,-0.0040981626721681,-2.8024181732721445,0.06821855176235658,-0.0069291403163997956,-21.917985822675632,-52.73750273670839,-0.001935161739538671,0.035308056195060375
-51.667013595353325,54.48853050307617,1.060268442121604,-12.051832389601374,0.7945446696947088,-19.08059951205768,-53.76220353963592,54.01606082789283,1.0545443752306092,-12.069402289947142,0.8468806451561579,-18.681419906950197,3.216267038498881
57.72559025658877,2.1658688261459167,12.981449583857833,-0.5335952813715109,23.36100609902596,67.73675190715541,57.70238749393957,2.167005530677775,12.978613047970917,-0.5333347359377572,23.385425367575692,67.52408525698524,0.04370988287275833
0.7046582555040621,-0.9628439060885088,0.1516600595770159,17.82905529838058,44.12030044332475,-5.234854811760486,0.8980546583368305,-0.9197225679113563,0.0863025248560616,17.00047034154904,42.64915820699575,-4.4113506922782975,6.529397592404291
-24.107238806151777,-50.93253982786306,0.1560190827085993,-4.586386349596274,0.5941560898920955,-0.1513190092743083,-24.019399638202806,-50.80158089931206,0.17811896282427142,-4.568798179785681,0.5895737706141555,-0.14921318053388788,0.17536629021050187
0.2193270723078323,20.639325124087502,63.43368909617133,-2.368048670926885,2.657069298647102,-0.4320465879151294,0.21981750162380376,20.637916292204437,63.472700738630465,-2.4294405902300014,2.6556706835162522,-0.4318219572096069,0.035731069449138717
18.03627151105445,41.96780942447237,-18.28148339839204,1.3565927238876974,6.285880354842922,0.2730086732577459,17.792803409149542,43.533290094282165,-16.0348492254368,1.356478550626008,6.302918214391884,0.27182765780586404,0.04831540822636936
-4.559736096789373,3.415957475891376,5.448304963068932,0.5163920841136644,23.753688969705536,70.51856580552096,-5.122889283075892,3.4197434421593584,5.457043710354422,0.517064484660462,23.883399706438183,69.78152199463193,0.041765792043019986
0.0367741598722339,21.55601702272968,50.34901844555208,0.5290631127473671,2.7647731005977065,0.2451917044991174,0.07982314863743412,21.568200289051646,49.430565896820326,0.11371527602676679,2.769878711514796,0.2200637976766373,0.5704964510440617
0.0928213098415489,13.729256775823863,34.569833332688084,1.228502777275975,0.3937255071696013,0.6370137399369511,0.10851164678996605,13.545997374909085,35.70141734601424,1.2566633212529084,0.3327108157682108,0.6459025560332687,4.475897265085064
18.67432958240159,41.68657460767884,-15.465783658830114,-1.3879840902113536,6.988577236680057,0.118322845817225,18.767238715023097,41.065872873420346,-16.89918766268761,-1.3888009723311079,6.972943512604601,0.11905845168569762,0.07111054559477435
12.39645987226096,39.84241925885216,-2.285513626487268,-0.4490453772344697,0.4596281935186019,-0.0329750476255258,9.694296048470068,35.495036825408135,2.727565866873917,-1.445230582431769,0.11418661672897046,-0.14981006898170035,58.13078587906223
-0.0659353431313336,1.3586420931131586,-14.005465716928471,-4.464152281223393,-3.628380244675992,-0.1025956427749405,-0.35374483284110436,0.19405982748934747,-11.781077790885014,0.2705315258927712,-3.75664529172197,0.24791361448077254,35.48162923006409
-0.0839737510101016,17.206373410269627,52.10727868698231,-35.72450081814769,0.4988970772680677,-5.774518951685574,-0.08376437032514161,17.21277876251048,52.3734493617244,-35.730732584059126,0.49330166709793843,-5.772173688103223,0.04574293520142857
-0.6138553638794585,13.495060371231007,48.277483789072086,30.78247288905766,1.6993185845585983,9.277160863197151,-0.6132220175335057,13.470005924354645,48.18949443693509,30.669570625440883,1.699569887877999,9.271766033560468,0.03686482538166712
0.3117615251133458,21.894015915828827,59.523438137899085,-0.5855225925644691,2.845380189365209,-0.067210404150208,0.6122283574271616,19.266008710653892,49.92166497640801,-2.1697790086390683,2.8157475547278956,-0.2635140598762682,21.446556974176257
-0.3568172122897727,0.2416536928282559,19.83831622989329,63.03620311422608,-1.912769434325072,2.372078893429299,-0.3524604050141278,0.24271662459531695,19.850509793278135,62.8177830838448,-2.05246857578652,2.3734291645652963,0.058072222222460654
11.548627332418604,4.254882960468166,-1.8122888619920576,-2.65624319143946,-0.4433019889943878,8.255841493252577,11.29978985514731,4.874085633588038,-1.8290289691152406,-2.657075797899868,-0.441884868659967,8.205695654274848,0.044807975173068657
42.370911402574805,25.89748376498084,4.275890976598722,8.333486660616195,-0.8550592997949997,10.085616823947095,42.4194334327525,25.93870789391167,4.279087592341359,8.336545844366658,-0.856692820188907,10.09172969250428,0.047958127498941225
4.27169581814297e-05,-21.94150198036358,-52.76978349368304,-0.0040998430359149,-2.8074274964237502,0.0759546859983109,-0.007559843317949344,-21.953355765986316,-52.73934768048093,0.012209069984692178,-2.7962807237524885,0.0785208579288792,0.03545569143706172
1.3207890852016433,1.7426123826654498,0.0748561451730531,-15.790376893085485,-44.23841379127269,-5.700522666898548,1.3264053663969477,1.669763398688266,0.08061076915498433,-15.828582313229525,-43.14272113641593,-6.362619793552625,2.5732221682741394
-0.4725937558816036,0.1283992331893088,20.13452407018198,42.63379520677217,-1.499735639318665,1.9272514931648803,-0.49938753849761497,0.11728320286353,18.312332308119323,42.01844157977138,-0.5887065191221623,1.6505339568235868,4.976287939435918
0.1302733779697551,-22.60699602799722,-61.171491166605215,-6.661362336444629,-2.495687760997901,-1.5679852634048423,-0.14007553444247378,-22.77413059252035,-60.77026957827297,-6.268440907821173,-2.53378122725735,-1.775533515003417,1.9586160945414801
3.993998685023305,7.019587027231215,-0.1413757096487289,-20.285390029341723,-50.26286248802098,-12.615146959746976,3.9806258230463243,7.0218441714681035,-0.14296637276265756,-20.29195174698677,-50.138762140791926,-12.39372091127052,0.04801512695406683
0.2402302485248814,0.0375760685652553,23.35413805617828,73.65526604662915,-29.15070122676804,4.528996871897816,0.21977975935578087,0.0493152089950335,23.359846720718593,72.32191188058869,-30.0333987771819,4.566768461081992,0.1591405590315388
-56.50869946582031,63.31353661923587,1.842081496653536,-12.544908428032391,0.8010337299719233,-19.6214573246346,-55.398145569864596,62.61563335134787,1.9782045452556467,-12.399635978268755,0.8027511985357743,-18.990517873654625,1.4957083016403314
0.0735416288679145,-1.9436990636599027,0.7213866968231373,-0.0004560097281412,-20.399789525095645,-58.617876149682495,0.023958836791393878,-1.9326260051379904,0.7057926046063585,0.005372872273142093,-20.414001618840302,-58.55110772932676,0.035161337703709536
-3.52106806786236,-0.1785143754174656,4.476050883184367,15.676391747272003,2.1552771796801675,-1.589697005911369,-3.5060710031238216,-0.1775948595029675,4.524312860153714,15.703710971321584,1.1863300163699932,-1.5753181113458936,0.08446611815902526
0.0809350546984788,-0.0005126511597162,-21.950908241274764,-52.67273238223637,-0.0270801749364958,-2.807330347989596,0.07177929897261492,0.0026243181931704385,-21.90931540311624,-52.73972516005563,-0.02842121473554471,-2.8108685954474595,0.035241847230974885
8.918811467308378,-0.6420269178471343,12.429011800580843,45.9638583019432,28.450524345440368,1.9900173557029723,8.918639318032973,-0.6424972672085625,12.434867679686214,45.947403947088134,28.459799894247453,1.990739846616303,0.046601418020043014
-11.891945172820847,-0.1756467871544627,-2.934015993169698,-0.0406212417859853,-20.76701169050485,-53.6615836486435,-11.986808771242522,-0.17136646874830352,-2.9336873401855357,-0.03862313326513167,-20.836152352513977,-53.14089011662509,0.06638332026944892
0.0351625740921404,-2.807155395654341,0.0809340562241893,-0.0005144645409674,-21.93470736022036,-52.88783669615227,0.010501502467036516,-2.8149017484317653,0.07844266384441312,0.0015699457928519678,-21.957032089427685,-52.80669862821105,0.03494516891880704
-48.46306056927393,-11.050370836909217,4.383897703861145,6.579628814377319,-0.0557560226155805,-20.059456122682683,-48.46954218349288,-11.043017278729508,4.387635942302467,6.595557556829746,-0.05913807667740478,-20.10546660460561,0.05567491077216556
-0.0004410154555314,-20.399792250933423,-58.61792583112071,0.0735178444612364,-1.943696608592188,0.7213854299495758,0.006828245861015603,-20.383690267729207,-58.60514199520321,-0.014364311036956678,-1.943860420517467,0.7342128831783157,0.034951635195466055
-0.4601535620352228,9.264384955041931,15.78585525887907,5.748655317579421,-3.7775395507842977,-5.514669441185747,-0.4605393186452351,9.257638790819612,15.850333709711094,5.816866197632407,-3.76391483340025,-5.515517742104322,0.03638579020276876
-1.1479931597383348,2.338149890169248,-0.2703906816375345,0.209344730425611,19.533508772407256,61.455889968085096,-1.3053674075827786,2.338255362137372,-0.2659378902069127,0.21107417894278857,19.5022140631998,62.198579963075076,0.05188121813575873
0.080932217783612,-0.0005184685401906,-21.934690295697283,-52.887858937908334,0.0351643224938098,-2.8071343049854223,0.07219019531180493,0.0060458993342535905,-21.93038201830916,-52.75852760637463,-0.015754898208115264,-2.805245104877258,0.035349213291294576
41.90989334249786,25.368795941796616,3.958851946935531,8.252195958878726,-0.8244827012653763,10.0615026440508,41.94854605108958,25.464487579371422,3.9609052605967996,8.254637028452173,-0.8245077892016051,10.060294191655949,0.043107068445703875
12.876928565605414,0.4471647672481544,25.88447863724716,70.07948241971721,-64.01989225869245,5.350945973576072,12.893149215816337,0.4466763042676156,25.966503738399965,69.90161771182693,-64.45982396828776,5.35045425911683,0.03999100911125862
2.892489239597107,-0.1298341985305811,0.1208400035481527,22.272099593536588,50.25845628308523,-0.524541998681724,2.9099357408700133,-0.07949922912463303,-0.05340457220637562,23.340000542027408,57.45701870466243,-1.0281542569821482,25.25921346704065
-0.1839534698156678,0.2184133888520046,19.077340623389546,62.28694780930592,-0.6485586542334487,2.2500762141948574,-0.191094576736619,0.21032469087039793,19.047477875203597,61.12202321748066,-1.184724962391556,2.2339358537339273,0.7268987583894498
0.3325020610990027,-0.0113470417844805,-18.513206157116084,-41.0833119647036,-0.8077347980201363,-2.474552364474622,1.1376997644510993,-0.46966550004685814,-21.083080274508575,-49.57900920479483,-0.7313100673186455,-3.729735378634359,3.2043904817910627
4.86578283637813,8.66424932404012,-0.3604364116615006,27.417100006748164,80.36811062887601,-51.63749379926429,4.8602313591330315,8.659283442315413,-0.36089227151394354,27.403669782555795,80.18039237188077,-51.65500922668889,0.05284389191161819
17.04465032611557,52.38976550947484,-36.016422982176,0.4633329352484174,-5.643460585753706,-0.0848438522235037,17.07210855533844,52.09026040249478,-36.087500266798656,0.4679254196284788,-5.642819606037428,-0.08492224049832287,0.038505999145468026
-0.5419530443545141,9.076589648817484,1.6569653712457328,0.4435057921986214,-18.79372306352276,-28.466508578208483,-1.3875337690351444,9.071298002307344,1.6519854948139852,0.44320313859960336,-18.796652022494804,-28.52823183771875,0.07411761543285121
0.0089515572445117,-4.370662127806188,-0.020381243215547,-10.23282110654366,-30.67643617861544,-15.329489671886003,0.08353349702363388,-4.330167243566198,-0.08975960519240249,-10.3154444238426,-30.867373173610105,-15.063656872889105,0.2342198550311535
0.720654657344515,1.793453322704178e-06,-20.39979107590685,-58.617909715228805,0.0735184646151183,-1.9436973966620468,0.7303105460837287,0.005098283028473816,-20.432651989627132,-58.63970040541608,0.03712905572001546,-1.8802393187629605,0.035868444692834886
-21.64657792807831,-60.407832566848136,0.1116919016955388,-2.456054603089492,0.6263130484181318,0.0090891984199157,-20.68812373897117,-59.69511168217696,-0.28034156737044214,-2.218314813281836,0.4863046334298815,-0.19756230648681594,0.228595466810941
4.854222930508579,11.311956729011635,3.4771847082280125,-1.9187549622069755,-5.506676895707416,-0.3830867471303651,4.868740413729142,11.258892713668956,3.643508972472773,-1.9214401182068457,-5.507717545887161,-0.38299259642485595,0.037333420351342114
2.3149845119901618,-0.3189016261765035,0.2432841329776064,19.633022632813475,62.206686494651805,-2.0599435743242003,2.314411561461595,-0.3284969612082147,0.24309703401152172,19.659898097230503,61.89848289621898,-2.2439446905511886,0.052310159494549965
0.0303945655858142,0.1822917001738958,22.27086071678445,61.23809335704685,0.4000685193488024,3.0459678197241264,0.03021648896221585,0.18401085238248882,22.282872107478482,61.20672013833337,0.40878734377639603,3.047355769758969,0.03734579551702365
4.783602539358954,10.281912665590902,-0.3761407197637128,27.88584757165441,80.3060362092471,-56.05581255235217,4.808290514699593,10.281448834904381,-0.37364975425527946,27.92221772524067,80.50002208334536,-55.95705424211792,0.059520949306670276
0.9826733869393954,0.0382975472865292,0.0098712522749879,11.992955389683166,38.68907143079844,-0.5878359590066821,1.6534611077392896,-0.030447447021813012,-0.006690722810142269,11.870612896586834,38.994237448233775,-0.04150520200944641,3.456913163551189
41.72975783257329,9.60311099694412,3.727076270280759,2.12576072793373,-0.1424047583604117,20.32382538984888,41.395975571794324,9.657417833428568,3.916550491193843,2.136653356211482,-0.18288523559246006,21.15227300667369,1.1968090265203952
23.33385666661625,50.79422033678566,-0.2999556999295683,4.027207652052921,-0.3269810437526349,0.0644988761333158,24.21123475361338,54.35041658432084,-0.41085757537631906,4.200496677277975,-0.3771364869985936,-0.056026889409075964,12.692236273423372
0.0777445512341462,18.696075064764585,40.03279220526699,-16.026377963926077,-2.1280614070417285,7.117908047989298,0.07502964608675633,18.732692153888422,40.4115408736468,-14.476763009396564,-2.120033500480716,7.161230432455113,0.1810545002542311
16.221055600867768,5.526481654195212,-3.639974558723545,-4.850748453383213,-0.44011044905863,9.576606115408476,16.21811538433758,5.595720407301769,-3.634470046488417,-4.8527251965829254,-0.4401922060578829,9.597264581336816,0.036487268197742936
-54.745352250764725,-5.046006560451282,-0.6939862246489474,-0.9330123832704824,0.167823460778543,-18.14626401410098,-54.680780824703874,-5.006297698430281,-0.67894046051277,-0.9029279212247658,0.25986229916614434,-18.111660811944034,0.25930573230853027
-0.8403278680347847,11.684203105327487,47.97210639530881,28.2550494278676,4.663028291392677,8.336168176370133,-0.8777814901970304,11.865693796711613,48.12746197964907,27.31964568668377,4.709262510326678,8.42667479566737,8.277268482322722
-21.95088920499682,-52.67275233507987,-0.02708351989961,-2.807306527230759,0.0742068985138576,0.0003614683945569,-21.940086663857528,-52.769118519909625,-0.0028555878282077174,-2.8081343548582254,0.07717629248054436,-0.0007007078170317982,0.03438745507606865
15.513293349724895,52.54880544731704,35.495970952565735,1.400405228087922,10.051471226483455,-0.5787602452517496,15.512967406792683,52.6092228749535,35.56394949204537,1.4018984034751831,10.05227611419188,-0.579127664999942,0.038960157146004634
2.8215070713536745,-0.0368688163042355,0.0210866061278112,16.756375659955015,57.58671329887871,-1.4044516453509317,2.802016903949897,-0.32370268692065096,0.03731988551616805,16.224699338779814,58.074063576089756,0.1211275342199194,10.506892735190103
-0.1618218460616258,13.621508067981068,22.818823394535965,-10.998626822508657,-4.93412434492443,6.435965712705588,-0.16285080481968528,13.67855356255258,22.822759808665182,-10.917516194492919,-4.937969362823548,6.446271120684894,0.06249286771356975
8.085519870377723,-0.5643223505313842,0.2420449292222868,-15.404012734112433,-9.782659922769708,2.881841437469681,7.980087590669427,-0.5822727602559326,0.2265148155745873,-15.196246801964321,-10.719894068769463,1.4582552561332704,0.2746848428544807
28.39870861647192,79.25726902729772,-60.25170855923065,4.779828845723202,12.173603462951968,-0.3215730020324914,28.425641646664076,79.27432545481861,-60.33963001405607,4.792676421018271,12.180548497891962,-0.3217757617259993,0.051013708985078496
-12.925756260781622,0.0388461075888821,-3.3840781044233434,-0.0247954651712868,-20.605714192982926,-52.822430637653,-13.018677077307586,0.046101191954895704,-3.382736902142007,-0.018846087239143827,-20.49101888452003,-53.84245728838778,0.11280241684211188
8.956785702918042,-0.6391343823325939,12.52503165405432,46.16512534448246,28.64535441990674,1.9583130874448769,8.953249405947695,-0.638854877884774,12.532622177558785,46.12541738457594,28.63572931678368,1.9610295954654546,0.041232485456032295
2.984813946100308,-0.0653404308822065,5.566817123159711,1.1850534365349064,0.4569360541756078,-3.14317371966038,2.990688113273575,-0.09033989581813384,5.729411403585209,0.5432531025864229,-1.2634072010960153,-3.1376368977138256,3.234378558027356
-21.6937315659314,-57.24183323297278,14.058343555925171,-4.029469161079003,3.371591928769486,-0.2194566219353552,-22.177426186086617,-59.751552166276696,14.800196974658661,-3.9423400723945417,3.560418646092386,-0.19685307167089405,3.59014683425205
0.0233027301399016,21.82597670716627,51.264812303301845,0.0278569086702835,2.839983394737103,0.0279636430055712,0.017659659336274558,21.77226236768218,51.025676338814264,-0.5242744994851023,2.8231793709323085,0.04608890747877581,0.09982720305403046
-41.96830407377759,-6.4573052201274,6.760293710043151,5.0959523488087495,0.2167959944613773,-19.432472884252547,-41.93876990390868,-6.334463886308072,6.7591268470601165,5.091043314519126,0.2167521211771497,-19.425899016506776,0.04032169571378273
65.42272881086139,-0.4321946610970881,4.670631494792283,3.3066071437236384,-0.4303229992804203,19.60012290586953,63.885871891137654,-0.47078462935960275,4.5724511996881265,3.0284753388251993,-0.3695774156124373,19.26377183038737,17.117040746786994
73.40787000304945,-28.84377605769725,4.493758233263958,0.2402302485248814,0.0375760685652553,23.35413805617828,73.55509357684116,-28.927821314465973,4.493010602227017,0.2505481404319738,0.03687762733561595,23.39668636264787,0.0706841900284415
-18.79475005856415,-44.59987609009712,-8.080520588036336,-0.6131257491053155,-0.8609439596530502,0.061255148284915,-18.78046191696745,-45.12107725165012,-7.619885733757938,-0.611738610222842,-0.86366820162614,0.06050230887022211,0.048857677789567164
3.1889503081993364,-1.5678080283266236,0.2112589327350084,21.41712574779289,69.99761811225417,-25.651656709564765,3.6079703576074564,-1.2806146133341514,0.05850312349710163,18.466842641397847,67.07068373244329,-29.385317216474505,25.945517519298743
0.4620718574645041,2.856019229197892,-0.0018153168733865,0.0086530250335489,15.699680555244989,53.87515360574677,0.16583874130620302,2.625733582074993,0.06539642609388174,0.19498352863953983,16.717853549260433,55.54913117219252,5.63097949496422
-0.5395936633596496,1.2276564001228294,-4.767884081942049,6.305314628651985,-0.6262587405143697,-1.678334038332831,-0.5398243331456136,1.1520546649011862,-4.06415841880812,8.558639669531658,-0.6274111147781838,-1.6856244431832579,0.15234869984903965
-41.67505711394409,0.5787738667041806,-3.1060608962737284,-0.0356635648293325,16.084240240071427,52.60689836116246,-41.75686780040701,0.5876254851428797,-3.0848718062624982,-0.0342347593229646,16.048549357902573,51.9134946376912,0.07108297080010272
-61.69221542427924,0.9567766140675088,-1.374607957097473,0.4338443732545687,0.0956754077100744,-23.59192829025996,-61.59252094600515,-0.509939544395003,-1.453850214356521,-1.5451716198658687,-0.21650268126904848,-24.660395279319573,9.061047425626281
1.947004380882873,-4.939599291026195,0.0276169474044498,21.22502606479711,54.12029795658529,-22.16820344589616,1.9630482999316934,-4.909643630792788,0.02258963899114437,21.255378080675722,54.50548280709398,-22.060737716844436,0.18618123164055744
-0.2840085848976501,0.0872068055647801,-16.783692975571377,-52.794274452013575,1.9098739648774183,0.3377139229668791,0.8394119198603107,0.5999496290117747,-12.97823485008172,-46.36303896888239,3.4198537371721045,1.5107282162298645,45.41733565910859
-1.288057937027444,0.224621877918822,-18.3282870967218,-55.30171051035093,-5.593570036499326,-0.6969657819719528,-1.2986560495594688,0.16097543855864416,-18.145369122869795,-55.937107517670455,-5.404983237081154,-0.6812595635126435,0.5891879349147301
2.36959251221944,-0.2328545239506444,0.0651354026519102,21.344488932669023,43.98020266202356,-0.0415581286205405,2.4405150204237245,-0.12986200784458646,0.054002143880529374,21.874009766677062,44.64231462911857,-0.1652950136932958,0.30494623275843635
76.43783194053056,5.95057816895065,14.705121346769436,-0.5622427450577753,31.566876708698288,75.70167509096416,76.42610086821378,5.950974018647877,14.70440625272002,-0.5623808274657713,31.52504005063804,75.9367702453776,0.04797884568700948
-9.882727671109194,-1.0633010532997882,-2.260999523571511,0.2528051103099491,-17.930232790074438,-49.03365609673244,-9.553023896662857,-0.9906619082961188,-2.34091153188825,-0.04183170989026408,-17.98967418569879,-49.65835465368451,1.0162164129374216
-0.40478161462755,3.023042148874875,-0.1034278007879179,0.1867001493345375,22.152118017174928,59.65280404719824,-0.4095898900686734,3.0268275430955853,-0.10386427607102178,0.188019814758988,22.180272845658237,60.08191036962535,0.0794084619133285
0.3729332380436627,-3.5734352040687583,3.254992135136148,-0.0826577591859393,6.054453062944851,2.801484244501469,2.031917888848625,-3.7196831554369645,3.371826717302655,-0.11760501227757447,6.464390580756913,2.2780556261045604,3.380429028252092
1.372938234408277,10.214722353868227,-0.5732211846446735,15.782743682776834,52.99312687896055,36.058378236203644,1.3756207141050432,10.221305870187418,-0.5742349280408945,15.794561364085524,53.08990034774388,36.12543351013073,0.04043698783017345
-0.4273854427443776,9.580579266275905,15.930996971460578,5.180981724216326,-3.2796095338958136,-4.201499027210304,-0.4269474179583882,9.594855016679162,15.949196655972855,5.170560606991785,-3.2807803642925393,-4.203306138551035,0.03668291403790801
-50.4061050592819,0.1599905279841273,-2.7205721722288296,0.3325020610990027,-0.0113470417844805,-18.513206157116084,-49.16934883742897,-1.8405822010231532,-3.138147101643767,-0.2466003368483598,0.27525558080265,-20.55298702563232,0.7790848626133423
9.360542575453348,0.3445704279230088,0.4652729016956126,-18.481311265063084,-23.868263211052465,-0.0652827191931832,9.370574554068394,0.3434463280350002,0.4631914046833572,-18.496270697887283,-23.13849610400132,4.790995290576802,0.06638047165968129
9.719329108874772,3.77726264507329,-1.4773419746333765,-2.3804825036629405,-0.4555246796803175,7.4339479143036975,9.434654892863477,4.4368108139565265,-1.487214796596482,-2.3835220948683933,-0.4535335777962439,7.5586666094203565,0.05748895370790007
-8.46948497614103,-0.4971103860659884,0.5975662413347351,12.018911479445125,49.68200945472377,-11.202945206256382,-8.469758549515632,-0.49737901070394486,0.5984968664700574,12.018082067907585,49.75014439658116,-11.07024159177854,0.04028450012164041
-1.7631598523896632,-0.0129524275657293,-20.362775846454632,-49.277188058585786,-9.084251135343171,-0.6250945498548441,-1.7623474497706724,-0.013137476595707298,-20.36746458862113,-49.183321382006795,-9.168855774286612,-0.6274589084724198,0.036521772853416054
33.89475057912095,88.93744320884964,-5.326244463084186,4.468212558895304,-1.0837009215492357,0.0165847948816829,33.72372944525122,89.43457146780383,-4.971915377722894,4.455110809549918,-1.0978199912818885,0.018971772628228134,0.2873620438796932
-0.2916720637996855,3.163421910808961,-0.1017009167611302,0.2076303854240537,22.188309353905915,64.00942586766078,-0.2617291892125877,3.1643567442349703,-0.10007825071413379,0.20700934267450144,22.206779651067336,63.80869506292311,0.03715474036728193
0.4137480482787898,3.0487453567821343,0.0341382573950408,0.1850569914607429,22.27989711386602,61.33031612926208,0.41162023107472123,3.0497211517447766,0.03422454209670889,0.18485250534156883,22.29116604815448,61.266605367460215,0.037441635124434755
3.1385812451824817,-0.1730272171226447,0.2075795467895488,22.0702644959816,63.7461288741079,-0.7325640117696884,3.1398790042416076,-0.1729292819435102,0.20747255814719168,22.06288443820347,63.87150139547521,-0.7409350179091234,0.03858466924920077
64.06941749288025,-1.7395276954148844,2.981511340610868,-0.3449465817763735,0.2085101588118665,21.514938285683005,64.10113004081416,-1.7413120641631394,2.9815675928114196,-0.34492123869614133,0.20825013475298348,21.508639599939215,0.03570414168224244
-7.500423787491493,-0.514921577397066,-0.5544791107354563,0.0927160283363592,-17.871396761651706,-42.834439454351326,-7.493628585350962,-0.514754489841323,-0.555698353621537,0.09261793794830053,-17.850592006677402,-43.39677447287613,0.041681457295749
-0.5363732999071025,20.8040168012633,63.47136410492628,49.91835200929543,1.6165109054141946,12.052168252991628,-0.5354764727532428,20.81321197245648,63.41522297077563,49.88585614053636,1.6205967454857984,12.050503119683071,0.04890684956462775
6.693381439221364e-05,-21.942466200406347,-52.76057161884651,-0.0047832258990317,-2.8073861673029445,0.075874135270283,0.0013700450581382029,-21.939220735417848,-52.76917803228389,-0.00675703226670521,-2.808468817629546,0.07581367603779654,0.03426069813685882
-0.1617169057697086,-21.940175862700126,-62.10072266738706,25.970701082542195,-3.0164646755855418,6.375986563617196,-0.10519700775949209,-22.863700555426888,-61.340160823138135,26.582313872563304,-3.2120552660694557,6.316122070189067,2.917426444647685
-3.261595399948192,-0.1518570239406505,4.554848382931554,16.733890013901647,0.9270455440698928,-1.519552169580205,-3.2682838910485117,-0.15341132774385358,4.608255675155476,16.790523074488988,1.0308774528191407,-1.5208780541870226,0.04214220983847082
-4.235612152280636,-0.2093362024897578,-8.108987199801653,-26.88857912709064,10.054372265727832,-5.2028113133980645,-4.21589497390233,-0.20821216112351504,-8.030004097108616,-27.278774695046664,9.293226485317973,-5.213017181900142,0.1653760950076274
-0.8305490244198929,0.2491465688344914,0.1013469792998927,-22.03948495289493,-64.03789129077266,4.234251910865141,-1.014864112643238,-0.043995558228346,-0.18994453560547697,-22.754247718848887,-64.86844323415818,5.711501504149851,1.9847972717988793
3.888717750183911,2.485434306578353,-0.3301881624079308,15.321301367508063,57.37324535790621,8.742149927953792,3.4144285915310184,2.258783617476152,-0.3542320738189435,13.850531149198542,53.85846221094227,9.261532713798552,7.2275268475139685
32.09598558605001,-13.686891971420469,3.357387043181732,-3.242200755775982,-0.2351959516250937,13.800341897653274,28.802116040863172,-13.084196569789155,3.084310024255033,-3.0590615694190135,-0.29643868193173606,12.228707241277238,34.47423752256584
4.641250591657034,6.203702232872514,0.5265852312011892,19.65652276913224,55.08931625189597,-14.494117973277808,4.640499247483632,6.202359412014857,0.5263283315781919,19.654477620551177,55.074126752656525,-14.497149567937527,0.03693157080335806
-5.072414339975461,-4.025407289065234,-0.2159510739106625,-7.569092652863445,-28.5561994777412,5.234550608158131,-5.059692625779292,-3.9883882437528655,-0.22037679901424045,-7.696348827175484,-27.195167008064345,7.79465666224678,0.15975213271771038
5.699988590651769,-3.573264379508631,-6.077427375248293,-0.4848518996974125,8.502608120274985,14.5164954506383,5.76264037332885,-3.5813278756686557,-6.072485594138541,-0.4850374308508991,8.491028751243903,14.355235133761425,0.04580528401386329
0.4664208238329801,-0.083826572629771,35.537094222612005,71.30380612421804,4.092413241855843,6.129901710551337,0.4794579498428529,-0.08550566643817348,35.55394020733061,71.2236602661659,4.071473455242825,6.133805910232448,0.3886210906327504
76.37799933474732,-35.76958911032943,4.858454690007884,2.941851346907082,-0.1168650738970551,24.98816509807176,76.36984655082551,-36.14783663940136,4.858835373380611,2.979655000136745,-0.12202018573445406,24.996481125952414,0.07233597970316606
0.1845205386075504,22.13599657368147,59.966100181142366,-0.40478161462755,3.023042148874875,-0.1034278007879179,0.1211590224934227,22.06837127012227,59.50586150364347,-0.32252987159927216,3.012490628464704,-0.10075583121659903,0.12114096352992175
-4.598673514303012,0.1767523738873777,-17.09020462995456,-50.63123878987985,-17.389078840971692,0.613829355237332,-4.603653253823746,0.17586992428041182,-17.067292221420225,-50.674039264458145,-17.32086853844895,0.6124272698347895,0.0670318172591463
0.4518752746323065,-18.74118171797649,-28.691491680949472,-1.1614568838499628,9.16542692403176,1.351845182465728,0.4508964990869728,-18.745572897920226,-28.437000005260415,0.09881426647189073,9.161758545399454,1.3510029290189607,0.04063937327670129
13.612023170534592,0.3542937038370402,26.68540685611389,71.89234133706927,-64.76430406129423,5.372076874691203,13.6247515265637,0.3563601679954491,26.849962720077308,71.74980958017704,-65.7954374717956,5.359289010380287,0.06616426913286642
2.535201529824008,-0.4182184354499818,0.2263220240420049,20.29277693789448,63.345417123689565,-2.353172902350172,2.535714802825108,-0.41698261079016063,0.22562516860679604,20.298733772007488,63.11604369431541,-2.351764589881782,0.03804531806003962
-1.519552169580205,-3.199536586084557,-0.1466008285620642,4.647186826042357,16.89383521607693,1.2337439786790376,-1.5248174415858387,-3.2035707798579836,-0.14937294097274112,4.652978301499246,16.982987581233544,1.1256074515584942,0.03782258887322297
-52.76057543430696,-0.0047835103909766,-2.807381888685961,0.0758737613412006,6.627692599472223e-05,-21.942462903621728,-52.759660329525786,-0.01028717348083319,-2.8088497841342814,0.07665132365048066,0.001055345589065837,-21.935538465484115,0.034337939953741
-1.907706154125895,-0.0633076058885164,5.921259027032332,22.51450077443773,0.1446674451285021,-1.3225600892327134,-1.9061203302236152,-0.06452270247571779,5.899627503729221,22.481384060935397,-0.07059307247891411,-1.33640010621923,0.08198427662450723
-0.5587978228188542,33.03001142833775,72.99267723591399,75.82667515811067,7.372602019969207,14.461548943205342,-0.5670019313247656,32.96392358733473,73.59777026929783,75.35196180046319,7.37939692746599,14.46884544237723,0.12356119291986244
-16.91342415415714,-42.15180874133714,-6.097322578686432,-0.3193373713161132,-0.2507816310330053,0.1298742167644171,-16.890739075847446,-42.787667604094395,-5.693978445246399,-0.31872691567148853,-0.2500868852316481,0.12930389865494712,0.05884388066813227
-0.1740190790260143,11.458602191454936,15.601297169503187,-7.925732928994639,-4.743244995734383,5.761574253058283,-0.17042704647324136,11.429720176387725,16.585376771048118,-5.841669755747773,-4.737243554716031,5.7710779497447895,0.16488108893527154
-0.0443749084601656,-20.783464787889617,-53.3340703515369,-11.699805646637834,-0.1958479648321617,-2.97115152785928,-0.04382272958022071,-20.682563462711286,-53.39616864515892,-11.56000311015623,-0.1885986007346716,-2.965253697557795,0.2908169368128709
1.4497525830766107,0.3455933102600479,0.7028385577350172,0.1025150913837765,13.002120904156689,51.2980430360978,2.871665576951834,0.3013045771732248,0.4928259862331572,-0.0028335226739457653,15.604425046780005,49.68724898219844,44.752329720560695
0.2832072671898726,27.18490328689447,72.78465040237256,-65.45609352929218,5.335081149676723,13.896828008141055,0.2839465968204795,27.211330736340244,72.75461379562898,-65.43713945551988,5.332781122145285,13.896615079131124,0.04547316571490666
-1.8608937797477856,-2.6975854642216595,-0.4417971398812251,8.29199425540501,12.261425846226064,4.775784070887939,-1.8800824414370823,-2.697270916617839,-0.44012692285778376,8.464606817819913,11.266842512462972,4.086775342313558,0.05538659396519262
4.533281759999363,5.936660260790527,0.4724169607335539,17.729533452761487,47.39946241907838,-17.894925281712336,4.534740335259286,5.937372814336314,0.4728063371999909,17.7381384642878,47.43675583068851,-17.896729928951117,0.03684470483274237
4.597672589743546e-05,-21.941517931329013,-52.769765401262674,-0.0040985760629923,-2.807447283589713,0.0759564268351816,-0.006333980012414031,-21.950764521141764,-52.73973488549427,0.011689177957805441,-2.7966784940485923,0.07759130591512076,0.03545509738542006
4.461736016421737,0.4674883827957559,24.33460292815819,69.60939463371948,-4.7000448309894365,2.796546810166468,4.433031639942257,0.4703210735798784,24.151366420412614,70.4881324523451,-3.4979058830699614,2.787149851148257,0.12749345398641465
5.453948316740214,11.312137286350456,4.07218658439879,-2.148436137875131,-5.919129328625601,-0.4316061999677455,5.4736475389992165,11.213109334379169,4.150542235636749,-2.1517107218536324,-5.920962856252714,-0.43141478240280406,0.03741235490111859
5.677916979132999,-0.5221294736385074,-4.230587353147666,-9.936229318020963,-12.923360155531633,-4.549602476556526,5.817255236403469,-0.4778730755990317,-4.400012767738396,-9.194417665094875,-10.768951500637627,-4.517542180089478,1.7800127807655142
-1.761415687818798,2.955198462877389,-0.363018660902464,0.2087119933210159,21.43452291283196,64.0402799411572,-1.8519403040532438,2.9542398782908883,-0.36123937130827244,0.20900531474561213,21.42997479269704,64.08669942891311,0.035473329538728934
0.0448788442041807,22.039287606404613,52.89856038180495,-5.287725160775747,2.707832705082261,-1.791596597030351,0.031193117602335008,18.8742028027622,44.89695076436348,-5.320811697232159,2.2747774711732056,-2.1524138976532114,60.60715988646514
64.12905327527864,-1.884289865324577,2.9163368403308527,-0.3827996182434042,0.2095350668150277,21.30631466748441,64.04829508946364,-1.981591709090651,2.9154187006862333,-0.381123602416352,0.20978967747181443,21.318073741606582,0.03576281339009012
1.9802796668987668,-4.8839582825382575,0.0255739383153919,21.273044544626075,54.74421647989183,-21.88446652080892,1.9855476109928127,-4.877225673209806,0.022548112406257315,21.29408752699386,54.7518492935981,-21.918639535828092,0.1053663910095791
-9.306034587282255,0.3515659333310875,0.48520507430045,7.918698517551927,40.2228126090188,-8.751413604166855,-9.307608251189222,0.35239779470067845,0.4848915824122315,7.948646761360536,39.926961638258945,-9.304659145907863,0.039276211673109004
63.917196068411485,1.9482483876582528,-12.06081426569782,0.7244079483620381,-19.625559362974112,-57.2302629106058,63.83049427214702,2.008791253334408,-12.113059022111832,0.7662789386232867,-19.84928886586575,-55.74983091440677,0.2039653163162255
4.430190278258685,6.247849702123241,0.5445980730395084,21.157856271023707,60.60674487940537,-11.576955662910432,4.427263021168869,6.248602670663587,0.5441810462502659,21.151413067954167,60.582841913348375,-11.601501876335249,0.03803040052282523
-0.5999559010318981,-0.7146024817380048,0.247260264193889,0.0525357528066471,-9.4845135801646,-37.812759657824216,-6.1635459290570225,-2.1356546658634272,-4.996577138472247,4.70013699573181,-9.190840493686892,-31.435213581907192,28.961822119505438
5.741675480507946,-3.7779294590115686,-5.475165067083344,-0.4601535620352228,9.264384955041931,15.78585525887907,5.724163228568614,-3.764804623157417,-5.474690714663666,-0.4602587665819311,9.259633190753846,15.840959154651955,0.03692476937801513
-37.251282484075496,-3.974987441407944,7.994190974742373,3.71362380499573,0.3464053447550934,-19.14658589237481,-37.13245642328843,-3.6514012394774227,7.99368365513206,3.718660014942394,0.3466454379894355,-19.145645456000587,0.04041545549405311
2.808620729665648,0.4013519887973565,-19.00655607288009,-32.882749015544206,1.329371205342536,8.614098494608589,2.81167126755194,0.4001403210143477,-19.017338407709882,-32.82864171245649,1.599753737285937,8.624187272122713,0.05777718818064824
68.73129001134481,3.537629059289668,14.134445252457896,-0.5423717242776807,27.42210053079304,73.44250474472072,68.69011588308922,3.541384807695486,14.136332294649442,-0.5416138184459574,27.42735011609159,73.45089356729773,0.04397271486176334
-58.05581724495334,0.1071406789422748,-1.925803125361517,0.8089956806584144,0.0034931334181112,-20.268762689247,-58.25220189713292,0.0990804287772562,-1.9736291196477396,0.9203872079935991,-0.04177104404334386,-20.15341687210048,0.084982827132262
-69.15060643701291,-4.778851279425371,-3.156119757819788,0.3950415085671898,0.0181500492777834,-26.796740250956045,-69.44522762962062,-4.944567623457438,-3.1159708599149383,0.4012683304263902,0.02484131636211373,-27.00194436163204,0.09100037135347049
-27.896926160829,-71.72513561109581,-5.1757488689452655,-2.95144263958332,0.4128481304429567,0.0276228699976925,-27.858441375201863,-71.316772131096,-5.199035661760423,-2.9562468155572255,0.400664885682005,0.041128500593728745,0.10970920636141256
-4.834730877385061,0.4092672029429736,0.3157476023051034,0.2151944717962534,-13.930817482257863,-38.16284176103857,-4.495705939168261,0.4166840459597694,0.3145127798185423,0.21944558284882687,-13.946675450287671,-37.49469995489653,0.14735114565560237
10.273148511316055,32.12361249283399,-0.4708073324367573,-0.187125492609097,0.3958669390819542,-0.0501651563739979,9.991415356356583,33.091925540163004,0.6650109896588532,-0.8547962810566103,0.0654850212201108,-0.03611964137451551,8.945596638199287
0.2539507198221397,-16.77033507784229,-48.12602205638299,-14.246595100202477,-0.2207053497958724,-3.499634574770504,0.2479456617340574,-16.844731548757323,-48.88670574383997,-14.267003531623857,-0.21466296471370327,-3.5098293207847995,0.22571471020678457
2.2903855698640894,-2.480497217588984,-0.1248414097174101,18.077226500613964,49.18295710138347,-8.731541064317183,2.1828124545204908,-2.4719940837506567,0.38559337024544593,15.15998859305129,40.608210983418815,-7.634805743518255,160.6053173178532
-1.4895639302864951,-1.1741305136557274,0.1775018840544457,-19.393467519770866,-50.49084969223205,-6.718086074944983,-1.3493907988740546,-1.5631101476907077,2.9213552478208342,-22.10816745522237,-42.16668511152375,-10.869068476997995,17.43420182210731
-53.10419160348752,-15.338888010570464,0.4001586069016758,-4.110636123071336,0.0646462121086594,-18.95317281061255,-53.24161126104582,-15.295971099781468,0.39610473327437745,-4.112058835942378,0.06118851689025462,-18.932389510919506,0.05169014247907154
0.4001586069016758,-4.110636123071336,0.0646462121086594,-18.95317281061255,-52.46673444782802,-15.270187568333736,0.3809553980792373,-4.099822139920747,0.06427940952174849,-18.96361173669584,-52.70809952486252,-15.158051747538025,0.06599562321873674
-58.58219151674279,-0.3537840023642524,-2.707008753063556,-0.0644060137943998,0.0252517022079522,-21.566681576759347,-59.65672290328098,-0.9858916324150471,-3.738462297632168,-0.620060450762594,1.245567627789569,-22.187963642098566,1.4605701922618093
-3.543511945404008,-0.760370470866637,-0.6580447776543756,0.1893861493685793,-18.08979165115607,-51.73324536021886,-3.631941021490377,-0.6450945319504111,-0.29306825296960426,-0.01170830298826786,-17.865730836207142,-50.203656629652755,1.5058432928913814
-4.4142578264470655,0.518292122665356,-0.1659544897706655,-24.063552780154406,-49.75709340373576,0.0382948201535027,-4.4764397789603265,0.5118448647803788,-0.1734771657668066,-23.907955745991273,-49.117195414902596,-0.20003781688865274,0.42983146712033415
-2.2173168344749903,2.3106171268290128,0.3665443817163596,0.2135989703874519,18.73465156310009,64.80432889727747,1.191156920280548,2.397294626533775,0.42429846064415644,0.16284843794600068,20.877536711224376,59.0176735938266,18.844836320347053
12.63639927859476,6.422075911990419,-2.2263488982377577,-3.0054574613102383,-0.4310125151499434,8.787969380170038,13.082467538160131,5.35519900456984,-2.222595821266199,-3.0078034724757376,-0.43212418066001224,8.814105149029388,0.04012272035471352
-2.97089675808777,0.3747996587255456,0.0149471546039791,-28.05577461971102,-71.89235160361709,-5.591790684369827,-2.9109260685981724,0.4247151237102256,-0.049214308975759735,-28.192368264625713,-72.31742014845497,-5.43366089149481,0.13340268399930422
-18.147205241348978,1.817887788046236,-4.252878238390127,-0.3755920180323552,2.740521103520724,30.003266625087345,-15.250403250987802,1.6769747302545497,-4.410872226055986,-0.4242116964096798,3.435482168933845,31.043166116384782,1.3604553393505054
-5.634349112349195,-0.3983587326944344,5.051354002716059,11.07875854099887,4.73429794689889,-1.970219932426188,-5.63042261202591,-0.3965141276189268,5.029742167961388,11.284578136720484,4.035757973901582,-1.9362233456973001,0.05201841610984258
-0.3285065777493694,-7.422217341094471,-27.45922374318785,5.698072450034872,-4.216604343467717,-3.555098946198938,-0.33043634694566393,-7.44636806517795,-27.271402284629403,6.090846134743515,-4.216229351571073,-3.5530278438424894,0.05756620260787014
25.53542222605151,3.9098515085516494,8.249365761964977,-0.8192460594621156,10.06460498728666,41.90989334249786,25.5590093614843,3.912181902898471,8.253338572515702,-0.8195779871175803,10.065601406471147,42.00322221291435,0.0434105148594993
33.13116547618391,88.81153908918489,-4.200671901931979,4.4423731668559086,-1.0000456411981085,-0.005028156392115,33.11311803576881,88.69091245685678,-4.160402763910156,4.443921263114029,-1.0004278846016783,-0.004553144670547127,0.07384116688218666
-0.563260215143528,-0.6939039008404684,0.0784176360875033,-18.23557811591322,-44.30466192994405,-7.010398888452901,-0.5567598934019742,-0.6942974165739528,0.07909822730868088,-18.232555836947597,-44.70577519125072,-6.623114949532692,0.047332018380711646
-48.677448463136095,4.919949826730536,7.649660507404305,-0.3345193468826248,27.054918935843023,80.04098731052837,-49.04009021872048,4.933342478019767,7.633500942951571,-0.33185087637677846,27.008338363394955,79.98760951986151,0.11666050132477022
0.721385827915057,-0.0004510806722172,-20.42471464401998,-58.50724295777359,-0.063361826290132,-1.944347079992723,0.7165618054793867,0.0005442960035679789,-20.395205114152354,-58.54264304081198,-0.009936250308328454,-1.961559720681862,0.03479772308612593
51.264812303301845,0.0278569086702835,2.839983394737103,0.0279636430055712,0.0124880634650311,21.84500843525264,51.550867083174104,0.021191084509863956,2.774427429613013,0.01028353452353059,-0.03950025797308854,22.04432103691252,2.484766183228555
-2.481808247124939,-2.8968805893302387,0.0826138953345841,-24.786178211959708,-68.39067661946656,-15.913306473124528,-2.4683296238865324,-2.848813723173439,0.09108414205435533,-24.576601578346203,-68.17609000914153,-15.856242030670387,0.23466423368013223
22.209510744432954,63.76213484493208,-0.3071537594901862,3.161945722814129,-0.1071867919695564,0.2075105521173147,22.20651486705711,63.86734217719868,-0.31959383348134907,3.1621970542654623,-0.10814668943699957,0.20877697553370567,0.037423306247955965
-0.0101697188213238,0.1871965092069334,22.226826698636792,60.66674751701687,0.1673138386673577,3.0291420984107056,-0.006258442163471933,0.18619224598361583,22.228965931418657,60.67785825799575,0.1786371116232317,3.029801098289079,0.04682137774478844
2.232860478439044,8.659399087314243,-0.6675335252945003,11.715482297676743,44.49686170658653,27.07765584231663,2.228443947442889,8.65390863092695,-0.6667634902500721,11.714436133259937,44.38929228182087,27.035151213571453,0.03981521975368861
-0.3412845912534931,3.0186687633852256,-0.0964119394842729,0.1852195514054122,22.14488193773198,59.67804496024725,-0.37427456649038504,3.009401235409385,-0.10335291988411655,0.16681035540401012,22.121256255873107,59.669507838249956,0.06865167319592712
0.2634238364667776,20.69381812902269,64.24791437945967,-1.750728727876062,1.998096001667529,1.097847538652811,0.2609962369742136,20.58256838852155,66.28897327171296,-0.5069239938939063,2.0166034488675244,1.0916682175041734,0.12654713796980543
0.0819400592535663,-13.971895767426124,-54.34450716227116,-5.051374898155,0.944533518194366,-0.2146124007510848,-1.6255806916828988,-8.953530436719745,-51.04336357474995,-0.49256685328577987,-2.509085255222317,-1.42052005289014,95.45563445416788
-4.020805385317124,-4.765278050958304,4.915170576461116,-0.2006308427916433,8.30299026557265,7.274009578779793,-14.612553864853908,-4.924548901739033,5.209263629413094,-0.18694675156295593,10.36203253462304,9.484334991000878,13.06568143084338
8.234808965340413,-0.2152798554624996,-21.67073704124073,-61.49156878104768,35.04207863756855,-3.0585073182652445,8.23023048716662,-0.2141527787688956,-21.77231617801838,-61.346473840661936,34.971101376331575,-3.074289771663641,0.22943447171935516
60.22078620580492,-0.2441517687780068,3.0089775382186303,-0.079702491262259,0.1609810791157502,22.14709735002011,59.73468305468282,-0.16962370932503745,3.0153107344039647,-0.06965175223126252,0.1738116891615178,22.16613792722839,0.051620666305620774
0.1108052412250405,34.16185858588264,90.20861062465016,-6.619177437038284,3.639309272365897,-1.4627539394283953,0.1048249842917226,34.50696345952281,90.89096597276684,-7.014028429402174,3.647951781871704,-1.4438886203289965,0.9303757521593182
2.8104677268619938,-0.014331579173175,-0.0052400861191705,16.420749375793783,54.78894634134395,1.618534393402669,2.7864031972322323,-0.012980845296731047,-0.11206938508205155,15.691224398962696,53.90770458206997,2.46341828260665,0.9922410841064787
39.38928459343122,10.224471977992897,3.782851607877309,2.114582489863466,-0.1351723024038462,20.42080799898709,39.80149055337008,9.754371416557255,4.079620399036264,2.07485962589099,-0.1998998842190282,21.730242630876873,2.5601816484896855
-25.01057218019776,-65.44378357533924,9.009436304563888,-2.217046746531027,2.256507813149833,0.1185011875478453,-25.07336754705921,-65.54628034630878,9.047221350202534,-2.2083350596433693,2.294466019514985,0.12250231354165919,0.2102724325686266
-20.68899676313386,-5.704208471165696,-1.5763982750969423,-2.217003637954856,-0.5263458246593771,-2.374583918906374,-20.53079810897657,-5.852243297722225,-1.5748187504686513,-2.208920510116336,-0.5264945852700178,-2.2557121304655823,0.08354082796786298
-2.636542603038931,0.1746399865326553,-0.0064762536665946,-21.704492897593724,-59.53173909970485,-0.2039554706088704,-2.6767254951525103,-0.0281196774319028,0.31769352402776097,-20.949038854561195,-60.45395622269825,0.17266941520438195,0.17727871748173796
8.039344352376778,-3.231599401313534,7.360971793292272,-0.0077596223495824,16.257264785694325,48.31726322034572,4.8369545526735465,-3.1888123385710117,7.275228676346428,-0.005498774943939022,16.170027884334957,47.16652943580516,0.5616017822508864
-2.6685964166034504,-2.717291164696562,-0.2978632751540571,-0.0698188852062807,-20.16352440647352,-57.2079163872894,-2.4334411426879683,-2.994631174923555,-0.18945573513509117,-0.054272069606682294,-19.88297415984438,-57.153789213036276,1.9389858064915981
27.19541615727979,-10.689500935549672,-4.768866467905299,6.812811030299813,-0.1493156118572412,15.004272427213866,27.394329727739944,-10.421238170481786,-4.770166796249093,6.819632369399544,-0.14915741898359403,14.80309062512195,0.06630762719050819
-3.606849953918052,-6.256227971320357,-12.291201901207252,-5.046542344444258,4.993222003931384,-0.3858171062948414,-3.678424931929463,-6.217088668374231,-12.092803692699022,-5.067159726916153,5.029779076792051,-0.37975414670851304,0.11929450066618284
22.42228253869904,65.24011436686823,-8.721017157302402,4.119436686514749,6.118289026083057,0.5458176544168384,22.436420074222042,58.23302330635488,-13.076396326035137,3.9839888254139453,6.030065799369126,0.525891067629118,1.3139549519230624
3.110572661196933,0.0521056320412181,0.1976799604012471,22.36666805881138,62.41087898720929,0.5444609477851401,3.1108151841903506,0.052494585933558824,0.19720361944121834,22.357999846680457,62.441128616766036,0.549297093730047,0.03619667406549053
-48.55564746312079,-4.401445515079337,-3.3356737879138407,-0.3055646605584707,-0.1577946113288333,-19.99099875327404,-43.529361962995466,-5.279326958189408,-2.8326618792222185,-0.31683505141866597,-0.18151396425015776,-18.764689254996554,9.914788436446212
21.88470006737014,54.42836913060471,-16.992564674881116,2.3365137910458413,-4.08252586400759,0.0496143130457925,21.8988857277387,53.493065357780736,-17.086360959021093,2.320450602810009,-4.1224087546909605,0.05502259603079466,0.50937878784772
13.720022922322476,-0.5343145459412423,25.88113837012052,71.20045876527983,63.571560612063216,2.884790569228053,13.71241185919071,-0.5338415159418091,25.863622602805606,71.33485158535223,63.653548727701036,2.8826902154961473,0.04223747907253693
12.429011800580843,45.9638583019432,28.450524345440368,1.9900173557029723,8.883898291837363,-0.6450369617128893,12.436888109322382,45.96165409160244,28.423701953309546,1.9907606396007322,8.885251477545403,-0.6459244028374753,0.03939886906665589
3.3846148226528103,7.872878903160728,-1.0353136993166658,0.1751256039876535,-14.277430897407475,-4.694764039722044,2.455880687415629,7.871317776085565,-1.0371682337132029,0.1740260328077614,-14.26938035203807,-5.026637072750873,0.05586394814185934
-30.054558757823024,-0.5999559010318981,-0.7146024817380048,0.247260264193889,0.0525357528066471,-9.4845135801646,-26.409313658445285,-3.1013858485515016,-0.7314123113404776,1.208157077541543,-1.2044840401374586,-6.045709227914131,35.23613318694352
-6.998287037323933,0.3772878294571405,-16.481311645790456,-58.05490598513279,61.30485787442532,2.234830586502863,-6.729740069405636,0.307155755868898,-16.659977594967927,-56.48010383957035,61.14705276217069,2.4560584340978124,1.9103817879148548
20.59034325193984,63.43826202411885,-2.4254959162948784,2.639230883121427,-0.430900691177166,0.2206866850450252,20.58525702975274,63.50063490265438,-2.3633919720716676,2.639514437571851,-0.4318845366646258,0.22087700845114355,0.040431537134975146
6.157591811170331,0.5173552465348975,19.1855649474714,53.31210224790675,-15.346769468317268,4.668508372937965,6.157164751822535,0.5173316711415552,19.187767339616983,53.29931552719938,-15.342222860998845,4.66875821368572,0.036157616490822705
3.121589020200196,-1.3862414755318055,1.9168527456222928,0.0828453113763422,-25.12391950555047,-68.9143715708059,3.216466103919924,-1.487184500918687,1.8942811864010567,0.06142196267080635,-25.09474120047058,-69.23416801239816,0.2093090131819052
8.915059900571476,-0.220696187690842,-21.05272507122852,-60.16316642358228,40.6623483881052,-2.9355087641869844,8.863121747951796,-0.22064543982508233,-20.968221068457407,-59.85948884249126,40.48297603043236,-2.9310505324671148,0.10652429360972047
21.504846210785324,61.39538243394764,-58.19887591816117,4.142587694161056,7.580158180891262,0.4827096359106632,21.511739134593583,61.3349053063248,-58.20840515507308,4.139569039259939,7.577046105632348,0.4822330567579716,0.037128692586986575
-0.1718295594059792,-0.0308740147134622,13.82232555421839,34.013637764733296,-1.318467478791649,0.7584468600931581,-0.42949612789514724,0.02214011027301055,13.837855400886383,37.3557457405098,-0.7939214011656617,0.722753255600054,10.188784467690493
-2.80742523535558,0.0759544748487605,4.231506210997452e-05,-21.94150034529895,-52.76978545310208,-0.0041000025786198,-2.802014652835851,0.06931169538694348,-0.008113968239740643,-21.92123449421807,-52.732848281442784,-0.0026775446729061514,0.03530933709715765
-47.85476246369407,49.761505918169206,0.0799349327222521,7.4788085516092035,-0.3316566229371795,-13.686803505773584,-47.829087305052326,49.81607107914124,0.07994998836537803,7.480038545478358,-0.33052331716189975,-13.69436250358865,0.045124549968772784
-3.573913366835275,3.133673578460036,5.065875967283736,0.4970099244332737,24.32289100857652,68.69017566375659,-4.251766697439052,3.1326910610588925,5.072951953648239,0.4986834744408779,24.01225916096456,71.89135706876596,0.0577207766937816
-0.2317645968255989,26.517187283260128,58.2184798335416,-0.5834077846803203,5.327189706515711,-0.5910352379842625,-0.2271914669503332,26.4057473231957,57.57345954254048,-0.4843805358798401,5.313985848309717,-0.5837669193982229,0.4163832493569656
22.346631364111417,62.13760063319267,0.5607097759085311,3.095306012692977,0.0555363690622551,0.1950468743194151,22.347705612296664,62.10105811359608,0.5618663890169273,3.095359915730022,0.05599377585248533,0.194026016155739,0.035929737988237606
-0.0964285410382333,-19.82896576595218,-51.78417167950269,-4.215919168875093,-3.105825615276084,-0.3488980231010367,-0.05708438843060293,-20.205712663950614,-51.89589542012446,-4.249635320652729,-3.1048589878704007,-0.6213054601509711,1.5373453261785355
-2.8073962432906234,0.0758749864002851,6.842326394644884e-05,-21.94152104329542,-52.76976204358981,-0.0040983780942302,-2.8103834772853133,0.07445717202557489,0.0003644911553237762,-21.900371538440332,-52.6858298016291,-0.0038099256205441634,0.03453092537246204
-55.93922334788157,0.7351628068748531,-3.600388012958629,0.6150161278156433,-0.0858480166226812,-22.03581771632902,-55.88743032110162,0.5384563518066585,-3.6012312765469474,0.5731498491907345,-0.09054763159053536,-22.017540348665737,0.25716598549713565
-60.28156781188542,-2.648509929301833,-1.44576306105242,-0.1781075246210124,0.086643910869728,-20.82010239505857,-62.9362909283376,-1.559197355027294,-1.4855214226356566,-0.20002616644572413,0.3348675723244696,-20.790228522570033,4.342563984228389
-57.95861401492356,4.831797857386097,11.511765268647984,-0.3418590704547042,28.27535547057207,79.71197057990871,-58.028939963334324,4.830253912830891,11.518208128802385,-0.3429092434190988,28.321124418371085,79.69642274617945,0.050698442391376206
-10.249038117244393,2.570825971059365,-2.781239969877689,0.0495108115263421,22.07962431600817,52.70542037925789,-10.550189023271042,2.5545712859520933,-2.8147589495228393,0.03150002378496494,21.626845099965433,52.55472621323114,2.441044838833545
23.98795355149112,51.26162630075696,-0.220446204539112,4.325921963871294,-0.3775507524949024,0.0066795317506731,24.40116715080949,53.42732198193289,-0.414354250408536,4.406095381165394,-0.4078798330780655,-0.06453572204498002,4.612101301851578
-0.1228347119165856,20.562655210502456,39.06317977939389,10.128471644984426,3.791487611308681,2.055765963924755,-0.21614694432745485,21.34748499352503,43.86181892473516,9.257486325002724,3.9389905378571353,2.2619664364404155,6.435917624585852
2.7406462518193564,-2.256444076686152,1.940944774347221,0.0261141893932187,-26.7927330666918,-70.0799164482043,2.6575115575733994,-2.2460829263152116,1.9011446320372123,0.06663072344975651,-26.882636045058213,-70.35804422882036,0.11891981386532945
-52.76976716876466,-0.004098684613716,-2.807445305530609,0.0759562603652516,4.571997539611892e-05,-21.934712211791496,-52.75912972104538,0.01870078663989716,-2.792579902652051,0.07478383011796552,-0.000428354779842266,-21.997420179537585,0.03579252298289913
-2.3890337534734223,2.241818740532535,0.0963980658388483,-25.72331760539407,-68.17780043907992,9.709943579937097,-2.3819206359777922,2.2414748970475955,0.09591921822201499,-25.68822757840887,-68.08307000453385,9.690331416276646,0.06041818236947148
6.070094367994004,-0.1761994213490781,12.253586787249889,18.234695887017228,-7.893726004652598,-4.892969411555217,6.065286476834721,-0.17560376106703535,12.371802478232215,17.712788791733615,-9.220825345927778,-4.8980491763135205,0.08821899463169967
21.561141926170308,67.76373152785065,-7.868202349738986,3.1509421836381395,-0.8161736651012759,-0.0327332704826001,16.285039911355437,59.40681603193646,0.6206327537940846,2.181801834401368,-0.40566882645622115,0.022728907155845413,94.73549834172788
3.009129906005109,-0.0701534371840463,0.159370259487224,22.164407104753632,59.53248971446117,-0.0714919501949482,3.0125813923622804,-0.07152544595055588,0.16577412509413847,22.179785257080084,59.72487444104445,-0.08719826404080777,0.06902345604653402
-8.70753956941536,8.463209099674131,-2.859323528086684,6.0589363631599324,-3.040699603934486,-0.2898634779990792,-8.704112314816825,8.480934628503022,-2.822433182892155,6.058100022295086,-3.0393892763926953,-0.28968658611681697,0.03672352484552431
25.72526131855477,69.25440807207707,-64.14745138084312,5.322096306820307,12.550858460538404,0.4719871654100733,25.709137195061558,69.36082132942158,-64.04081234055718,5.326887512807737,12.555762034451774,0.47299286443921185,0.03813779467254773
-6.853791120565576,-7.386588025260242,-1.0743248620293373,0.6473768315931343,15.3825859974243,60.14385423737536,-7.296194589882589,-7.386705113904441,-1.074323300494397,0.6476491486401139,15.381601399110366,60.049766387283285,0.041718469280010426
5.63232026977188,-3.710329787080277,-5.870379029908747,-0.477558328435929,8.835599241668392,15.091655829038094,5.567349794204347,-3.6978625781186594,-5.87238626871769,-0.4767415426493715,8.824402830980034,15.097304124793993,0.037255087227901926
-2.270628379135132,2.7376247394950752,-0.4302221745291256,0.2157358397244623,20.83672325385223,63.66841824752243,-2.361734065486928,2.736612137004088,-0.4289371315716881,0.2159155500425083,20.83292856244634,63.67818566682081,0.03581717234824265
-3.039934283250984,0.1425434006457253,-24.272677026971856,-66.36402373276093,-14.434494003715267,-2.372274046391847,-3.0699710616428924,0.27230659474086494,-24.777044839167587,-67.97722535428339,-14.990570123478093,-2.4919730943014393,1.6507913098997844
-23.10885431851712,0.8460176392433363,6.378876679425314,0.2507361043382426,18.553593997335675,39.21393393839927,-23.62535700550268,0.8434494756797335,6.380353851194652,0.25101394088046813,18.692488455945863,38.479341192751235,0.06400188285551832
-23.630777438934377,-7.263092744360707,-1.914668161025633,-2.40576580969649,-0.5116884826060564,-5.135161097441865,-18.176886289273966,3.42400126648522,-2.016374814964048,-2.344048213886552,-0.5041158310705569,-4.464073334527896,4.834214693767319
59.38604911664798,2.2412693666421184,-5.484286923184737,0.2824571456506062,-15.585309078346649,-56.27021526614664,59.52086178293071,2.3595921606834622,-5.410493550965311,0.2338907046657066,-15.560152198920862,-50.90849818151439,0.8648939713262506
8.859183927910529,-0.9699049276595856,10.66608634788711,45.00758371843049,27.269834073900213,5.072011333056161,8.80933460208632,-0.9637723366780486,10.606420691070106,44.920753513589105,27.32944545379064,5.075215621179715,0.21746465929318204
-21.9424551350386,-52.76058413768709,-0.0047842289482443,-2.807372307995684,0.0758728924524046,6.456949357006318e-05,-21.940118256939286,-52.76805053407634,-0.00411173556904032,-2.8077501074195013,0.07655540883979484,-0.00026087785295203503,0.034366447716888446
-32.788686595296234,-2.2720119095126177,8.768209311065512,2.420587630799086,0.4181599503989865,-18.94573362086719,-32.35836886828963,-0.5427449313949637,8.768149674574246,2.4279573293774597,0.4196063026407266,-18.94943911858683,0.047516603870417215
22.12558011173772,64.13516500500599,-9.445399867396633,4.212613752787055,6.170977748237076,0.5468256540485519,22.104907809993847,64.33102613427764,-9.28907948145661,4.2113527829620665,6.1707179180118885,0.5467462485359409,0.036867859977075854
0.2507414996246105,3.034484393419356,0.0068542621860887,0.1877273595642727,22.25392192337996,60.40370852354202,0.243005731783569,3.0302193838922875,0.00638369789578519,0.18926022683185373,22.2166264258301,60.3818182587288,0.058775596659086035
-24.966323720876936,-19.34706390884005,-0.5224626368907057,-3.9023180246236726,-0.0322051472932106,-8.728094395721405,-20.8487465236164,-11.365730853679366,-0.1438115685373873,-2.1859783247628677,-0.8456593239825452,-14.501573633881605,142.81321858176
2.1887795293806653,-0.1273500867697345,-12.561785456342935,-47.083564207507806,51.1394199881037,1.3999313900174373,2.0380381572432924,-0.12449366958814068,-12.493192864330439,-46.6912177720742,51.25134146108553,1.379674818639927,0.22454977619254335
-18.92034667003835,-50.036980451631,-9.852198799848884,1.5910782011100708,4.139206597161755,-0.1708597051049252,-14.38529700448174,-33.161528792218576,0.7911842636157658,3.1210276325618693,2.9981268490006308,0.014036929676753296,191.37992031770588
-61.57767344854891,4.925606213168602,10.32304666368934,0.5346420208011693,23.63021892187409,65.11644957730758,-61.72119049017397,4.9245196685213015,10.32793869702607,0.5349739177089745,23.64540145152057,65.10220310453133,0.039051052842648745
4.582171036449042,6.240975055254309,0.5354889313963054,20.234062669214254,57.2302729139814,-13.413404410512848,4.580536747665576,6.2399818628815495,0.5351131342592197,20.22959521900961,57.20589871311495,-13.426183121654901,0.037189666064375446
0.4569360541756078,-3.14317371966038,2.934768250154882,-0.0701904178572025,5.369959137089682,0.6184482856952986,-1.0017333947679958,-3.2012086938045377,2.9858417169678106,-0.06428043554703383,5.743556599245556,-1.5150294500799646,4.599678458970698
-10.61722646238221,-3.715481923303877,-1.913639752764186,0.6029617000630711,24.364378350273626,75.10169215285009,-10.332616345647693,-3.713201398134264,-1.9180027412632246,0.6042549537510422,24.32389717473646,75.8126043043269,0.04192056562659428
62.35459690953587,0.5506149750359065,3.1084748668423883,0.052490061354558,0.1973958497184063,22.36417271593329,62.36933411987047,0.5553509369939889,3.10829512058654,0.0532062695844111,0.19613523580711267,22.355899542636962,0.03579663113169983
-40.80511782392055,-6.62427762091549,-0.2646331413739461,-0.1514213581712968,0.1396591646858724,-16.4964756460114,-41.69014804847575,-5.954598537123275,-0.2590631022704031,-0.15277057144311357,0.14069092389286553,-16.513565231527707,0.05854904549313443
-21.941511207941243,-52.76977282813159,-0.0040990534325759,-2.8074390339137696,0.0759557222864718,4.47629032922268e-05,-21.950903124858087,-52.76937517697206,-0.00022383888745025615,-2.799809933320468,0.07208727754141364,0.0017557974099418061,0.035125378228667445
0.7206571297956799,-1.1765560708783176e-05,-20.41168814940629,-58.56512196967656,-0.0102837496915383,-1.9443390715955464,0.7353830195984301,-0.05313435392940846,-20.389048466863642,-58.49500327515278,0.010114510454513947,-1.916546666457407,0.03621504098528004
1.1647286268167096,2.8366072492747003,0.0283391093801018,15.867349383157816,43.68072491587579,14.7081907362277,1.005839621362318,3.019957060434067,0.016334130058027196,15.899316614086018,44.701449237116314,14.911580264888745,6.10702557844287
-2.242587530844245,0.0016714633451439,16.108666826226994,52.15561786798045,-43.059460299503655,0.7390176589968669,-2.244924928470226,-0.0001273782757165165,16.071803891345347,51.01567800566073,-43.21596927315204,0.8029439789487363,0.22605738055314062
18.71298133656367,65.78535828833762,-9.377834471334252,-6.276401565205029,-1.4496917478246083,0.6573079431349731,18.805683012589114,64.94012519381135,-10.636968990100286,-6.2744042636600454,-1.4491992874067288,0.6572641465312317,0.04035725025199764
-1.0509664598086974,6.849869274984802,0.146489020047836,17.983494278643217,46.32615599454519,-8.411406746324607,-1.0541088673819416,6.848362468289977,0.14682480878248416,17.850706916376055,47.10578970910183,-7.94487930237301,0.09979210159168571
8.211689410096037,-0.7817323185788924,10.183221944035088,41.71471478069875,25.03898360118405,3.545598949691583,8.208295667654582,-0.780523708014,10.172645164769925,41.81085971216173,25.128139934460478,3.5462287174149134,0.04326136793362122
-2.978201059536274,0.3836112725025655,0.0211502151782456,-28.05737689483173,-71.76480202530215,-5.46218765978165,-2.839024283607287,0.4374021536189643,-0.07802226926226297,-28.25891989797816,-72.81852856319153,-5.195030729568998,0.3253765684453468
-0.1382367313675214,4.75196386331656,17.39253369192831,1.090873207705716,-1.5053021026962223,-3.009311280811641,-0.13818256251260008,4.7488009010882735,17.523192480868715,1.0224866234482306,-1.5094162642011,-3.0204080674838316,0.04347213671605897
53.953169184065295,-7.059788971363576,-8.274327079778583,-0.6231998855357165,0.6116158035121063,12.560014066343763,54.08805109516334,-6.784697903310189,-8.287254733985868,-0.6212510737604156,0.6118851913823984,12.533942841990012,0.047470232017314914
-16.13113427359522,4.6657099593215285,6.092884149752646,0.5050879753280697,18.67382031263965,51.330037878479146,-16.30906718141705,4.665745656740384,6.092479118696549,0.505314944930439,18.677470944350375,51.3298286726822,0.03614641102968773
0.3331411390323457,22.24234425679433,72.55801346290833,1.7633894464391076,1.8843605806756545,1.7726626043920644,0.34230192387228886,22.247920612585403,71.72737431951305,1.6753777309590987,1.8624527412379495,1.792787437695092,0.4519839138033147
-2.7300000995856344,-6.324368573732891,-0.4848843030979991,6.708354088066971,12.103586655691188,4.842024871271286,-2.7368745453594556,-6.327860191710073,-0.4850028655835956,6.711577158217253,12.096208547330662,4.873502711090623,0.03667289912278858
6.170909901660721,-0.2934075571714192,-13.08872088378189,-47.41109333259429,49.55497491601861,0.4803829930232827,6.174168059228478,-0.2920852274829784,-13.077985144488522,-47.260799671249515,49.637737529115725,0.4676816494393421,0.049391917184618536
-2.807419631500021,0.0759539384774619,4.116090220857024e-05,-21.941495972568184,-52.76979081739591,-0.0041004640351586,-2.801906447157876,0.06955402651146869,-0.008418389180405939,-21.921991336986245,-52.73168123042433,-0.0028990289499688515,0.03530970431024781
-0.2340120707756022,0.2721846826480186,19.267110759616703,62.46901116583462,-1.0914836941589618,2.202000010858711,-0.22093507614008345,0.2799752009402743,19.198933784277884,62.79741049522124,-0.8772100440530153,2.199346369951988,0.4281645178705956
-5.320481622030169,-27.11281293074097,0.458795065984237,-5.037990129341846,-3.689238321442425,-0.1120470134686668,-5.236884650865651,-25.69478951687131,3.2709412479598257,-4.9508882074657805,-3.5674720227351244,-0.09806311876105323,1.1571692242452056
-4.27248885014777,-3.584726143631721,-0.3285065777493694,-7.422217341094471,-27.45922374318785,5.698072450034872,-4.266683293510482,-3.5699391052118763,-0.32735933349725954,-7.420236870377039,-26.939165196862632,6.326438280351795,0.04770853060473411
-19.26745890962589,-39.20182682265367,-4.8765669135887055,7.5337974212853105,4.296793766071742,0.2998124507765788,-19.26384724887238,-39.14597719441883,-4.780161705362502,7.536996582341217,4.298630804529765,0.29959555284157346,0.041406200572293814
-20.320709633062464,-58.40645990209823,0.0635786524945415,-1.9166805876002244,0.7332431663112932,-0.0076354086388576,-20.49601579948785,-58.02328364072673,-0.36764101030439633,-1.82454125041275,0.7302155181719172,0.2382042903745969,0.06496762895808371
-0.4015019488367317,-0.0875164711202331,-0.2319503190943957,-0.0945740809983357,11.712100413417364,40.20774466483277,1.0304177047512937,-1.527597044760057,0.28353599068368673,-0.15369566367880116,12.415699844227479,43.657327821234986,13.692522859650818
4.194950994949287,12.99262496094324,1.7538366213620695,-1.6857999405632158,-4.5399626941342905,-0.276704012110909,4.2529510728552395,12.678552267539544,2.778808051976739,-1.6875180466034436,-4.548346416063026,-0.27655346656607094,0.0375589321315145
-9.51400169044272,1.5521328547346167,0.2763638437085259,3.608101482520994,26.020137744707785,-11.362546729226151,-9.518476915531764,1.5555230912556368,0.27708245594133984,3.64780897181609,25.766658239543176,-11.834396359845414,0.04208697990601405
79.38046975515476,-53.90861751672767,4.866096998144608,9.95252621075891,-0.3659518761043209,28.19937201490266,79.32353948215882,-53.742518713771005,4.844459954047434,9.942782156413216,-0.3653790808886068,28.03575092052006,0.10716943973126246
-4.717448993774988,6.872377245009939,-0.1520325091936346,15.12189277186022,27.19541615727979,-10.689500935549672,-4.753575161499398,6.8705512404183935,-0.1471294830789467,15.219444826708695,27.22361193765437,-10.609248130637752,0.10780018648888455
