Roblyat/algorithmic_payload_estimation/payload_estimation/data/result/effort/cartesian_04x3_effort_results.csv
Actual Effort Joint 1,Actual Effort Joint 2,Actual Effort Joint 3,Actual Effort Joint 4,Actual Effort Joint 5,Actual Effort Joint 6,Predicted Effort Joint 1,Predicted Effort Joint 2,Predicted Effort Joint 3,Predicted Effort Joint 4,Predicted Effort Joint 5,Predicted Effort Joint 6,Variance
-14.81804012860331,-41.06934536348631,21.119949017810765,-1.0912820376784418,4.115517060975168,0.1625291867157048,-16.05034288720867,-43.165688876694276,18.373849224873993,-1.118155223653872,4.563839510886169,0.014768347083986555,1.5198260689745873
-0.0043757997371173,-19.677534856560968,-57.985522723839104,0.0916918792197493,-1.6281088162674615,-0.0808032674232802,0.041117678299542604,-19.47192344780194,-57.39058545997568,0.10654064504126382,-1.6744921140457336,-0.050034152176692714,0.08479790200538351
-23.036569381593445,0.4495338592551305,-1.4803373564255782,1.2160118192886382,0.0925734085183227,-20.41427454162946,-22.81928665394571,0.5176891126641294,-1.4813633835778148,1.2570315060920336,0.0739821807608223,-20.342195909483962,0.08135781307483758
-58.578179036384185,6.559955567243316,-1.402738055588011,1.6022199626011335,0.2204970538959192,-26.300420811287044,-58.2054198424662,6.726459760211355,-1.38149695858408,1.5451402497564004,0.18397546341964244,-25.623826713226663,0.10496100065017022
-0.0001309579091835,-2.466753388682347,0.0173222512343823,1.0722004602619717e-06,-21.46420028627509,-54.8878907672135,-0.0024442613462269946,-2.466187236155065,0.01804977006685249,-0.0009602102984445082,-21.465166796856465,-54.878334650321335,0.05595675394456312
7.914853486342376,-1.3077206067614702,3.944845491490526,-0.0631679102302225,-6.48399965208918,-8.330371080708009,7.8480091434699375,-1.2991600694440066,3.935853890674757,-0.06302783687349489,-6.516615005948466,-8.351450448586775,0.08182781636013847
-9.59222193106446,-0.5808606920705686,-23.734259716964367,-43.03475400016548,-31.58383762801537,-5.518088367271671,-9.59401576395085,-0.5828957879491661,-23.632770584525808,-42.62373768543807,-31.745039314663643,-5.4923566171523674,0.17746890675515847
-21.1559567525232,-21.741501709427432,0.5099321996740316,-1.4526080940486112,0.673540169278485,0.03717602347644,-21.47702158022321,-22.17940573277201,0.5875845537065061,-1.4850349243163237,0.6937819271269063,0.07278736048147039,0.08480498455195762
9.918970254011985,-1.336027850689622,4.878492752152846,0.2591958756051178,-27.840939624003173,-26.49946810016517,9.743681054703416,-1.3374183077938206,4.887990038171708,0.26281524776235443,-27.89035861141022,-26.540184378381014,0.07755373759328354
-1.3176053591017145,0.4050945855500546,-23.39065065437704,-54.111381195089976,-1.5681714219574807,2.375617729525563,-1.3366706288344403,0.39134689411091017,-23.282358716826778,-54.05095053853046,-1.5753190142904714,2.379383937885109,0.07668175470296679
-2.0363183477560693,0.4277580944176008,-0.0361705551719142,-21.08546629486348,-40.6293471025268,-0.2250802170450245,-1.9989266411013205,0.5284848097190888,-0.04419597622404581,-20.55898536100085,-39.06031616762357,-0.19397018921301878,0.0775700981449099
1.5222458426554215,0.0865987716929075,-19.62491566216996,-48.96076632060684,3.960754749413504,-2.63790950248142,1.4252068794610295,0.028493373301728298,-19.014129050979136,-47.56596694456334,4.23772323637661,-2.7027626414862027,0.14833787719964353
-52.22861778354432,-0.1479137877373755,-2.024093141285662,0.7469298230399186,0.0009185833227576,-20.8169131637036,-52.242453687599664,-0.15094286968087545,-2.0264913411745056,0.7479159166337581,0.0016010789406664117,-20.84316132582535,0.05662859646917373
2.051000243611176,-0.1713717993775634,-32.64474322346052,-25.355412864846866,3.908317625055148,-6.681291234608194,2.0360223997941493,-0.17360894434054508,-32.62276831706525,-25.331502190997234,3.9968704999759836,-6.679586245220484,0.07418165787515041
4.784290416358915,0.2252967487607099,-25.252550634241445,-58.13626721757085,16.61356152872442,-1.7211162793291068,4.689566760936941,0.2318008176873576,-25.522783350521706,-58.77077384371205,16.412746187340417,-1.7532010348658815,0.45767238911758246
-21.4642208742181,-54.88789154444579,-0.0001309310955881,-2.466772415706339,0.0173224787019849,6.968248340558329e-07,-21.466743405097077,-54.877459770819314,-0.0029526886613098213,-2.4657581172350547,0.018310816934899776,-0.001656052323141921,0.05594594761426852
0.2698177486179257,-3.272811987444165,0.1115530967599455,-0.0991233595282785,-11.726205408438291,-18.22312802154215,0.20885992011793064,-3.2439225765285187,0.1314579384661272,-0.08945895723778108,-11.745939108245011,-18.337607400072216,0.07664797252154831
0.1922485528233224,-19.486844771109936,-54.91973498820021,3.327233264419835,1.154830118520378,-0.3148632122359504,0.635012599852198,-19.783474424493377,-52.211856819743716,0.2550584409182335,0.9840922617771706,-0.9956374106393939,60.883760799799056
-0.1183485784381499,-1.419031437787769,0.0687797086769086,-0.025976590370583,-15.866237913302609,-50.276677943431714,-0.19945185075675909,-1.5584499484029948,0.1319622885174283,-0.3094347794150849,-15.90947865396879,-49.58518023306124,0.1911291880785122
-53.09440977218463,0.1459481253911185,-2.007915732667056,0.772177314098239,-0.0014336932113294,-20.8036863032478,-53.0671418821712,0.14691716812490085,-2.0082021294589367,0.7669242894522199,-0.00042501755604007485,-20.788197037002647,0.056623907573644106
-70.56231804095133,10.970430909158472,-0.9668019297882586,1.6651362644268426,0.2411957604658522,-27.230779508271866,-70.5085551365487,11.176291974828473,-0.9114154190375601,1.6427603977498109,0.26724224832372556,-27.017793887162497,0.12854834985977637
-30.83967871426248,-59.357305037329226,12.484132723009168,-5.718105593395274,2.8882610441144383,-0.1645576882373823,-30.784668050832586,-59.36905464077728,12.563104088034962,-5.704425229222515,2.896516519495828,-0.16362832374487013,0.10499875744394349
-22.77804429918305,-66.33008880057555,-16.73110873783888,-3.980776486901896,-7.721691454462307,-0.0416554451652369,-23.050681950302447,-60.537828187454956,-17.940733604762904,-2.780331140354037,-5.424961314535034,-0.5353045109284971,79.065113546684
-26.536360320320373,-28.066174590364284,11.855499023373868,-0.3533500440958034,4.85027596842549,0.2325461678897834,-26.56208887920647,-28.20649884692054,12.094795643602723,-0.3640073407283797,4.85830257072212,0.23651816729825548,0.11562004353543576
0.0173220643655149,1.4443583755128875e-06,-21.464181863161315,-54.88789034806374,-0.0001308956230554,-2.466737023842154,0.01864483777649184,-0.0009305651092290645,-21.46631542227351,-54.880479319285314,-0.003273668187603107,-2.4658081440242086,0.055928451471678686
-1.6325182778802458,-0.0354765161248525,-18.00347310067281,-52.5217074622204,-9.507313793780266,-1.5208155212607954,-1.5496525840424056,-0.022605226897638886,-18.061786736130898,-53.41523787491815,-9.279086676529914,-1.5069215235929505,0.08480388879689049
0.1230099439087955,-20.187174305134786,-35.7340025885626,-1.105130680308862,-1.1204530075738142,-0.5751735824862493,0.1019890563422905,-20.27804717220596,-36.079054314001496,-0.927767709754562,-1.1090910629907285,-0.5700036041250769,0.0936788197188243
-9.568665966699257,-2.999365771873554,-2.856035657326353,-0.0585199677003921,-27.47833722575139,-55.97902986998499,-10.451999992034416,-2.8024537499412645,-2.7388947969603805,-0.06732892603619689,-27.60119733302406,-57.21849825279946,0.15017416529703742
-10.37855286245336,-18.181229754038288,0.7906448017500638,1.2917087114925812,0.4366436763466446,0.1395825765265453,-10.571912328796657,-17.815508976637375,0.5815880949385246,1.3420007888483099,0.42388143170234116,0.12176042428453115,0.08392538239740266
-9.66235388736612,-39.625232719572914,-7.085806930710984,0.4886612748331,-1.9701445826390085,-0.1120484398634092,-9.675935950788801,-39.292898323701365,-7.211731485477799,0.5096385584386667,-2.01293805025297,-0.10120374631901541,0.16554992214658815
-2.466758236961492,0.0173223122518862,9.715896028419714e-07,-21.46420564578242,-54.88789093110716,-0.0001309629508571,-2.4659058616002767,0.017865112034314734,-0.0009040298776881173,-21.46508057279334,-54.877216118473825,-0.0007442809067015332,0.055946098871394456
-24.848441917155345,-51.67032401164524,-35.180283462052586,-5.361000830151169,-8.66306565467827,-0.605197417460563,-24.886832496373398,-51.77018204111742,-35.369163367683285,-5.383760717073661,-8.68542724101616,-0.6095649932077274,0.09785080990911088
-21.46420411090564,-54.88789088438519,-0.0001309616555767,-2.4667572001178826,0.0173222954817295,9.930589417169146e-07,-21.466611994688265,-54.87745906065766,-0.0031147492322816106,-2.465653946515488,0.018300378691947117,-0.0015429057530127466,0.055945941152990786
-4.897472414000607,-8.954172845993618,-0.7331573106439949,-24.444602429719943,-50.3485523435794,-36.217309980437605,-4.820098664133198,-8.821840856962858,-0.7582350841236902,-24.139403689315202,-49.40117695219425,-36.015228057596026,0.5125054004198468
-1.0546811681168118,-0.4886526846786677,0.0973352131913467,-20.523365289419843,-48.17483376133934,-1.5367432064770157,-1.054241686788032,-0.4377735400894949,0.05176215943902207,-20.46285131831337,-47.890937169186486,-1.4983175689893642,0.08628082968905137
-0.2256635363070399,-0.0148592957508991,-0.0013837537811321,-14.537691404444145,-30.521887696973256,-0.7208283147421815,-0.31860426433589595,-0.021349283539478847,0.009845107191821967,-14.403141824398176,-30.18238858650264,-0.6639819306030859,0.07993074478763806
-21.46418763172265,-54.88789053093743,-0.0001309025918767,-2.466742254903441,0.0173221278301428,1.3153293047079272e-06,-21.4664705727007,-54.877462424271926,-0.003287191568063008,-2.4655450048273337,0.018289292371491683,-0.0014182800282469543,0.05594593907877443
0.0660682255067221,-15.759718250228234,-37.38008668770127,-2.521897819042782,-0.5894098920407712,-0.8882670272046612,0.06365168668810384,-15.766054537286891,-37.131110175296726,-2.6391672676808184,-0.5865173165379929,-0.9163209734489328,0.07577723607476305
-18.725982646495943,-39.07818689772401,-2.584214946360341,0.2153105988925883,-1.1712813167294918,0.2237795500136692,-18.633839316933006,-38.258008128482516,-2.3703799455645367,0.2094939057285501,-1.2176818645802427,0.23781886484835013,0.08720267170806228
-10.869433461182291,-5.677340256511545,-2.713759062021315,-0.2443023432560676,-32.65840916664792,-62.94088057064575,-10.731959938807904,-5.667715409635036,-2.7489365046193655,-0.2391281598546584,-32.759064136628695,-63.582936408420665,0.15074137951739108
-40.804061493887005,0.2163456925348563,-0.7062966715079972,0.0669585409547696,-0.0154048025335488,-18.30482680328192,-39.55205902616126,0.22905837493863146,-0.46299852101586225,0.05346741262417254,0.1195825817515015,-16.04656553415043,0.19077927818729923
-0.0143663856572353,-20.745735238047605,-57.58274124487487,1.19089861884418,-2.056872798390028,0.1835617427072216,-0.02882539826731545,-20.815118097946993,-57.626789679634044,1.3809122883994291,-2.043107073381293,0.12511526034248277,0.08470304502943482
-39.426900502454885,0.5267303663203524,-2.9662418352506497,0.2564721636250795,-0.0278529110513697,-21.56170064515911,-39.05308473435616,0.41167293521220927,-2.9656408180924245,0.2523544214818685,-0.011574544337122461,-21.576078122870058,0.0722911765720291
-24.4722834729358,-29.610370087599023,1.3170835209213547,-3.6942728245602026,0.6018204672520564,-0.07676587914526,-24.56427084326927,-29.800611046174026,1.2170889155299847,-3.7104497590822803,0.6140558346330636,-0.07888072285277303,0.07174414068753454
-46.42418192136366,2.9820155609297454,-3.0776205683662385,1.0906662229676058,-0.0703829119256547,-19.49166834451571,-45.722362632805016,2.9504011329868263,-3.0594790730045816,1.071341183408066,-0.06250721649712432,-19.20481771588038,0.07955541041550096
-0.6992409544783909,-0.318635178469499,0.0590228262243913,-20.825861959886304,-60.34054509486304,-0.4295398536602475,-0.6472504618839707,-0.34476562711105885,0.10183107952386194,-20.832923398169726,-60.23258154410155,-0.24103718580295208,0.10007360952291511
-0.1507860547364324,-33.33985448629801,-64.61661018920655,-16.16052027612293,-5.101287758386389,-5.10475447464495,-0.1525004897468607,-33.357348465112594,-64.82627833139091,-16.14931398362973,-5.109361491594861,-5.111716190758273,0.07872876790738492
-15.866237913302609,-50.276677943431714,-0.0218454522328871,-1.4079794015440377,0.1138781099564098,-0.0404979576530503,-15.89796560138916,-49.989769906629135,-0.5489755928275031,-1.1827588752754536,0.3918591295330316,-0.04591265781164111,0.13450848443772334
-0.0064209207296886,-22.53498781593049,-52.373980668488095,-3.581363877708318,-1.9368884970427809,-0.8544541876307957,0.008879045089088322,-22.28277991659624,-50.92704720205484,-4.581811430175776,-1.7766821733026177,-0.7038070810838235,0.16481427553875183
-0.4638980781681353,0.5398440865396169,-21.17075770651056,-45.77852527076949,2.236559394353285,1.084247928540764,-0.4111545808313405,0.5366241458737138,-21.100555857248935,-46.72277716668208,1.5522837981933293,1.0794340514414262,0.34589460478098677
-3.026532895282116,-0.7078324951604648,-0.0744499807134337,-24.08178498159609,-54.33043030237853,-2.6285920297317102,-3.082365175334189,-0.6825484923249405,-0.07966895788592865,-23.857766796736087,-54.1054187507807,-2.609683664484862,0.06873286911817122
-5.394266933414091,-38.45652601755342,-4.075636718315258,1.3629789759900923,-1.4517950672625428,0.0602705481848628,-5.290732584941452,-37.269156189799105,-5.400082170251608,1.4368169097370682,-1.466573796143777,0.060020078009898725,0.11252659468640691
-21.46414391150721,-54.8878890989205,-0.0001308323506999,-2.466702632960622,0.017321687547054,2.347514301442789e-06,-21.466026046681236,-54.87748949370916,-0.0038177148204852074,-2.4652190350572027,0.01825541333300862,-0.0010125342628271028,0.055945962186078946
-2.4667177794283663,0.0173218480704033,1.9203874589769105e-06,-21.464161017228545,-54.887889513398,-0.0001309072745087,-2.46548540510139,0.017839275123378684,-0.0007013902237531511,-21.464645856593165,-54.87719098166599,-0.0009814146059170525,0.055946108862165334
-54.88789050611908,-0.0001309498571188,-2.466746094529014,0.017322167111859,1.2295704831650294e-06,-21.464192246104204,-54.87624664101895,-0.0024973280737867753,-2.466075419529986,0.017907818863818648,-0.0006441772626430975,-21.46480760417944,0.05596342973520696
1.6428477093995555,-4.686431820731634,0.7869505013466878,-0.0977942643783782,-25.257251167037264,-39.61445214994318,1.6186003052262095,-4.675130123135148,0.7740996304382293,-0.10414154702333178,-25.226368149786197,-39.715288474162435,0.06969206505683379
-31.39271812818789,9.32837717920158,-0.5967262089979708,5.502276608087473,0.5488827719727493,-27.73446416886617,-31.721849731827547,9.6833076011566,-0.6247434200235276,5.4883648167590025,0.550648321701054,-27.665088843294882,0.11634427887090415
-3.3533072070378034,0.4321477029862043,-0.030134921780154,-24.35552135455584,-30.677517663413976,0.7591627080713584,-3.3509905752941904,0.4540380570902016,-0.04383683478323519,-24.502076741112433,-30.679856472482243,0.7838758754609216,0.07708653665826337
-1.106646856528233,0.199544452433931,0.105887981803106,-22.175244476941263,-55.85362919120991,1.6581614474437467,-1.1951032884621782,0.2359898930737927,0.004228336829555701,-22.038073499640177,-55.59717661852983,1.4853955943500523,0.13844039360616667
-9.081016079608489,-13.05962843096092,0.280598639258047,-4.029101322656803,-0.1951682922687498,-0.172993423884972,-9.138698067444158,-13.234177973478268,0.29163975422801514,-4.02068463858207,-0.224158494330311,-0.17723265760861295,0.1612476747818541
-0.0001309227227223,-2.466726893865376,0.0173219493900899,1.6833778320580678e-06,-21.46417108466249,-54.88789000114193,-0.0027607471897681535,-2.4659290236954803,0.018061995687958188,-0.0008472685231595278,-21.46500959695868,-54.878613586892584,0.05595675425046598
-24.35517677314788,-61.79147848055436,-1.7498577806430982,3.1784927997767647,-1.4230916223317136,0.4617226446861369,-24.274487066521743,-61.70572511006117,-1.7915070199246657,3.163252515048285,-1.4172670624464416,0.4621709482684331,0.07539303080533633
2.521442619707944,-1.4728713985958466,1.4299575818307004,0.0834823750840107,-22.48913249323265,-22.80271197655885,2.52920603252619,-1.51539295242128,1.4067977864702925,0.09620259082350913,-22.35723113734332,-22.690357320607063,0.08791832000013433
-2.1723591873069625,-0.1605060107039847,-18.3637015276634,-47.07928665052463,-5.538871302580883,-2.086079690380428,-2.1896402753371262,-0.1708591562609172,-18.344948179849098,-47.34566190550413,-5.348135625621808,-2.0839126870053235,0.08117792734284213
-0.003213665802638,-25.220100627253657,-53.43178842868778,-8.88121498346386,-2.5728477553954474,-2.14719348913514,-0.008989572934979151,-25.167697260127454,-53.940980611663235,-8.00252816655427,-2.6544305573961537,-2.193530098624592,0.09142716219576319
-18.689010401834928,11.956393010939133,-5.616008909426702,4.421071835495411,-0.3418209413449125,-11.843596647886958,-21.544775461993595,11.32448400104613,-5.529643980390125,4.456467746828295,-0.3108964397996985,-12.858176625305816,1.951476554608255
-50.01680498217283,-20.77486716962568,-1.379898925666345,-6.383588348641909,-0.3990566132566268,-18.0321470193478,-49.787353720151486,-19.758612511823344,-1.3682945019748445,-6.360759621314685,-0.4236745105644957,-17.73656461765745,0.33071150915727476
6.888778369638057,-2.12153250916761,4.186402431480633,0.2824485622092241,-28.42991941443894,-30.203772075671893,6.676842577653929,-2.1457028258711404,4.183911741875505,0.2817013848437,-28.41629799731362,-30.02861449032298,0.07542170544765914
0.9066637046603482,4.096041009897366,0.4109565746197664,-28.279614757191,-67.92064087134726,18.39237518941793,0.8884803037548181,4.089973480007103,0.6317116712903044,-28.587070468557073,-68.43673218772938,19.284638354432445,0.4746077544315519
-0.1714021578214003,-0.7744730798767272,-0.2931669593224713,0.0570591478795882,-20.69074159211234,-60.07592754258437,-0.07064666481130644,-0.7268959833754138,-0.20563575371018317,0.07504485016113449,-20.764516516855792,-60.177767896321114,0.10763378881289687
0.0636326415668725,-13.590606633122938,-38.90060117900591,2.033893510943464,-0.8218282498277117,0.8298556894697776,0.06335575411571881,-13.626862840995557,-38.5266114238575,2.0689640914133633,-0.846658435505077,0.7890585113493103,0.08570452618700775
0.9923553092752798,-1.3960070136917673,0.0335057124057252,-5.465209243036046,-38.37421649088001,-5.318757026969634,1.160276867975142,-1.4827275501165111,0.04460880496984032,-5.7404103603314525,-38.335444287628775,-4.892806499238532,0.14869199857022086
-7.178739935701063,1.3228290757557009,-1.881513627220804,0.1307890919639156,-10.513106179761165,-34.04906987680391,-7.26058084807174,1.3080918346174002,-1.8838868452742652,0.1298212752516399,-10.472502345479228,-33.87284153404596,0.07457580241224737
0.4051501430612202,-30.89007682569163,-71.17721836694999,13.178437868854123,-0.95698456031135,2.737859101636147,0.40362997281280855,-30.91630326164109,-70.82804971022796,12.942938971069168,-0.9521247283944945,2.759272328996275,0.08803227133744618
15.019863694617078,-4.141163758018768,4.7503924428947775,-0.0685211066909522,-14.739039440641656,-22.91421195513481,17.71233617482774,-4.552166844935073,4.230304269977765,-0.10884184376152817,-13.783245870387816,-22.15329641342572,3.8318810088910515
4.878492752152846,0.2591958756051178,-27.840939624003173,-26.49946810016517,9.275694496121911,-1.3922594417177432,4.8940459077088185,0.2678177776661208,-27.863537268793564,-26.481988742389717,9.270212457763932,-1.38531715021095,0.08941853883117479
0.3587491132586921,-0.364058095968426,0.3932778322803018,-22.12060750404644,-41.3746845152105,2.2743417915250697,0.4473444651297882,-0.3730196628192317,0.40521924851401536,-21.74740550494154,-37.64366427398966,1.097270583024283,0.14059983610027094
-2.0845550088110407,1.4071250354934934,0.0972938272143299,-20.9502515416602,-56.67295535266977,0.6460377156151385,-2.0631275496436956,1.3484455951670498,0.13584041021567828,-20.599791487703897,-56.037579070015,1.1960666044593609,0.09686575709135714
9.549609059295232,-1.965168486645358,3.418957599241079,0.2223413160815556,-18.98389736435572,-51.50231948135206,9.844607534487182,-1.9274153230271622,3.162061701270659,0.18192094899691824,-18.915996130597705,-49.487957077610645,0.6496754390195953
-3.296199610421348,0.3743756195880959,-1.054560625803731,0.0570600287861257,-9.605303588039252,-42.891213600779714,-3.3769376539064524,0.2036840948896952,-1.0687882893030434,0.05322186060541867,-9.267953501218074,-42.15690675946371,0.14586493359620722
-20.816418272467512,-52.229073227876206,-0.1473518060719903,-2.023641989414436,0.747169494425603,0.001569699785441,-20.821771899745613,-52.23143920954226,-0.13673128064033335,-2.019916718071329,0.7509720373759592,-0.009232727074277136,0.05653842269020193
-2.558052581554658,-0.135454716021683,-0.7649295160718143,0.0477899122012383,-10.968725910424157,-44.40089714914662,-2.348098896364263,0.06459711401726054,-0.6646650673361876,0.03734961219689126,-10.909498936670843,-44.82510961653179,0.08762212673629866
1.6076589729055484,-0.0924544625994551,-25.4730322722032,-58.85022795128095,6.913993464926221,-3.927072215543754,1.6179958391914768,-0.10160825750174873,-25.503367310264405,-58.73998286163257,6.837336603626849,-3.9417834485258325,0.13859174963825827
-15.0965471024068,-4.071337014901034,-4.525469446107866,-0.1171850595565958,-31.968448934418262,-61.60340696160409,-15.127428448376804,-4.0848694238433225,-4.555876143410956,-0.10717876435205653,-32.03401357818868,-60.960296119270424,0.11692443415653675
-38.89874178709541,-0.2491692022872309,-1.2738322835626357,-0.458660210375347,0.0268647468066263,-18.839415793253096,-39.09168729988414,-0.6558431342809854,-1.2096598523653483,-0.44295875603017976,0.07125041302413138,-19.27638451844723,0.08190884993887626
0.7954651184402215,0.177710789290758,-6.990086398928279,-17.98944819794363,1.0002404592024152,2.683575059051196,0.8107800659154982,0.17682526533176457,-6.978535904042488,-18.07293764817581,1.0376972219758045,2.6869400442462847,0.09923081250214882
-0.0160587482386574,-1.7078581914365054,-0.3149050753524819,0.0133069690744362,-19.23552646205995,-39.407627903366105,-0.0420858283009693,-1.665542361166672,-0.300157999650537,0.11628367570619957,-19.31460669997989,-40.336053543365324,0.1009378475378846
0.0096618669798553,-20.848205357135388,-50.803829300314696,0.0059782158996101,-2.23824929866828,0.0828969607239664,-0.02286558829086971,-20.847399893012835,-50.69410870554157,-0.026629078917039806,-2.2344606035230754,0.020310793744556577,0.06617074266079404
-0.7632549035440456,2.958383763346472,0.400482141728377,-31.77128151596464,-73.1582045045101,14.070879144178289,-0.7517620663337539,2.965519032732729,0.37208832060514396,-31.52476937316179,-72.4562251918328,13.987461197058565,0.2865328444873321
-3.671870827805124,1.7614609656651343,-0.1043433744288298,-18.170959096966776,-42.34477301129833,4.504203842306695,-3.648934357974099,1.8120210131304475,-0.0811126053871476,-18.195610751755794,-42.32857748343304,4.5706294363712345,0.08624322978717847
-7.437574861867155,-17.75052017321442,1.0190673956154586,2.5143126652158343,0.7184852056003594,0.1714631001004604,-7.292509611479112,-17.60159631947431,1.0382663863579182,2.5012939892659247,0.7173024081355379,0.1800907165927228,0.10968794338912535
-0.6627107195003991,-0.5932402587246668,0.0292433601520924,-12.21116486624838,-45.60857015952176,-1.8249668135325063,-0.50770480595952,-0.5624018550865912,0.04808441177203804,-12.407433603673098,-45.918796596269885,-1.9128471674055163,0.07525864268668347
-54.88788880640384,-0.0001308134675268,-2.4666948609273844,0.0173216043992446,2.5841828471434576e-06,-21.46413571234474,-54.87598030194022,-0.0031965544949343894,-2.4655872483244963,0.017892797980493924,-0.00045037088511890033,-21.4647982905135,0.055963459261497706
-1.408278603646137,0.475395173159602,-24.36584809791679,-62.96403254007907,-1.8008879407241087,3.2243011907444665,-1.413206688285392,0.47369623212914647,-24.342267970115188,-62.90118844525216,-1.7961650434725698,3.2244547874304175,0.08363275356995037
-0.0432219271978453,-11.624649018497292,-17.04595023366809,4.939487184294526,-1.5843972942281526,2.4328423423604124,-0.047743676286870596,-11.537196151246064,-17.01354654924603,4.849781048281642,-1.5889126586644409,2.446464518525019,0.08551652045451097
-1.6516574817279857,0.1051589670967783,0.0183176222342253,-19.091507660235862,-45.721261736286856,-0.1268566646238831,-1.6427866580659156,0.1298098058529149,-0.05373194049832364,-19.27801722099491,-46.021344961246996,0.08765880683245086,0.07324895740608572
9.577454685243828e-07,-21.46420639729952,-54.8878909539464,-0.0001309635666936,-2.4667592746229627,0.0173223196469335,-0.0012183619176084903,-21.466763222304166,-54.87926223867544,-0.0030420045669643514,-2.4654851448177624,0.018442759248273433,0.055985004237434355
-2.0241125863913805,0.746965291757102,0.0009547884576113,-20.80370286752078,-53.09518103098238,0.1462776069171456,-2.0208980548371756,0.7520487216080483,0.0006041198874982001,-20.910792290879726,-53.089390300467585,0.1280431351210609,0.05696340527148114
-3.282724699947804,-2.572723059209383,-1.4780325223487611,-0.0395064842593083,-22.13561125414413,-58.275118763217904,-3.495452197247687,-2.5874956728252982,-1.4967823918761383,-0.050174388928553526,-22.09098800120023,-58.272367446423345,0.12973768491365623
0.0009438519005341,-20.816962434535377,-52.22829971115141,-0.1479090892763755,-2.0241028449353067,0.7469554586285883,0.008144118793666166,-20.8434242605652,-52.31427667980097,-0.13071181122256803,-2.0350382033705046,0.7403331868533769,0.057158153159341696
-2.466699460797818,0.0173216487749302,2.442941344153378e-06,-21.46414079593072,-54.88788883525306,-0.0001308681957112,-2.4652643437575534,0.017826686890202836,-0.0005896347813632019,-21.46441250580017,-54.87718915336791,-0.0011085580570124876,0.05594612976297886
0.986040364944952,-0.1011979933540012,-28.25024297583454,-34.54776642388057,2.3682749376030854,-5.205725407372575,1.0228650881672383,-0.09272054330364199,-28.312794620537055,-34.78209445488335,2.173881006198428,-5.218964018541449,0.06889935903944111
-60.8976133392274,-1.028619877410038,1.2181821892302125,-0.8196780681355577,0.2720878542847005,-22.27892436995755,-62.67289962382847,-0.8712466542792754,1.1476757352709228,-0.7648964695895586,0.2136760421995092,-22.603002223840235,0.22239045385111145
-54.88789165568485,-0.0001309331657322,-2.4667758663703507,0.0173225195862928,6.339554584687472e-07,-21.464225069151148,-54.87638895310374,-0.0021732263985541067,-2.466310210704748,0.017914004616898183,-0.0007290616225645863,-21.464816773544953,0.05596344232019779
2.958383763346472,0.400482141728377,-31.77128151596464,-73.1582045045101,14.070879144178289,-0.9141188601427463,2.9457162990974552,0.3989018910208415,-30.73271526470819,-71.54731443153128,13.311481874710125,-1.0129869511769982,0.40144706590117285
-38.90060117900591,2.033893510943464,-0.8218282498277117,0.8298556894697776,0.0545995872352541,-14.082395406678897,-38.582710618801684,1.773024258852729,-0.7855584045302351,0.853926917133947,0.053064083104800375,-13.928658952048863,0.09656260862219956
-3.845492621012274,-0.1863089628313133,-17.359948763767918,-54.249708265411805,-17.64444114795008,-0.9483094435108158,-3.957777286187877,-0.11129713156436338,-17.434297367794443,-53.79876778255766,-18.93973929561298,-1.0166701194848713,0.2598523322313533
-44.3450020246082,-2.600893159689032,-0.5135975311626175,-0.6592109653446057,0.0388847647239052,-11.451365589392108,-44.094433037678755,-2.161176371944748,-0.46105644269184154,-0.6601567725574569,0.057399005758782096,-11.544500114523544,0.07487941814772303
-20.785586729017503,-6.260090498380696,-6.519206496895797,-0.2967071425255068,-32.81478193774932,-67.89812203224001,-20.83389005023264,-6.260181899565914,-6.517661956220593,-0.3029096136908507,-32.78066415975714,-68.35930966083743,0.09555058372821823
-54.8878909539464,-0.0001309635666936,-2.4667592746229627,0.0173223196469335,9.50850382195014e-07,-21.464206784555508,-54.87631053108089,-0.0023473531773561263,-2.46618321372128,0.017910764627288245,-0.0006839399916316324,-21.464811272584484,0.05596343335758225
0.3784547067056821,-2.2845805833061914,0.0261445745902968,-0.0090363796518569,-21.1932911025528,-17.341770295938005,-0.034226432104560445,-2.355011557646435,-0.04949765971770148,-0.0135872489885287,-20.861820650470577,-17.171096007388087,0.07122617491068373
2.349040036849916,0.2244142054807976,-22.66682761808832,-25.12415670800737,2.8727645455488484,-1.2765921331781864,2.2148063496533155,0.17632124446356556,-23.21051708861384,-26.213424136273943,3.0432917753043967,-1.3522994424040462,0.13308466780474437
1.6581614474437467,-1.002348121364745,0.2171452166470398,0.1161930271677887,-22.32945716351801,-56.54304665608877,1.6406618607072687,-0.9983449475754469,0.24262231316215832,0.08864546433783005,-22.285766805091498,-56.263787132016205,0.0826166393765313
-29.15873302086836,4.1289763030588045,-7.250179849936744,2.1609907866188536,-0.2135994991835598,-32.93288349832568,-29.192574601101143,4.301515888953986,-7.273897851163952,2.1915044840866784,-0.2113295871762073,-33.04936810190627,0.09984092218001384
8.12896795977389,-2.691677857678074,2.1120304327150072,0.0322900047106365,-15.801638961536527,-29.197106856776468,7.225609572518408,-2.8087831431711265,2.0941561210999566,-0.02380245216215826,-16.242080756976122,-30.017654446379765,0.45027114130836954
0.2795353698187476,-24.277742345826592,-62.3450178274211,4.687419889749763,1.1838749834699145,0.5257555495621061,0.28502744986312223,-24.18512388504135,-62.484165065412995,4.552894756667911,1.1859662243705635,0.5340613769910334,0.10287353316407821
-0.9483094435108158,-4.320931424492951,-0.2142876294265547,-17.222535317873206,-54.21439572810242,-18.776393630630665,-0.9662261480715983,-4.251646077517137,-0.25087099143047453,-17.203262004794112,-52.444699302403365,-18.61044319697828,0.22021509223508606
4.880405596030957,0.4562873369221777,-24.225186589004533,-30.274449203765883,7.048685680410211,-0.0903330516632618,4.857180024173886,0.4671414593047132,-24.424355502161234,-31.283585923388614,8.039063485407496,-0.055024090142694604,0.1454928190796274
-47.855822297298246,-2.70616470970603,0.5087232074825246,-1.1647124710323202,0.2141137644370087,-19.171032186782377,-48.3522387293159,-2.8155258018454106,0.4871393332465175,-1.1486092260270055,0.2092520637496662,-19.205922727587108,0.07852344019504831
-30.359337459287246,-69.49427660325767,12.244988268297964,-1.0015859191960137,2.631813614154882,0.3807566348499246,-30.523632629458803,-69.95295759355885,12.612340061083444,-0.9607005745963235,2.6189023303487886,0.3878055547426982,0.12970719092262262
-2.5298509755206866,-1.5654001292464792,-0.1371657141153919,-14.866192393008646,-31.289943522624924,-9.492805876168406,-2.49236928776304,-1.3489050237719766,-0.08137972655867998,-14.734298627877592,-32.70031296307525,-9.446026204823738,0.2170912541870884
4.93925371045313,-0.2425437307834453,-26.398742576426944,-38.43867476529928,16.287401521641357,-5.932571210395835,4.953989532264451,-0.23323289727223245,-26.211683484187656,-38.219088261401396,16.42467622104823,-5.9433512739279735,0.09807425552141713
-20.80368370463003,-53.09437695510045,0.1459222758088154,-2.0079081330754085,0.7721722185657582,-0.0014366872623539,-20.78586300450482,-53.06069143254945,0.1406039375558521,-2.0070381150626417,0.7697759396826314,-0.0009898102850911528,0.05659259858838728
-15.466312940531568,7.247082727020745,0.5285473491510292,2.581300952032714,0.0141083752887382,-5.094374392304064,-15.118094407211117,7.346117074993856,0.5363884223199022,2.6007499457944263,0.0025967370337873774,-5.347019423624147,0.16660532350092372
-0.9961659599957582,4.373704419490668,0.3961459064709466,-25.54317279197528,-28.35635838321679,6.119256074781075,-1.0316477459639373,4.336222829548518,0.41316779038314166,-25.599834366015813,-28.394936667456932,6.333436720684631,0.13768725956742078
-20.482292926396884,-4.590272547196252,-5.749690939849644,-0.4505566466067794,-23.99735889265,-54.19997920187714,-20.88505265885601,-4.5752818209148245,-5.771048506416037,-0.45892947528803063,-23.85475853513924,-54.406916835721404,0.1370704633609343
0.0834823750840107,-22.48913249323265,-22.80271197655885,2.2275402881829973,-1.4973904255688626,1.3156481044316588,0.09112969798184167,-22.12795417353663,-22.273815146550078,2.2109629682821605,-1.4973471181971831,1.3159974461698312,0.1089989840699197
-17.108065035289815,-5.148745240714363,-5.378082528916593,-0.1546990261064727,-34.102540257151205,-64.70633464956222,-17.03186839607349,-5.15077671347234,-5.380235381728902,-0.15048102854192846,-34.06100586018558,-64.53995008384881,0.15250706549689785
-16.07908871887091,-35.73620954762627,-9.653396899451195,-3.204067438310256,-2.4608643405587203,-0.3145399505941856,-15.705666141981908,-34.53882882082371,-9.687651168397906,-3.0991319277417233,-2.3890719679703807,-0.3284803860225338,0.2536301875334097
-44.22166555097756,-10.83912197468092,-0.3487181734384094,-4.278657339913695,0.2703947547957786,-23.02057168741469,-46.06337907516263,-9.89886850964308,-2.935191808302264,-6.969755750350387,0.2152165103424295,-23.96221617401079,7.483863021825008
-44.81174112582375,-12.152849249818324,-0.083944006735725,-5.050218472092232,0.2880372955663969,-23.32688402250804,-46.89935764596294,-10.854920069400805,-1.51658733329036,-6.8411790085498225,-0.2458189765050065,-25.024285180442803,5.072610639238966
2.183251042551006e-06,-21.464150542703607,-54.88788916463814,-0.0001308882137054,-2.466708635491333,0.0173217478381044,-0.0009572174990353233,-21.466215589862713,-54.879240385871526,-0.003653032211104801,-2.465072160538739,0.018407319735160854,0.0559850189854878
-52.228607500780086,-0.1479006765821579,-2.024087702395763,0.746926685006201,0.0009148213236371,-20.81690823835317,-52.24283448980441,-0.1507061418392368,-2.0263998950158566,0.7479636964194185,0.0012796666862300299,-20.842592966523625,0.056627528272421346
2.99403805989952,0.1977152430644648,-23.97210012948488,-36.18912190196113,3.668569459688199,-2.7882131719374,3.014226698226736,0.1824056892874637,-23.873583348829257,-35.923652878536075,3.538345142450112,-2.782225171218755,0.1296440362884177
-55.69535841353232,-3.2693342303114514,-3.210360961688856,-0.8187312694786382,-0.0963830555844698,-24.48009737546933,-56.1125019053743,-3.2431203190819815,-3.223692847882319,-0.8276228126145782,-0.08366091773359585,-24.829485165181723,0.07576187810109691
-5.1064176985232885,-3.955619181849856,-1.3572996339897043,-0.1199965516057392,-26.3251311660796,-57.34281823383998,-5.41333597178982,-3.856930826909718,-1.474449976557537,-0.12787256531365188,-26.63098907595281,-58.62487210074323,0.18114141217053903
9.174826876409874,-1.0037616237315303,1.1227742872022828,0.1756784323859293,-24.9366709798402,-66.49475285666621,8.023138938516922,-1.1818845080733809,1.0939304486175558,0.194174961694074,-24.947992739073243,-66.42310769295,0.11390963382969876
-57.92274029135203,0.5210831204316155,-1.8274207423248907,0.0146125504623616,-0.0127312964585314,-20.02833735362179,-57.746677844506394,0.6574338255618386,-1.8473835642564609,-0.008287651593946066,-0.02383355095389561,-20.016032668813523,0.07942990933673078
0.621605064245031,-1.0927787800341664,0.0528736708436355,-10.229500926745647,-43.22985788745675,-3.6887432783163288,0.46885960968566565,-1.0358901047900844,0.03905112221991658,-9.895529564569301,-42.351213765949296,-4.078970133858206,0.12609999885776024
0.1908189820933756,-23.833518751057778,-54.8731671648908,11.30336659397416,-1.8168076300763605,3.022825015596017,0.2029908755711176,-23.694077128181043,-53.82219890460601,9.734051828928273,-1.8596671281125055,3.053876099551985,0.09464700087214983
0.0151628701639627,-13.327729346052346,-32.93750756013028,-0.4477512303298798,-1.0490801991101,0.1738976895977393,0.06387237214607921,-12.349291703387223,-31.560973581366852,-0.4302803622516649,-0.9638015816428833,0.2952433124884237,0.12311115454354327
-0.0646342632250347,-24.588422562815783,-59.78017106129081,-6.0517966794199065,-3.1783343626647467,-2.2311560716690098,-0.06589538249604132,-24.62843128334397,-59.5194025345084,-6.0272860838067,-3.1732609509479737,-2.239494189676506,0.1067965239475861
-0.0001308975570504,-2.46673842538565,0.0173220841813364,1.403441109618833e-06,-21.46418378721688,-54.88789040928501,-0.0026174257059210504,-2.466045449017429,0.018056270856732226,-0.0008991453690896378,-21.46508098795391,-54.878484178109375,0.0559567520594364
0.7590741850493254,0.1734313668876724,-7.437574861867155,-17.75052017321442,1.0190673956154586,2.5143126652158343,0.7822411916255838,0.17137269332003768,-7.3992700102451465,-17.82307037818009,1.019972779373461,2.494251268283435,0.11075516379269534
-1.0417659540649755,1.3627666914223278,0.2061985206420457,-26.151958468431307,-69.16807137019461,9.980506676329387,-1.086051476558623,1.3439347028464113,0.16595244784627994,-26.194813284064196,-69.15299923715565,9.732782148354545,0.11381904640312901
0.0094533914911461,-22.289229299124628,-55.29261980691108,1.0983751152432226,-1.6072996852193149,0.1566151703818155,0.03378330571968036,-22.232048022064816,-55.22792652742987,1.112215201123604,-1.5796880490954095,0.121801049953433,0.07901793466236673
-52.23005528889955,-0.146885241899448,-2.0242644591989905,0.7470497699727289,0.0005415694720379,-20.817154839188184,-52.251316589628914,-0.14172484244772932,-2.024116838724069,0.7475599404401407,-0.0028742732405362403,-20.829791579101766,0.05666418356385994
-39.34035944285953,0.0053051944166318,-1.5011578973767472,-0.1693185486735107,0.0089743441477508,-18.65821994790529,-64.65211479250502,2.1410224769183515,-3.4909092229612106,-0.6962677715335843,1.152376536040265,-20.7575014146405,26.81950799034137
-21.8076450543914,-48.870307562070266,-0.4094329772032036,-1.7680275119349138,-0.2264932474392115,0.0422241810221837,-21.563797288957403,-48.66536504982423,-0.5965773423893097,-1.7689733419915683,-0.28876209170653055,0.06772326466307277,0.07971262563528758
-0.0001308778788647,-2.466725500676536,0.0173219385136544,1.7183673977461333e-06,-21.464169532607443,-54.88788995065824,-0.002778766116080078,-2.4659145621189964,0.01806271132522852,-0.0008407298515180628,-21.46500065753571,-54.87863010355329,0.05595675474548689
-23.23483297637347,-41.59198310345235,2.1507133843112616,0.6128185350397781,-0.4254345552245157,0.3837435521887245,-23.13314070083544,-40.47350553491651,2.062407351925117,0.662597460452,-0.43995225778920855,0.3947603405175961,0.08868917221797479
-51.44564548258839,-3.009160950138328,0.2929030115488742,-0.4017298278225607,0.0467790159196162,-16.718124385373212,-51.360399868709464,-2.4104784641158403,0.09611085274028142,-0.08930959009580874,0.02707920017860488,-17.897061248737373,0.43362407131817027
-21.46414079593072,-54.88788883525306,-0.0001308681957112,-2.466699808680054,0.0173216525033803,2.4324111396725845e-06,-21.4659899610283,-54.877492285099834,-0.003860083793654212,-2.465193461994147,0.018252727419621806,-0.0009788911902433028,0.05594596588974032
-0.0105090584922128,4.470606937081565,0.1052725625900045,-14.81804012860331,-41.06934536348631,21.119949017810765,-0.9258419097054116,2.4151069760133623,0.33122865230211573,-14.398290898115164,-42.45678335209743,12.98506088177453,21.217420344750813
-2.204017115029994,-0.7488779568043107,-0.8393984482594641,0.0431320827727045,-16.484201173155395,-37.027103119154056,-2.051549213904309,-0.7441460134823501,-0.833058396421066,0.0401159637382591,-16.54288019219848,-37.35521545052143,0.06605529104802277
-21.46419416375624,-54.88789057775902,-0.0001309522798015,-2.466748176211494,0.0173221910431117,1.1838516405943862e-06,-21.466528114917082,-54.87746047008568,-0.003217210560876538,-2.4655889825489794,0.01829379227865502,-0.001469325358812057,0.05594593933746883
-20.039680056621137,0.0071600426540776,-1.489053517810345,-0.2540661853929638,0.0056588749805034,-24.38913853554052,-19.938635787038038,-0.09221363838742036,-1.5719572676167637,-0.24489780907975955,-0.009910146218544469,-18.561798122851542,0.0782417388556873
-0.8189693291689759,-5.6754438367653,-0.2823037624116302,-17.287710699953863,-52.12420077101312,-23.15371560944495,-0.8350728968736831,-5.6850989737265465,-0.29150271687532836,-17.27018456391869,-53.31055094483747,-24.42320188712256,0.10103967603907127
-12.5597940249237,-23.14936964426486,-1.011956757565738,0.1540305237436864,0.0812542469786002,0.0031549112575514,-12.52985727186146,-23.162805741910915,-0.8368457034251833,0.14156549440170352,0.06860660581469347,0.0012329708655727245,0.06824596496485147
-56.23151963597366,-5.188603482338236,-3.051833925821429,-1.7608098020286729,-0.0874761533512018,-22.49820628052943,-56.59479453955282,-5.188759120268969,-3.11139823942608,-1.820844209191364,-0.059440804284690785,-22.6640806704836,0.07765997811292569
-0.5400419050480499,-15.706532489818398,-33.00459892721265,-2.721740739350881,-5.20544594829858,-0.0462103003012314,-0.5555496700926739,-16.091188094241097,-35.65683019372875,-2.2405659317082893,-5.145851947200157,-0.11280337142188301,0.5767528511777507
0.3094685328693429,-2.601585650630069,0.1503867595460793,-0.0228455420972286,-20.76805780299781,-39.075756428655055,0.39130580949085925,-2.5993168636832706,0.07941559594919312,0.03575477665924609,-21.049670998537295,-39.42511527120405,0.06784805421752726
9.4884865670844,-0.4270779492510183,1.416344149927841,0.1914225641373023,-24.70107468176353,-67.1725546706087,9.194971277998775,-0.5017636631885125,1.4664088003614921,0.18296159110630583,-24.50546840461493,-67.25101818122857,0.1414632200081407
32.55536802830785,-3.744394344746124,3.4714529723122904,0.026266407002955,-7.1530210420390095,-13.392290899265369,2.623440343038899,-0.35643144646549274,-0.9928633695309408,-3.974346139529917,-0.08069437306520655,-3.398357544353958,196.302136616579
6.340017009583963,0.3945527365260738,-15.084500784956116,-42.74737127576251,21.172934537487468,-2.188258299917665,6.304825344904316,0.37732456893532884,-15.261618627192036,-43.280866544000105,21.250040949684035,-2.215570443190501,0.2285083421710603
0.2110226095669852,0.004918732156961,-9.223883036226788,-21.21462330578256,-1.224375587496611,0.8893442016930646,0.22513234790269365,0.003051707891497557,-9.243043269262522,-21.237267460112434,-1.1414289215553595,0.8865570473675319,0.08035846733405738
-64.01387131768664,-1.317763047018374,2.0488675635401754,-1.0536199823285068,0.3043034108167013,-23.90457782821386,-64.08236333508171,-1.2554768850759501,2.046928768421054,-1.0302569398438806,0.3179929475504082,-24.01138829650489,0.15151300359069997
-26.535648259092053,-64.57154918005716,15.792421516503287,0.6913066821858257,3.9214055502584015,0.4956660462733821,-26.519530740582184,-63.983555124967296,15.464278543634919,0.6753547608431916,3.9375293571642374,0.4960447411836526,0.08259235363023909
-52.22899524818711,-0.1483222222113461,-2.0240194083233924,0.7468088630587613,0.0009130162742869,-20.816678890015265,-52.24136610825735,-0.14039187532375763,-2.0247837241533375,0.7463893880908472,-0.002601853357930395,-20.830127640765568,0.05667009989453864
-0.1080341106932081,-30.726914623607765,-60.26840277957533,-13.870938316885368,-3.874703029222341,-4.232251545028924,-0.12505592122175813,-30.732365372505583,-60.09679543828884,-13.952843627761297,-3.862437609337235,-4.208453390269987,0.10164602301812597
2.96156749974651,-2.530045112414152,1.3775543175772833,0.0530115011834416,-19.8666819911484,-49.85208692110762,2.7655896268636866,-2.52151341967965,1.3305555599206116,0.0673129697210868,-19.90532500319432,-49.81858267826044,0.096515964684037
-2.466716367970105,0.0173218325041729,1.9584102640772894e-06,-21.46415947150702,-54.88788962016935,-0.0001308620936395,-2.465469113243671,0.01783832730257018,-0.0006932594237696321,-21.464628817011544,-54.87719072985146,-0.0009906967019333024,0.05594611004061467
-1.4061011377480572,0.1171997490953396,-0.0540662409182175,-17.493906837524406,-54.51748214696615,-0.0168409377826751,-1.4565426866943199,-0.05911348140352857,-0.0034995778227084884,-17.06000660951804,-54.03295275437722,0.015494718159857257,0.13136553844045484
0.0110143840520187,0.0333206273022525,-21.3890968674718,-35.00869245855913,-0.3654672440426521,-2.309940630403556,-0.08398279051334612,0.05136856047033689,-21.017205524771498,-34.302028426661764,-0.16140064263458953,-2.3257622744966966,0.06620927180659142
-2.151706337548644,0.2487394068926268,-0.8932169058760064,0.0450218582376221,-11.522762222822692,-44.43612920497505,-3.134642385105508,0.04671430039047664,-0.8678337665195102,0.035014398961948245,-11.50729292720709,-44.87630744085118,0.09175101713372347
-24.68973696681548,-50.74326031819855,-35.85779504141529,-5.237316525597921,-8.900212573741012,-0.6678365675442839,-24.702564817914595,-50.954038248134864,-35.7544184618073,-5.252344065206634,-8.917131272275832,-0.6651314369431196,0.1226393515367683
-18.35393292825928,-39.7545246331532,7.937376498607582,-3.620496404206104,2.666952492953389,-0.0086219572858931,-18.59094024113412,-40.22227325518804,7.974736990160977,-3.6442074598126055,2.683280448897335,-0.002521744559999206,0.10175303169477634
4.28789593365369,0.5577769834403903,-26.170522110727585,-58.20081791630434,13.368337494718372,0.0817920187634562,4.205966756816565,0.5207452094934979,-26.41462401300356,-58.81011176070206,13.894772341284806,0.09251637158092763,0.09758365739002461
-0.0022793859258327,-20.800998438227047,-53.09157687945745,0.1574504796647087,-2.0073351729229176,0.7753498359484141,-0.012999950155517581,-20.780723386648646,-53.050217842106576,0.18094223592061098,-1.9997403440842731,0.7813143538503482,0.0573789762575736
-8.803409651819699,-0.6285800009738228,-24.600132579000263,-44.95914449398416,-27.115914350418684,-5.807663340991217,-8.78964614474217,-0.6246454593663806,-24.558833213344165,-45.27780198924226,-26.747747930737773,-5.796024297641068,0.09115001821245206
-5.932571210395835,4.985028234687358,-0.2468926987635462,-26.53692067216779,-38.546778337397896,16.707785857555447,-5.941919109929131,5.085274169154538,-0.25159584291520076,-26.34690560884458,-39.07000861907204,16.168490769871426,0.2514711933545677
-65.72709533206853,-9.317013023952512,-5.191447530925663,-4.45060743457106,0.0582205666356642,-34.70230185450315,-60.41679248023556,-20.195559534212542,-4.709689227531925,-5.435431358198883,-0.4501752994249877,-30.006960124602855,56.045857576758486
0.3838265522002423,-23.23483297637347,-41.59198310345235,2.1507133843112616,0.6128185350397781,-0.4254345552245157,0.38892999695893593,-23.18376198883145,-40.130617089857424,2.150250877868963,0.6581416641356839,-0.4557488875729412,0.10577828816169377
-0.2186213939865343,0.0196832029534308,-18.50736355695616,-20.01150368270607,0.0045677113522617,-1.4901429446418517,-0.20632950276529982,0.010764248455416237,-18.434783194156807,-19.816764570713985,-0.16131643878532032,-1.5086276103602358,0.09003633932905264
0.0225179677570204,-20.347427781665715,-22.643310376366955,0.074500657200131,-1.474544253492346,0.4376744325836802,0.027358916580851655,-20.531875501191593,-22.98077444315686,-0.02694829559459322,-1.5079875687304423,0.4228324708199125,0.10046496379575065
-0.1479141836151818,-2.0240794995988547,0.7469094793443027,0.000897224277621,-20.80361888800933,-53.09423317532912,-0.14742941036990942,-2.0208118465374127,0.7363214407096734,-0.0042997393442050225,-21.0091202825094,-53.17157155686232,0.056831402154663424
-1.454802750722403,0.0684442162434947,-6.374120180312212,-38.87276167911048,-4.5501814777521385,1.0896131287513675,-1.44564936128692,0.08821456369162206,-6.5557795571431825,-38.24788004029506,-5.253601224780596,1.107986065786065,0.10530265802002892
1.4094476715115734,-0.0370437470467985,-19.20229217420495,-35.56609012573423,4.097016745225024,-2.34864372084166,1.3586841143115862,0.016632975076760204,-19.099207674865056,-35.37598709321719,3.831415919760559,-2.461669173897036,0.267010097722298
-6.682996119076813,4.190788961588419,-0.2295730856443383,-35.50633560002154,-55.55215319979971,17.77169059320274,-6.685404746223483,4.184035293311698,-0.22797719642381553,-35.47937853968424,-55.37618049273914,17.71733619098706,0.09903467023186541
4.303286256647466,-0.1951440026238907,-35.58931272026027,-54.351321513378494,18.24535240122805,-6.601661330446972,4.338498688748972,-0.19280212945641514,-35.748658244425386,-54.385593718424516,18.274351943682888,-6.6307840757903795,0.12781330269137148
0.1051769080072786,-0.0091811732612714,-21.02199570836216,-51.17208312843781,0.0220065113908995,-2.285954726010295,0.06534935889249027,-0.041707213955646694,-21.229007361725962,-51.54631257578467,0.12037430132068039,-2.2831362342744796,0.0664703668332074
0.0173225066746702,6.467408252215732e-07,-21.46422430204346,-54.88789164476386,-0.0001309329672675,-2.466775527112502,0.018687675275259608,-0.0011176603184139822,-21.466594274242198,-54.880392475686676,-0.0028029875627453293,-2.4660374341763713,0.05592846129291407
-2.633538409335983,-0.3462185539648487,-16.07908871887091,-35.73620954762627,-9.653396899451195,-3.204067438310256,-2.6417278488555667,-0.38695832802216046,-16.00082534628939,-36.64864068622205,-8.99587404421709,-2.9673363473570475,0.2750043083932703
1.9176863396742665,-1.3462534658937455,0.3546489772095866,0.0046133831512284,-18.46338578576396,-44.31215310229794,1.79146941512181,-1.2799948475844758,0.3900529873186258,0.002678870359552832,-18.529176971150548,-44.651817134018756,0.09078710823216984
-50.63994737892925,-2.329087276021121,-1.0435001811416509,-0.4619910047354968,-0.0064209207296886,-22.53498781593049,-50.494426941588245,-2.248203478004143,-1.0714319300621469,-0.9660290596393395,-0.10666546325694526,-22.29716330861629,0.46801064207126974
-5.1310604676678615,-5.220195485917997,-0.1522487224761713,-33.544211642917,-64.8075487822106,-16.354284472517712,-5.136630717462154,-5.226334259632377,-0.15105619889869804,-33.60896017353073,-64.7034494011146,-16.453528107697423,0.0872883732629568
0.5584478362527062,-23.75281285300485,-37.45588806704148,11.781810930401942,0.9469953685840448,5.408762820130729,0.6529220679888823,-26.79702060670268,-42.98522388210654,14.471223688448845,-0.02023861019325146,5.879641304495749,14.140061925299072
-2.7321077858030605,-0.0218740847853225,-0.1189944447395618,-19.83111178945375,-55.22649393574445,-0.6218483753215288,-2.7159348416412286,-0.017649237744308266,-0.13608304823719664,-19.988994310350563,-55.13281995484249,-0.7806264877836497,0.09048663106573618
-20.36189603269083,-38.2350445023544,0.0136294400168714,-2.264667243624721,0.0527933051417812,0.0012442831902346,-20.017872508367873,-37.42914155396738,-0.015640072271594363,-2.2195986574121207,-0.004905450713749815,0.08912110802089046,0.0667423249525918
-17.15252267233021,0.2753710902863538,-3.505451965243208,0.0463433617189592,-0.1270043298126189,-10.629073901295726,-17.154822586447835,0.32680382948046827,-3.517951204797228,0.04750837837363164,-0.11885308828153995,-10.452513471744851,0.10797884839984495
0.7898141156472976,2.0971749276118694,0.0889024676174749,-8.797592061017916,-32.36202103992237,7.317874833042357,0.7306426741770906,2.101619849962347,0.0864057570502581,-8.793966342233091,-32.628240175666576,7.103590250264119,0.12609063604488502
-48.2985147871488,-12.956364349287783,-1.8711467790360623,-4.179369590141385,-0.2294193689088977,-18.41559110748885,-47.3255584035187,-11.815079429397201,-1.7689333622084007,-4.246254499088817,-0.24735866792883598,-15.441041356757523,0.6183654934513563
-0.4449468510001575,0.4251532606281843,-21.59184550869045,-42.66466218108543,2.0562469935425605,0.808989211461919,-0.41309815048279575,0.423225429427891,-21.56520269709756,-43.171257247710145,2.10829323783787,0.8126088101410445,0.14299739476941586
-1.4107718784085743,0.2589116230253052,-18.596501463202024,-47.6888093557867,-3.554044822394622,1.1830307650559917,-1.4073518714717146,0.2683875470866184,-18.590256986566573,-47.4638714802353,-3.444844842409111,1.1940143749633805,0.07578892696303474
0.1298415040960447,-7.47304523174845,-32.384777628883455,6.779768051940908,0.7804971910839165,2.2927488635873297,0.13014263256866343,-7.3473539932673475,-32.13203686903171,6.9585965007765935,0.7945131160092274,2.3601183354161677,0.1304594196840505
-23.64655049309235,-56.79356097995783,-6.026962498212819,-3.3786230792865184,-2.1387974955385496,-0.1092641069890813,-23.72197395501246,-58.35215400681295,-4.801987928501035,-3.3628370022812533,-2.056278165828701,-0.1438465766268564,0.10680732038752372
-53.82357919755503,-7.337107797889752,-1.5758068021770049,-1.6325182778802458,-0.0354765161248525,-18.00347310067281,-52.88760483178157,-8.014850457127523,-1.5838115573912432,-1.6484808394246784,-0.029839338653573577,-18.58643538094202,0.10611679534306195
0.0760020415803979,-12.953552377320133,-37.93981699037032,2.4873340308908416,-0.6457171861861309,0.9925372462838132,0.06472793013847422,-13.197932637519102,-38.74965634722139,2.941085351391621,-0.6611188414686069,1.0083247999251057,0.07704590066597139
-0.0001309308654929,-2.466772076110305,0.0173224746861419,7.030942551780789e-07,-21.4642208742181,-54.88789154444579,-0.002246859331989981,-2.4663511281330557,0.01804290020618282,-0.001027573656557479,-21.46526442072002,-54.878175056632244,0.055956762338517096
-33.044250436521914,10.121661650853138,0.4677228161335935,5.49445615624979,0.5503596092747983,-24.737829484799445,-33.39695407983629,10.29014856787579,0.46419382230337547,5.495664842414271,0.5521927242945317,-24.743422212288152,0.10726263238819134
-1.164324759333344,1.295402859559648,-0.9799722134159732,0.303898654309235,-22.3344448114862,-47.55213677248805,-1.1091849651459142,1.3402645156795643,-1.0625375388616902,0.2903570021289852,-21.926526668569892,-47.079151717526315,0.12282097000035397
0.8171010101737262,-1.786019561223731,0.4259229333240774,0.011276740961698,-18.144034417147264,-38.305807144070215,0.6630292660697705,-1.9659716349906375,0.37159667223681936,0.027728184507481046,-18.03997222615621,-37.67922489785997,0.09565850172835799
0.0007927126289731,4.5188958538496,21.95290015738844,32.55536802830785,-3.744394344746124,3.4714529723122904,-1.591142797110301,-3.1959475856781943,-1.5822541630039026,6.345749140389062,1.0185037064045375,-0.06643473314521131,182.9158146605229
-1.717279782410737,-0.03402477615943,-0.0073122745279495,-19.7772443158193,-57.95055055894985,0.4567962975326533,-1.7511251096379965,-0.03158123881280517,-0.030874814005869666,-19.841384420292798,-58.219659122261874,0.43446046670879923,0.08091034529120766
2.1711499617578105,0.0107582179855055,-7.563732173418353,-18.073472442988784,6.042715491105924,0.1835544093264843,2.1722333487829673,0.005361539453694775,-7.61964546448894,-18.03396484563939,6.064861379639979,0.1931363571343212,0.07454415792923119
-11.287739214760151,-31.87000055355181,31.01423361088905,-1.6875424460742083,7.540484762694508,0.3210101338252685,-11.318633971805411,-32.08564445640752,31.175257258832033,-1.701259239754279,7.530529822125246,0.32535977372012326,0.09816771265277358
-0.2955884146492436,-13.832650284708402,-23.592045723548143,11.241923256024794,-5.33651286444446,4.414843212057348,-0.23484551151059208,-13.50032176822689,-21.933304533795308,10.989254962874758,-5.790534955541133,4.349426719909417,4.147534236137793
1.035751166799465,4.676190830933558,0.4533381315791326,-29.901065392617305,-70.56091227341176,21.629682595447065,0.9906743070710036,4.7117758351506325,0.41967125440854147,-29.986358760999707,-71.47991673019396,22.775734273766375,0.28719910903293244
-2.3446159380423395,0.2934293390891825,-24.456855920608334,-46.81674636269733,-5.3910012309878095,-0.89156711118537,-2.3905882620013585,0.32405673701447313,-24.624934318622365,-47.26355068467194,-5.32483515996671,-0.9397151189439441,0.1369000594029821
-19.677534856560968,-57.985522723839104,0.0916918792197493,-1.6281088162674615,-0.0808032674232802,-0.001978594042789,-19.422849463503326,-57.341333898543326,0.26176051286429924,-1.572336773487791,-0.05335985545548283,0.024129793356223672,0.08114358423269796
-26.057869412803264,11.621139125298736,-3.184580504916965,3.029659073790035,0.1431700748680393,-14.150190302903091,-26.226461749709983,11.352965549502358,-3.230359573304945,3.0278000938911447,0.14558608492615122,-14.207790587425052,0.09765761574740073
0.0173221477538312,1.2760116776121637e-06,-21.464189949672573,-54.88789044600998,-0.0001309477707593,-2.466744353983155,0.018653013969014864,-0.000970132828797432,-21.466373673471026,-54.88045944544865,-0.003176564124487413,-2.4658549883787657,0.05592845105572697
-24.863241404854616,-56.587115266783975,12.997003573735858,-1.900841852964076,3.857279709335534,0.199344560717231,-25.06876877029731,-56.280877213352596,13.40508690575156,-1.911367719919582,3.8072629733993892,0.22399551390464012,0.11656747724401062
15.149063207166986,-4.190288321944006,3.707681349030712,0.2124598373067228,-14.341157833774997,-29.734469141388804,15.157275362577636,-4.1932592095541565,3.706013545057786,0.2082114359786118,-14.269011110189297,-30.233733012647576,0.11257735272635405
-0.0001309502439767,-2.466746436818376,0.017322171043301,1.222008055318659e-06,-21.464192623443243,-54.887890529680654,-0.0025229368197869917,-2.4661225826321242,0.018052677888817925,-0.0009326646997465105,-21.465127800083224,-54.8784015446339,0.055956752470726956
0.0916408220014482,-0.4990052261892761,0.1078826588429246,-22.2425982695456,-63.663356977712745,-0.60341307278248,0.07074851051527276,-0.45742019037126624,0.08481846837314677,-22.125043311292536,-63.332332204710895,-0.69045250414419,0.1714625508336305
-9.33563975364819,2.278628434364143,-2.133429187111308,0.1588147415984013,-9.290433949479556,-36.56620619252844,-9.356055157029616,2.272373883061775,-2.135548892708705,0.15961683701503837,-9.29908497500238,-36.42501199746505,0.07340608599476828
0.0056588749805034,-24.38913853554052,-59.18288316301072,26.26372026871251,5.076226380498488,5.654380893855971,-0.19503067435175137,-7.605616438983161,-23.620343584341864,13.873737376166314,1.6473834444296376,1.363071327294818,188.9287675903877
-0.0001309738638362,-2.466772769989968,0.0173224781930098,6.905967139420899e-07,-21.46422164207475,-54.88789140907281,-0.0022398396845346724,-2.4663569064177864,0.018042687561660387,-0.0010298730468072392,-21.465267766243414,-54.878169495412976,0.05595676276953232
-58.15665536687597,-12.722399177817913,-3.487099116629862,-3.6883337111559977,-0.1003778148006633,-29.72779848965984,-58.23524476564853,-12.64890131696518,-3.518929431279844,-3.743430535021645,-0.10135950851173448,-29.748968207733697,0.0991022399231476
-31.442894245551123,1.5164145447869903,-4.448004332303174,0.8702754041989034,-0.1001810981845962,-25.34757778464436,-30.280150992085964,1.420127157041179,-4.338623068172012,0.7641532987864252,-0.11028993022893019,-24.693811279481906,0.12564834743391562
-0.0757510162613997,-25.39640460846873,-60.01482357540297,-7.065076413871683,-3.370264980070078,-2.49047377461559,-0.08054464281276097,-25.41637570072878,-60.2364667502938,-6.896263452770739,-3.4037960500083084,-2.497180661997154,0.11087734356552592
0.2733545461013668,-18.432553359574413,-47.723895918688456,-3.7010430551587135,1.4057522225607817,-1.5783625413019997,0.2841885453676376,-18.09291160585218,-47.628265914479016,-3.964044524654966,1.43274890629624,-1.5670791370069352,0.10910082101937424
-1.489053517810345,-0.2540661853929638,0.0056588749805034,-24.38913853554052,-59.18288316301072,26.26372026871251,-1.2039413679771798,-0.27908969766902203,-0.917015592671369,-13.410148395503292,-46.60822093470563,29.24775237830977,141.98853550413332
-3.190312363392578,0.407793656461385,-25.314292226429583,-60.02150320226072,-8.179103032227497,0.0694524996220432,-3.1743257621277046,0.40696227293622655,-25.367498837808967,-60.25181855570054,-8.205938207172494,0.0753130839638736,0.07350504902227972
-30.12127567485725,-31.8826988057986,8.336263413659648,-2.51474088782294,5.2960040355770674,0.3557878880479562,-30.140529211058293,-31.958719211309926,8.297698870124535,-2.5116287938802486,5.315386887038265,0.35562195552659404,0.0690391583806822
0.009261390512735,-0.000694150514337,-13.351842464304369,-28.741470869097974,-0.8769521066008272,0.0746819425596919,0.007261476656779564,-0.003314261002209662,-13.359078552856488,-28.83353133358611,-0.8444032504381767,0.07402358562207212,0.07954287019193562
-54.887890565992976,-0.000130951891199,-2.466747834111672,0.0173221871065922,1.1913202205515777e-06,-21.46419416375624,-54.87625517298693,-0.0024769069350440986,-2.466090019711345,0.017908226813347028,-0.0006496370360764558,-21.46480806411455,0.05596343001152282
-3.2693342303114514,-3.210360961688856,-0.8187312694786382,-0.0963830555844698,-24.48009737546933,-55.33935279839959,-3.2390732530038804,-3.2325095579755043,-0.8518823387437351,-0.08561214703760811,-24.615069384114236,-55.27574665648831,0.08656791621878956
3.690082747490487,-0.0165131853235881,-17.30237619898336,-36.28786992224784,10.088091132393536,-4.0076997007116,3.7388739962862587,-0.018160276101468753,-17.382737879337583,-36.51402196865001,9.999798822148335,-3.9803643025486934,0.08198414771708618
3.1247788101475145,0.3509872026689136,-24.078982926635994,-51.43482423107067,6.887588927148359,-0.6692061305931328,2.956249559347498,0.34885491530957324,-24.39845076621168,-52.384865968102076,8.839828917941759,-0.6358460063333382,0.13134402024299807
-2.466713556771578,0.0173218062996932,2.034921483397861e-06,-21.46415637385776,-54.88788935949565,-0.0001308991388682,-2.465436335328377,0.01783642359851001,-0.0006768678753132917,-21.464594300490035,-54.87718996008425,-0.001009495733114818,0.05594611257159632
-0.0001309742712355,-2.466773449010358,0.0173224862299839,6.781361746456848e-07,-21.46422240157031,-54.88789158925453,-0.002233040938335762,-2.466362585396382,0.01804246563324341,-0.0010321336771319523,-21.46527118336803,-54.87816441547659,0.05595676319034415
3.022825015596017,0.1783514912591563,-23.657085249211114,-54.55688794951102,9.692081988954191,-1.8243765797339075,2.955293200320966,0.18500594985448515,-23.855015017985835,-54.69976409505102,10.639483752543583,-1.8152901454900885,0.10728076155796562
-0.0491203318078557,2.0572789356026084,0.0084647403460482,-8.211477209967367,-18.691371961879305,5.775855709964797,-0.024762857783713343,2.0619330710652832,0.006636199586466773,-8.190583918874722,-18.698634981431162,5.72793241798837,0.07023560143752339
-0.0001309295050936,-2.466770009512864,0.0173224502768795,7.415680805762501e-07,-21.464218597543027,-54.88789147736257,-0.002267739363560395,-2.4663336867747603,0.018043592436129074,-0.0010205840659054388,-21.4652541309257,-54.87819135501138,0.05595676112448378
12.150162958269757,-5.580746085225971,4.425426955929835,-0.2833480400502168,-11.954466820570037,-19.475587627548155,12.132450336065347,-5.59608184346942,4.376054057956708,-0.3035750484659445,-11.94186646868934,-19.103597685494435,0.14554057555240907
0.0173216458614523,2.464234554748483e-06,-21.4641400073281,-54.88788896627885,-0.0001308239808818,-2.46669909779789,0.01860237489768224,-0.0006900918884866769,-21.46596650827496,-54.88061128317804,-0.0038443134753833874,-2.465536783068927,0.05592847831046943
-54.88789058947026,-0.0001309526564313,-2.466748518273992,0.0173221949820685,1.1764013722022835e-06,-21.46419492954292,-54.87625851316261,-0.0024689293632036424,-2.4660957301772157,0.017908385331622867,-0.0006517658870279774,-21.46480823840284,0.055963430137487835
3.254763572596807,-2.763024306195322,2.828638327200117,0.1755101085122732,-23.086381012537643,-36.74267218446568,3.245407520235972,-2.7905744910610224,2.696708751749611,0.1668322572785712,-23.155812014738785,-36.47471739547757,0.1300915346660283
0.8298712656062458,-1.533750901280046,0.0290894601188109,-0.0123123222526877,-11.466135081739782,-33.22387018653611,-0.24957586818027266,-0.774000419288086,0.17033747197439197,-0.039498494674120366,-12.41549023383675,-35.0018434812207,0.09016687337361096
-0.0014067694613032,-20.803728123585994,-53.094897717813296,0.1461525633767642,-2.0079204773741743,0.7722310005645004,0.003833423305877659,-20.78204414791557,-53.07066702443899,0.14308512059005807,-2.008891605435622,0.7693551019073652,0.057090334551694655
2.214412653837878,-2.017343595921121,0.1470197880644808,-10.08853069328315,-38.56795946901801,-9.174476350014036,2.205096009890333,-1.9964849572682777,0.14815723591609586,-10.130321665889056,-38.55434093466047,-9.153778235248907,0.083883161205214
0.1884764021705652,-12.153288326985864,-21.531926058086235,16.992128710994844,-4.172290199368295,4.201989886347242,0.1831467671542235,-12.049968500903141,-21.199875025033037,17.08978378103334,-4.188371518772456,4.1987319612459615,0.08714685623876695
-4.882443199240132,-0.2248899170873838,-29.436118146106075,-64.97212673551527,-13.188642303762816,-5.124654507097641,-4.898969149554105,-0.21880182585960029,-29.516997607142542,-64.5650789657314,-13.734273768610308,-5.097768130184633,0.08572895529677926
-63.87895637863355,4.93883487285606,-1.401305577584521,0.6286997228382615,0.0412744544822253,-23.843887887027865,-63.17329634002999,4.454598501989494,-1.3776015923171485,0.7203412518009731,0.03526666896084407,-24.135738887684965,0.13047105241135815
8.677407022406806e-07,-21.46421137183176,-54.88789110416848,-0.0001309674222272,-2.4667637885598364,0.0173223724211213,-0.001237239178863092,-21.46680362129223,-54.879265496310836,-0.0029952930964327606,-2.465517498692975,0.018445895119043598,0.05598500595268452
-6.9435714113408,-39.06712758227223,-6.445097299729929,1.9633516463104967,-1.6186294937618206,0.0600281908298519,-6.941981207436967,-39.40271669465221,-6.244289564918745,1.9469414995863659,-1.6072320751857725,0.060641315050451006,0.07446728047832285
-0.000945749808702,-0.1386711228757278,-10.29404456915448,-15.432732026954143,0.4623919227241927,-3.7060966497809535,-0.024789730424600975,-0.1380003436528341,-10.396556156286806,-15.562787562119638,0.29770570566381593,-3.6955821831003277,0.08942658734769471
-1.2697444498436898,0.9355287858378764,0.0220264334945122,-15.070148349596456,-31.821225866377304,2.1889054797577407,-1.4000933125472557,0.8626817852317004,0.04475367835487987,-14.669770959070462,-31.356564062385246,2.1350734675231706,0.0958927657743438
-0.0135110100686129,-20.283657263549298,-56.62657236275252,-0.7403506711551487,-1.8964093137833573,-0.5050683014286389,-0.07743454912792913,-20.298893787413476,-56.692966945764056,-0.7549233962963626,-1.8654205642897068,-0.4984846636664315,0.0717653748048328
1.844071493101572,0.1078744686130896,-21.766688368931444,-35.289241645455235,1.787567297645901,-2.2881169055278243,1.8740224901001739,0.1531709357277009,-21.609469415990986,-35.19541104694508,1.8336446627331497,-2.269820993841563,0.08473634107973926
0.1750477200954427,-0.0253399214390567,-19.49201979170501,-38.7577178049306,0.4253724355906058,-1.3299149218663333,0.0979298064107752,-0.16111404941852925,-18.761814248306564,-37.25755466678129,0.188789819547992,-1.2014308371307152,0.2827146882228171
-0.1102532377960054,-23.312988590693024,-46.13870360419418,5.187669610461988,-3.780037989389793,1.7692998241455486,-0.17005478887585923,-23.435587719263935,-46.42085422045466,5.16819360501313,-3.7754065460343327,1.7584495292509246,0.11906668023063749
-13.590606633122938,-38.90060117900591,2.033893510943464,-0.8218282498277117,0.8298556894697776,0.0545995872352541,-13.472646696253605,-38.59964899896113,2.0097716507766563,-0.8080888277759612,0.8184961549126228,0.10550220084451212,0.08594971083228775
0.0145538194218639,-17.157527361591672,-33.7010061436268,-0.4226645622241803,-0.8090393679514679,-0.1102474072269564,0.017870731765469827,-17.087234643842407,-33.625780068969334,-0.37960996279969095,-0.7961390752778925,-0.12690700613478612,0.06893072838075587
0.0173222954817295,9.930589417169146e-07,-21.46420449843036,-54.8878910540909,-0.0001309194620935,-2.4667575548625127,0.018667703426217486,-0.0010365927188331625,-21.46647240375296,-54.880427807396245,-0.003010731212043538,-2.465935480077462,0.0559284532376616
5.775855709964797,0.0747474922428028,2.1711499617578105,0.0107582179855055,-7.563732173418353,-18.073472442988784,5.637454746364099,0.08710454454032401,2.1732903929992204,0.0122821809972109,-7.591484519762588,-18.095558329185735,0.07929513953077749
1.0288167138904478e-06,-21.464202586896214,-54.88789099570446,-0.0001309178036372,-2.4667558205490008,0.0173222841434549,-0.0012033985547077464,-21.466731369974468,-54.87926013844299,-0.003078742051457084,-2.4654598575220916,0.018440343288489203,0.05598500320649369
-0.4838935277459817,0.1031708199433979,-20.299110394939778,-39.10991192447874,-0.3519669861984021,-0.8642734432625516,-0.560212164098175,0.09229795396845475,-20.727132569236915,-40.18790413491615,-0.023054896780422496,-0.9555143263972923,0.08424474081382205
-0.0001309146703763,-2.4667526907571653,0.0173222478524241,1.0866207063138582e-06,-21.46419951357856,-54.8878909013307,-0.0024520864526493824,-2.4661808815903896,0.018050036561589877,-0.0009575317262466854,-21.46516303394219,-54.8783413369722,0.05595675374316689
-2.3552582136461826,1.4094476715115734,-0.0370437470467985,-19.20229217420495,-35.56609012573423,4.097016745225024,-2.2766032827830713,1.5101819071735463,-0.030121196442053133,-18.415892669000186,-33.7592950603032,3.996677697564536,0.24911466724324005
3.1421185313971773,-1.334489071967813,0.3916850626073095,-24.8419040666218,-65.9073710333074,-1.63219002811777,3.109389542540896,-1.325144149797893,0.38243462142520457,-24.917916930213465,-65.50266668975479,-1.7640746694031009,0.18743740491375793
5.894369606987464,-1.1135648285418804,0.9340822491709876,0.1078975090921667,-23.460000530905656,-62.89251204819881,5.440327771339298,-1.1255507163486982,0.8124059422028438,0.12921932711424233,-23.250798007717776,-62.70136831196737,0.1332159255564911
-0.9383281078583584,-0.0467314602562629,-19.69681002473046,-52.44027377902612,-0.4117057154103929,-2.2604554892209165,-0.8719102888463794,-0.019451560571155824,-19.606478062421957,-52.89295535106703,-0.4397523186548824,-2.3371775976301024,0.07899224010500139
-1.1456775506138634,5.331504274664414,0.2993594952811826,-28.403540581137065,-27.11031385810672,10.49284434743964,-1.1405639098156186,5.315717904196706,0.2928775312421408,-28.375112300837888,-26.97920219357536,10.583251440778895,0.07699255252293047
-0.0218454522328871,-1.4079794015440377,0.1138781099564098,-0.0404979576530503,-16.48510016520426,-52.0820380689933,-0.33178408822323036,-1.4724549354405099,0.15886579045144344,-0.2954887114896252,-16.579843678287943,-51.546009785873366,0.15365293715941353
-21.151988810698555,0.7569906706744205,-1.4502969739476734,-0.1025082981203251,0.1278289067862814,-22.196012433221146,-20.758582203005062,0.6348019563210983,-1.4110696436201806,-0.08044692365319861,0.14398405988157492,-21.984155925910272,0.08279168064270626
-25.54317279197528,-28.35635838321679,6.119256074781075,-1.0473262712023956,4.05146297815643,0.3621715972263104,-25.571241244482223,-28.397865131570825,6.311283259638003,-1.0375532803932437,4.054834542908452,0.36071567457551623,0.0856686666449129
0.1093326640758754,-5.228431091263576,-28.0484120194232,8.818860458119744,1.1805956309614314,2.664439516791992,0.11801372914570152,-5.539287912244163,-27.845209378514426,8.119865152839623,1.2140502815163359,2.6673398707561837,0.10621702110827091
-11.954466820570037,-19.475587627548155,12.019869075101514,-5.609365565703774,4.413728138356001,-0.2535337831671737,-11.913147580837148,-19.191306803204725,12.004055852852531,-5.608599083541677,4.357493024532914,-0.2752560376762858,0.12403987450507903
1.6287052418283623,-3.5552260455789217,0.7349572279285196,-0.0198142767563097,-25.07386804263493,-18.92500115250179,1.5500155338156674,-3.5169146592689913,0.7540846572547366,-0.03360789896726146,-25.04741894178722,-19.04677123174565,0.08468094673189985
3.490622788729646,-0.1836155154776287,-32.76004317924438,-59.523175026947584,14.602168945952863,-6.280485976753885,3.446717200167198,-0.18544960738610858,-32.66333763493021,-59.58414929295317,14.453633524055068,-6.285524261995905,0.09534313530092864
0.0009003663457151,-20.803623436524347,-53.09428837856388,0.1458937421121713,-2.007942206286247,0.7721644188423915,-0.004382305307444767,-20.768885304165565,-53.017728731621446,0.1509222175980085,-1.9984542961036027,0.7817851261211786,0.05725836245502269
0.9203529357504506,-1.2712242666813165,0.089404880852095,-13.959009665209734,-46.12231031938338,-6.282816234020291,0.8375516466476469,-1.2461697492645385,0.09044615967169811,-13.820840486669312,-45.82555708566446,-6.519186826275302,0.1936489202748739
0.3853478218129037,0.1215534328644856,-12.97647512212224,-17.860360808830194,0.3107719228633673,0.6141043435656997,0.38677785800857123,0.20447986922394534,-12.760035393607836,-17.434618325379233,0.4951958893284427,0.6626869558345732,0.1637689655145984
-0.0133921747975795,-15.27764546535696,-23.369329988780127,1.5642018429536737,-1.518695884783518,1.0008101833977958,-0.03133492519862102,-15.679380622996177,-23.83594079622071,1.672342264567419,-1.571137727677126,0.9999735359425017,0.08216311863869596
-0.2562327233858568,-26.21623332374573,-41.30878540818671,14.755939266945065,-5.892371190408107,4.702931406089053,-0.279941819218811,-26.277608162767308,-41.36804256587766,14.716780318014742,-5.86193191256784,4.732102558871659,0.12229882102175016
0.030176441108868,-0.0138728111952666,-20.09908808059267,-57.92274029135203,0.5210831204316155,-1.8274207423248907,0.025921549521171983,0.00171766375444804,-20.083287633109293,-57.74573550595221,0.6974527049681569,-1.8368043881491758,0.07365599240079423
-0.1131139526501747,-29.67281033487637,-22.09789173637483,3.151020650737907,-5.447911677674421,1.6176362658005354,-0.1092000670339246,-29.748902857666256,-22.236953516816527,2.98313920411681,-5.45999023406668,1.626712361174583,0.0736416526369148
2.5406764844839454e-06,-21.4641372837347,-54.88788887335089,-0.0001308179174339,-2.46669663196454,0.0173216232442427,-0.0008804056437838881,-21.466057545119497,-54.87924039169957,-0.003824149164302071,-2.4649590580196445,0.01839875162943372,0.05598503482229167
0.1497898544393422,-9.216632246284394,-33.83858239087131,-8.466728285236105,1.8727297070677624,-2.098680198219259,0.1424716244805282,-9.213157845850532,-33.52251558229983,-8.574490645953013,1.872494760341823,-2.0982430055544867,0.10585822267812905
-2.7465244539836693,-0.0637388715775271,-0.7878253159702642,0.0430707802333389,-12.964757448136858,-46.19998054430877,-2.5852765926993015,-0.36974035231389735,-0.8020892255445347,0.03043092775104128,-12.910055073279864,-46.418434006325924,0.08876470109330303
-0.0400381180853054,-12.29418794511101,-18.70997656384396,4.062592892548183,-1.5803807143748934,2.2032171532583167,-0.04157543757418125,-12.221081357621586,-18.480579239050257,4.17771160975127,-1.5747876088852877,2.1939178502228174,0.09573915613005757
0.0213183681123797,-15.24001633115274,-49.56784048783306,-0.4380018216666035,-1.641292539962084,-0.0859385217853579,-0.033578782275526464,-15.353055437846706,-50.849257408322046,0.3835296926840783,-1.7063299654324737,0.08509614816387057,0.0993064990971313
-27.621471177324683,-34.41255505444575,10.990779492260623,-0.1131371125076578,5.624115005958903,0.41023192001489,-27.709184030154745,-34.61626824536222,11.05525950043993,-0.11495117207184258,5.668565883460573,0.41184932615657033,0.1375917096447019
0.440773030026854,-0.0650853987370378,-22.82853221804609,-39.02983208326547,0.884651017764774,-3.4261292770370586,0.46296750937563047,-0.06858319094430954,-22.923594076237094,-39.164109429971404,0.986265461330504,-3.421719412616369,0.07086985962347758
-0.0429720474568334,-0.1943583253470224,-18.403719714460912,-49.5808686992562,-1.3932111558624656,-3.398297653520326,-0.06826530537119879,-0.18552424571549864,-17.87540529916646,-48.79723205085918,-1.710845858515512,-3.4441878911612784,0.34133478306113507
13.114096316728808,-2.255390121364996,4.192505002573592,0.2516807359209934,-18.501675285958456,-51.25351991069895,14.348649451235758,-2.051651305432415,4.60755876707222,0.24864170130383378,-18.829796564785966,-52.31123030556125,0.4849564880726327
-0.6999032072660133,0.1003117126760464,-19.080033190890965,-38.43990494286759,3.179247746381785,-1.5105438196458223,0.1330074230803575,0.07632662312602179,-13.9032647286067,-31.803842177131628,2.218662588908728,-0.6804966136650137,0.5829496940850938
-45.46978626572603,4.026440096346217,-2.976800086810415,1.4602303055719497,-0.0060835025402172,-20.10016726414124,-45.351274800301326,4.239823315126614,-2.9037457173734538,1.554551101864746,0.0037572234506910718,-19.832771178739677,0.08465329681273848
0.0173224170443456,7.876555089156247e-07,-21.464215933223667,-54.88789124046408,-0.0001309705827785,-2.466767928069234,0.018679238015010924,-0.001084709403130546,-21.46654444851424,-54.880406231443885,-0.002888319304020115,-2.465995394016673,0.05592845723713613
1.3698643959545491,-0.010431383523784,-12.249821899425315,-23.71118782266729,4.0755219881239295,-0.708645234925684,1.311368481566106,0.014068744597494742,-12.29883301618122,-23.442257812930393,4.319440816186216,-0.6567470971606078,0.09833762392161494
-3.614413717407008,-2.8248179886175784,-0.0820124980730057,-25.762581259894063,-60.46600802545727,-7.366942241227427,-3.603354180814648,-2.8202177107166975,-0.08587474317221933,-25.779055862128473,-60.48070146755026,-7.510744585763263,0.08982526555688897
-5.886746041642715,1.794183111982494,-1.475200162144754,0.1123927909112498,-8.27758148037985,-41.47734252670556,-5.953293555953181,1.7790350709481935,-1.51709671244247,0.10417426608945465,-8.202112300230773,-41.75817834207527,0.1793821256161927
-1.4192452172118242,-1.0546811681168118,-0.4886526846786677,0.0973352131913467,-20.523365289419843,-48.17483376133934,-1.392602613160534,-1.067021035237076,-0.4947608148285241,0.09014601005359957,-20.453187708442442,-47.76193730449734,0.07041141788760474
0.0173221399124401,1.2914223751686762e-06,-21.46418917448354,-54.88789057954527,-0.0001309043673729,-2.466743654066007,0.01865223329377841,-0.0009665162442615838,-21.466368371199223,-54.88046128730366,-0.0031855108941272192,-2.4658506516947227,0.05592845103065902
-24.573126042088944,-1.0709932659481791,-7.109285186080917,-0.4053878925261658,-17.6918128147728,-50.511225141811735,-24.478046664853252,-1.061476211980704,-7.093052106807891,-0.40533359032731653,-17.64289271453723,-51.185983413350414,0.09547487640593677
-39.51614047927402,-9.041629233159052,2.1684958658384907,-1.9803168932101904,0.1424019726755607,-10.27112758404792,-39.1019519384571,-8.878564341696736,2.157225685658158,-1.9552223061830556,0.14313119221587747,-10.250209491451384,0.1399370347377762
-53.09441840683317,0.1459421097869105,-2.0079087050319013,0.7721767431603653,-0.0014343293394801,-20.80368373262919,-53.067134323536266,0.1470221964191296,-2.0081797301093616,0.7669130958953048,-0.00047082429301781303,-20.788028817930353,0.05662398850599648
-10.4440632846015,-43.82038009243535,-2.558052581554658,-0.135454716021683,-0.7649295160718143,0.0477899122012383,-10.513036719708111,-44.00234746846354,-2.466921285883018,-0.06058969377511403,-0.7398160599339576,0.05614813716147182,0.07534858688600043
1.0357923985399269,-0.0514014460950414,-22.455229311764032,-46.06883585013873,2.828861246167377,-3.1484178820956865,1.1138053206773293,-0.04356620677845058,-22.370134841639924,-45.972977861155414,2.6847151169525034,-3.0965865532023713,0.06907895704122002
-8.82602884365802,2.103625387165748,-1.9395855111170184,0.1375802599274897,-10.474367565987798,-39.51614047927402,-8.870029763053896,2.1227602994499293,-1.94133270777278,0.13759509923595048,-10.486778222085354,-39.40830188248127,0.0756326212735623
-0.4226645622241803,-0.8090393679514679,-0.1102474072269564,0.015029457080141,-16.902514283064853,-33.39686455342657,-0.46205153436471846,-0.7515453718194749,-0.10830647882180244,0.04372980326711229,-16.87742644175448,-33.507217054883085,0.08785226658527923
0.3887059613573093,-0.044741402795065,-20.31761608989897,-39.0305402027816,-0.2173595809384041,-2.0363183477560693,0.4030147679645779,-0.053618534294514575,-19.854407413140507,-38.08077672886611,-0.02134211425209287,-1.9876779080939855,0.07516194920253061
-0.1243338262245876,-23.661796328713933,-44.89556016843056,6.820333920522218,-4.173221876714998,2.1815365507048434,-0.11754023439573302,-23.77745985165393,-44.94963879892475,6.976402835953763,-4.192565358407364,2.150912420182351,0.10194940703046673
0.0724231678476783,-20.80547777840367,-33.39388472141056,-0.2109416311276303,-1.89124344920984,-0.2038956732303811,0.09470720689114387,-20.566562197310873,-33.566345169784654,-0.11589411512386505,-1.904434579866404,-0.1783170553403579,0.07092335920056958
0.2154247112071927,-2.033157397870072,0.8498916795788758,0.0018367431524968,-20.83072896677112,-53.09670849519578,0.03289190454427171,-2.022815623262318,0.867550062486842,-0.006493860291818976,-20.92382984570645,-52.87952091890679,0.06780463583924434
0.386577001702697,-23.72120042609713,-54.26128432168022,4.530737199219854,1.4322004485215214,0.704071495075078,0.4015995860806356,-23.64264970323711,-54.39467798208426,4.49728810476735,1.4226043284080347,0.7101918602892994,0.08044102177424084
-0.0088554032962734,-10.381326865439934,-16.170660915661067,7.047153550354925,-0.2364979382918665,2.9671933188623623,0.04138166290881884,-8.118566906780359,-13.451794564058503,1.5860103210430623,-0.209062400791737,3.158695592741328,43.97287551813567
0.0451564083665142,-12.158035314349656,-45.04899303204209,-2.7465244539836693,-0.0637388715775271,-0.7878253159702642,0.050032926100698205,-12.212008421030191,-45.68246965337539,-2.7127067271644023,-0.12187779358220041,-0.7754649376702787,0.07615031575226472
0.1690420918340713,-0.0189711004406232,-21.187487011075262,-51.58671517365799,0.1247951996648408,-2.2874630303730155,0.32266361574079383,-0.0685360869156284,-21.400418992029017,-51.86972886911735,-0.03278975362377423,-2.237313567828096,0.07095701027252876
0.0008826405378207,-20.803578391064267,-53.09388305205623,0.1457032081520743,-2.0079333841462024,0.7721181350173998,-0.007765014747178611,-20.77050101714923,-53.01769057465481,0.1547957967882212,-1.9979361965529279,0.7807796225537231,0.05727962135522735
-19.83623641450201,-33.93370296162705,0.040829129028975,-1.7961760117534666,0.6395370972691469,-0.0032120058398499,-19.528078786931474,-33.412820867182745,-0.14692622105758346,-1.8278111232715446,0.4861134375355505,-0.0013007609265969222,0.07894406544317367
0.3960550185334102,-0.0053114404139323,-19.927587005648626,-58.92766195895047,3.922224134381386,-0.8804575215174382,0.1595079894545961,-0.00338879021859384,-20.474885570021343,-60.371044319337216,4.17757116672351,-0.8196393149138679,0.5039391194137786
0.6022287986311214,-0.8222271467957636,0.2512283719121062,-21.04758229265993,-43.75574958199735,-0.9500931691182504,0.6754140107432249,-0.7744778059225155,0.2166339082275499,-21.18354161732259,-44.108454417570556,-0.3072208799726468,0.24362246537028587
0.3243333780201507,-10.988594720814188,-32.46277033840433,29.027732656174024,-0.8522429245471814,7.01668048496804,0.34079216840277127,-11.008570646596638,-32.66547368645388,27.287963141933204,-0.775300581970555,7.190111377441511,0.42696420346731334
0.4646766721674789,-30.82856067107887,-37.46080885031919,8.623881899193565,-3.750604757974856,6.17635058971233,0.46366237185722703,-30.922927890875627,-37.564971005326115,8.67712666118846,-3.7683484453968212,6.201916592438494,0.09258363160187533
-31.20912794603118,-72.92681306052324,-22.95361778536813,-5.290460931078313,-6.829344953210828,-0.082502936478991,-31.37302975131363,-69.41680294601827,-31.737691163162612,-4.71322752872287,-6.981692459946809,-0.19222783710727853,8.068701911403188
-12.722399177817913,-3.487099116629862,-3.6883337111559977,-0.1003778148006633,-29.72779848965984,-58.38574310424439,-12.810456812218945,-3.504231760568814,-3.7316666111777295,-0.09576399866296015,-29.808386926130765,-58.82008583682659,0.1273641191174797
0.2989932273177066,-24.47235164560996,-62.63717500157457,4.770271940203172,1.4129044103876252,0.567290800421185,0.3072938220584156,-24.407469842524534,-62.4232416298137,4.738105123101846,1.4213071861659614,0.5756173626425749,0.09166312283789257
-23.63631007850444,-58.53456469441415,4.643402800676538,-3.208888282537508,1.0164899358450104,-0.0645576847402034,-23.643219583383967,-58.3510874242489,4.833766365122145,-3.197899631527658,1.0432503223980722,-0.06856404545139327,0.08414515498431929
-3.3799670093547367,-0.2869502044504305,-35.87851220154354,-66.3941726996459,-13.159626633206988,-6.328272219131225,-3.365781627571856,-0.28671819909235907,-35.92935663394998,-66.24742271181354,-13.23482261036893,-6.327184283845959,0.10305528682228915
-5.015215522435433,-5.418769772508183,-0.1562919417893948,-34.43143380564705,-64.58424980725505,-17.41016975332777,-4.9989681589380695,-5.410998210489478,-0.1535054571154646,-34.44451549046342,-64.5861330121885,-17.3978004137712,0.08419556507842363
-0.1773355669694531,-32.9491884682728,-25.746569686632352,4.035531106612864,-6.812229662447593,2.1384153904040555,-0.1809160163538337,-32.92226447598708,-25.640178425159036,4.095188211184961,-6.807396338061601,2.1330901034968974,0.0695612020178864
-0.1210816519997076,-26.34234096978805,-39.19447931314868,1.9913779540390848,-4.923028241067116,0.867317593199842,-0.1253182571812772,-26.27122382561977,-39.26666957321481,1.8952099060458067,-4.920897118383095,0.8881171405108148,0.07292524794629363
-26.02405207956404,-55.76980869749261,-7.854593457052918,-0.1031517153528575,-3.277438506060216,0.3546611337506261,-26.24893370864794,-53.67861135131602,-6.688015919587883,0.005618483069705249,-3.2933498306782063,0.39443141624759903,0.9246892731745995
0.2237795500136692,-18.950635473011225,-38.44414225610616,-2.23746246427045,0.2129540498864243,-1.1805412542992657,0.22914855234859033,-18.742979946856735,-38.88238229178546,-2.952936951232296,0.19436674581054803,-1.1730599501606207,0.09507994524653118
-1.2819687361640717,-6.653768134570322,-0.4083535311474248,-17.9531978859753,-50.01680498217283,-20.77486716962568,-1.2962796983247244,-6.643586828619107,-0.4104425767564521,-17.9076995447516,-49.69392095839487,-21.335549411064335,0.11269907527786605
-26.11210297191791,-60.24264395425328,18.69817730758733,-1.6065809524222467,5.355591544742579,0.2843554739297413,-26.588143758204836,-61.769418595683874,20.377583435367825,-1.5818794448310491,5.432927988655379,0.23916219028821217,0.3433458840468895
0.4484813859167894,-3.1084983564291355,0.3804606255299003,-25.65481503043677,-69.15688936838185,-8.948647607866214,0.44370381916374413,-3.080559031950493,0.38933828713205365,-25.766854188582457,-69.03997260766211,-8.990557471355288,0.13115764693690513
-30.965326724906507,-70.12374836023129,12.247283520644372,-0.8618008398398305,2.628598476244318,0.3233023371313118,-31.30834709880645,-71.39104255740585,13.041461122999365,-0.9020845351324454,2.6955036359590565,0.3493507617635885,0.6845903687455668
-20.25236269646257,-57.77961440014673,0.8694371931267719,-1.898487883353316,0.0546654319146745,-0.0156965048942016,-20.08326916856953,-57.2996467867124,0.9943109975095012,-1.91325871225904,0.11078097227758121,-0.01787898005181887,0.09750608961208873
1.7794864737746476,1.1895444411376346,-0.4638980781681353,0.5398440865396169,-21.17075770651056,-45.77852527076949,1.71261158520025,1.200615244782199,-0.4662661135166779,0.5171698877869364,-20.94071011019166,-46.049019810149844,0.4232632690556877
-0.2167535452013361,-0.3739841835628045,-0.4049663176648653,0.0833957314095177,-21.5631141496852,-62.93047406965997,-0.5269554962428487,-0.3055366321526378,-0.3838468550608667,0.0832782687902558,-21.610567357366406,-63.18624871262021,0.25011752365130424
-0.1423356196724528,-27.74070365739558,-59.003953930675536,-5.946225081078857,-3.980795841998596,-1.377896272805818,-0.17477000388623765,-27.879058928862236,-58.83448074946091,-6.2718226989219374,-4.034792520680611,-1.3160676761721675,0.2061094551195517
4.348127773682082,-0.4976180077635108,1.126830436290926,0.0345347526240078,-11.717258682299104,-35.99984925016091,4.226709541654714,-0.38201610648104634,1.1879470880021046,0.05032413164026117,-12.092810587172288,-35.9882325427734,0.07313449717837917
0.7469646882652844,0.0009540697894698,-20.816980310579307,-52.228161127947146,-0.147904842579368,-2.0241125863913805,0.7468487999672107,0.007918202433387478,-20.81760072868451,-52.259770596034286,-0.1359912141372206,-2.0210612432373196,0.05688481126005418
0.0619928727697643,-6.847557770815513,-39.31172917973325,-6.170762097082175,1.9008776873173447,-1.60224552306944,0.05234176452376005,-6.8351352244867485,-38.06822444184894,-6.667242676777462,1.9079202753496034,-1.6654018145760858,0.2315541058009878
-1.7067581037206123,1.531949658028992,0.0890660690759469,-21.17773101022497,-49.93024475840179,4.2043734287105865,-1.766297512971505,1.5344103433441205,0.11150767408093998,-21.266227814078093,-49.34721632612718,4.155262607955365,0.0721529260245497
3.825320024170872,-3.458494605180835,1.5124652111839232,-0.0863089144837031,-19.089044485431785,-45.947992678853794,3.810506898222684,-3.5158443124651058,1.4294109354861462,-0.15228883300250118,-19.168706471627956,-46.1985066984231,0.10209880586577147
-41.910257710698176,2.5787333492134445,-0.8334323881275856,0.6599193681684007,0.0413254399725469,-16.124560920117247,-41.63533776293207,2.695458268027778,-0.8273842753727365,0.6610366479677339,0.022801027817422437,-15.899682412768925,0.07467501303641844
-3.394726288207326,1.805966636025235,-0.0289538069403069,-23.163220371845288,-34.69741496373496,5.951159577602305,-3.4648737604048847,1.7464892633561817,-0.056490555564323586,-23.107284838362602,-34.3531084416727,6.28490732723435,0.09996828029067406
-17.78086901379827,-37.76900410652091,9.225925053623495,-3.81150430305064,3.159893508298941,-0.0111507928037642,-17.71536117484061,-37.99987755369284,9.17377741610943,-3.8113742769763803,3.158616433485747,-0.003400260825856094,0.10150117782000412
-2.525417474983005,-1.890400108849931,-0.003213665802638,-25.220100627253657,-53.43178842868778,-8.88121498346386,-2.570895601050779,-1.8900825751018147,-0.021131819339871072,-25.12350304041547,-53.748782834892836,-8.119355735399381,0.08594156335163139
-52.22842876689224,-0.1478981914217725,-2.0240909229213986,0.74694123876458,0.0009297441733715,-20.81695168524424,-52.241697126174586,-0.15338943246229064,-2.0269509505893666,0.748217220753304,0.002442340544405397,-20.845986623418867,0.05663824171403253
-23.612633311139664,-51.6460759385923,3.4629438951716622,-1.584114807567548,0.8825636015054849,0.146848854294283,-23.509034140490257,-51.320809009462664,2.6276371309021442,-1.6265542601093443,0.9245635356776347,0.15099730801921396,0.08604262971021304
-20.58598152906624,-53.50287449017414,0.923993500080358,-2.132818302209269,1.0342900154318997,0.028414484840025,-20.086799005230432,-52.15962775972184,1.3265945434026207,-2.050006641456889,1.1048791039152093,0.014258623714795249,0.09710591060606721
-4.509192735183074,-4.71585120381195,-0.3184323811824496,-22.2607250369043,-49.0448179219492,-12.523043015583475,-4.505046007976205,-4.790941203680916,-0.315689050671466,-22.641437967260742,-47.650745092454144,-14.313272710748379,0.1079501667512297
-3.643394936998477,1.650341829840606,-0.094253653913281,-18.49939415969628,-44.03648627744956,3.825320024170872,-3.489763155302171,1.667990761078272,-0.039142266223279876,-18.22842495170653,-43.253817104574864,3.7603999461134094,0.0929373555281281
0.3963103785951877,-21.994668068981284,-39.965008896403326,1.449868147975428,0.5020816807697674,-0.3860903288650068,0.39638495477197466,-22.16628394208722,-40.416736714370586,1.775131290906529,0.49824911749308143,-0.40404614961526875,0.10054512001908411
-0.6678365675442839,-24.7684716977649,-51.523726213884544,-35.47936572927873,-5.304844962023042,-8.780532044143602,-0.6749925002300801,-24.73584367329937,-50.75575837456637,-35.83849869272913,-5.307538337556254,-8.77529925082128,0.16608813051538296
-58.85022795128095,6.913993464926221,-3.927072215543754,1.5228826675725766,-0.0884220758389627,-25.04907957787772,-58.474924130742636,6.80938931960911,-3.9004614592024254,1.516536279976087,-0.08284179130766667,-24.93671912517874,0.13731990890183643
2.7857310348918536,0.1645270116469304,-15.33336472582591,-32.48943927885645,13.043251099830949,-4.051820613475011,3.171963051888966,0.13698414275912185,-14.737730257362216,-33.2016237213505,12.871576387611242,-3.8156256677530305,0.4044482489127781
-39.44454063359209,-7.057618920732825,0.3567013278361346,-1.8816099513567004,-0.1030946524293643,-9.66235388736612,-39.42607339502001,-7.163960371733538,0.38007987757086426,-1.8997431666532378,-0.10385005638064726,-9.542428403374345,0.09951571240505719
-0.2352645908434502,-0.1799622547664416,-9.491273135533197,-14.448350810542502,0.0639180748598079,-4.016936200443437,-0.27436464150507334,-0.17712274754556745,-9.26354864060093,-13.677158741701874,-0.44191734732305576,-3.947840292502107,0.6056330585463947
-6.981664926320578,-0.3665281622713474,-17.325352733276855,-53.33870232232904,-26.74372564127411,-0.8280497909229275,-6.729867770403942,-0.39051186322014075,-16.73932399440295,-50.17479516670511,-25.667601458004015,-0.7268228935876628,0.9601440058582889
2.802765609726454,0.1323401048541986,-5.713569743043381,-30.276972853863445,8.071214060326952,1.1944073460732716,2.7430819603121464,0.1919485701055308,-5.739838803775058,-28.929024346123242,7.545037388826017,1.1883365432025048,0.25202506379621714
-0.1061684237215942,-19.426487989986384,-49.68365873402194,-3.0617899359323206,-2.759039882091061,-1.7213054390672669,-0.2709902173435239,-18.573608075737354,-46.389180871228746,-4.365127044523206,-2.5707851760177505,-1.775375124049674,0.15243753422637174
-2.4849648621625584,-4.80376157801174,-0.0587312489433098,-0.3853097721165744,-16.346083704384828,-41.02172318025874,-2.4926963555472526,-4.756070173544529,-0.06156032587873028,-0.38402664168606293,-16.413724399888906,-40.6698583621872,0.11565805062894374
-0.0322700171542198,-0.3603244647160975,-15.526878951865456,-37.48382166971816,-2.7393360410936025,-4.924534569549562,0.01991429311228643,-0.3355029427934513,-15.723634949690119,-37.28511204984561,-2.578696646614574,-5.004623810994584,1.1602642188207917
0.0031549112575514,-13.159330389574984,-23.767828046386786,-0.9297621874924852,0.0409686045123504,0.0741662237026915,-0.0018374893980990237,-13.172189217402774,-23.571068289336267,-0.7662882698667683,0.05410930357008681,0.05335134682334797,0.0818198896391984
-5.414623642810065,-0.1555437573946176,-34.41543458849459,-64.50827044498492,-17.415735154323674,-5.015215522435433,-5.410279303376967,-0.15814882956351006,-34.46866256562889,-64.51396456148353,-17.469138085267716,-5.009076991282228,0.08356865183608098
-54.88788943661897,-0.00013090325289,-2.4667160221996007,0.0173218286964733,1.9677800487250264e-06,-21.46415907813232,-54.87609397524466,-0.0028833104524892406,-2.4658034070636177,0.01789976066345389,-0.0005386615933957728,-21.464800990685035,0.05596343688622274
-0.5115290607563607,-12.327354336532297,-27.479384762673256,-15.12344129733942,-3.6566300467701818,-3.887305187165576,-0.5316957752854705,-12.4305686232167,-27.821032173872254,-14.910233803908767,-3.62362926748969,-3.9266112933553643,0.15709318478362566
6.170034736845826,0.736887196787686,2.053835702828561,0.1078751551491902,-10.365317850455943,-34.215389022936,6.299260479350039,0.6892416824496195,2.015446503778662,0.10850064687173955,-10.282638088172291,-34.35767584687744,0.07480721527789247
-0.2906706016548395,-17.93793551263973,-46.63976960250452,-1.7806440177265712,-3.885777230529385,-0.0644195783935208,-0.24927140117534918,-17.73634006636736,-46.245791341005685,-1.8995152572024665,-3.8793521949244507,-0.08641900839101879,0.14065738557282903
-14.277490885190284,-45.58577761779134,-2.974920533151847,-0.8952165322521166,-0.928305520779538,-0.0682305117975832,-14.167379073334871,-45.03927068624489,-2.8020483799645035,-0.8110369234368022,-0.97255043747424,-0.07806181215892138,0.078743156025886
-27.12608953968675,15.84911992001535,-4.841879913406824,5.407579065289453,-0.041030557024647,-14.93861164093385,-26.71949116700324,16.092363149323774,-4.8073374629506915,5.449669853106396,-0.05235243100018039,-14.930331701223679,0.14264036234037936
-39.14993372700974,14.36766625740649,1.124420791854905,6.050625870368942,0.6675216981667713,-25.04718295784725,-38.49343595001051,14.178554683327121,1.0170563919502547,6.167643445889372,0.7128047131977482,-26.269083322184272,1.1002698548890841
-2.5022667648472545,0.35444588020769,-0.9452577564275652,0.0472017388571628,-10.96733215460164,-45.10959173271575,-3.450495135948586,0.18463006852618946,-0.9336352382430491,0.034576344892556676,-10.959422971168337,-44.27371478792452,0.08623725389235593
-2.0667829580778663,-0.0134493658387961,-0.0401827333882795,-21.0805844987401,-59.89530816656988,0.010242690721751,-1.9372996216798128,-0.07004782152171174,-0.009261353806323314,-20.501277734397036,-58.1278516911666,-0.14254734223501941,0.06380363410166656
-0.60341307278248,0.2805068837154062,-0.5564625767028389,0.1256231722565299,-22.24131376648583,-63.17693639459238,-0.6276455364391325,0.2944525494885255,-0.5863029988195478,0.14101337848392248,-22.195875239972096,-63.133651329626844,0.08914298857961644
1.1661231281126674,0.0349174124397524,-20.58598152906624,-53.50287449017414,0.923993500080358,-2.132818302209269,1.1724439872672292,0.050141837960893554,-20.78576958734493,-53.63357013315044,0.912823583104398,-2.101386847680274,0.10451871590026163
17.336262886354326,-6.720589320650238,4.01814289183482,-0.1886386556914634,-35.15023400747191,-56.71905241067744,17.408984062284254,-6.719702464931576,4.031469730884,-0.19522824735697597,-35.09812426829513,-57.23922996707958,0.1605246251368364
0.5088564884052375,4.539504072293202,0.5821677903444895,-26.94254770614701,-60.20814826645596,14.716953654028746,0.5073735991260264,4.524845963158953,0.6057829277588098,-26.934136263192798,-60.07914653207172,14.791467922536413,0.14315586740436648
-10.375316579981057,-40.87160053323478,-5.0060610859057695,0.1596242024669189,-1.7953134226639742,-0.1098336217541019,-10.325114992900168,-40.39739838926039,-5.484761001379752,0.14162188665281406,-1.7962958858306024,-0.0995063650224779,0.08840570236087975
-42.7317430373508,-2.298396655528768,-1.7155231603833538,-0.2664820770121004,-0.0426774400886649,-19.813275217709226,-41.96434976961518,-2.387368847516882,-1.8033478573732964,-0.6798966298507594,-0.13739117427633118,-20.31320478673115,0.2237602953998341
-17.829061740782358,-47.55354298329751,-0.3324021570386051,-1.851099157186966,-0.2677626579907803,-0.0339347855868142,-18.16860028034182,-47.60722659410112,0.08314448141641151,-1.8780624770576821,-0.3778854868664894,-0.08239424463272371,0.07356891912248575
-0.5490603285443474,-0.5703626770997958,0.0381836617281668,-13.409346646841756,-47.25109584828737,-2.4480800874258706,-0.5106462625302584,-0.5614921690382744,0.010280717264095074,-13.353541234437103,-48.040374391917794,-2.4335043491902297,0.10269406180176266
-64.68956494073252,-11.31972117998129,-5.367156946059192,-2.504664392817371,-0.2195563982297034,-32.89713721978857,-65.75047504219458,-9.990578640225863,-5.609991106368625,-2.5926794923155683,-0.19030809666169013,-32.950544680497075,0.41813885805154105
0.4987845120057376,-2.1731396214241103,0.1611880718047889,-0.0007384965966431,-16.169902219076818,-43.48321530707905,0.6704567532399324,-2.233001890770879,0.019386629681605427,0.0014398462430733616,-17.246921840363598,-47.30665873342514,0.10523229368165876
-0.0645576847402034,-23.35278670757036,-58.23229730927668,4.4636571700238745,-3.0720356825773862,0.9215735933266926,-0.05387757583651975,-23.349528872611376,-58.30836519917244,4.539084240188714,-3.0576516476760958,0.960479839409139,0.12954374317174389
-6.268366984056367,-18.1757151784551,1.057733542407476,3.004981813028324,0.8288311181948168,0.1856848020542149,-6.23942209943452,-18.379819631485134,1.1462105052319203,2.9722759596519808,0.8288843962686023,0.17983928058295717,0.12860410071103634
