Roblyat/algorithmic_payload_estimation/payload_estimation/data/result/effort/orientation_effort_s_results.csv
Actual Effort Joint 1,Actual Effort Joint 2,Actual Effort Joint 3,Actual Effort Joint 4,Actual Effort Joint 5,Actual Effort Joint 6,Predicted Effort Joint 1,Predicted Effort Joint 2,Predicted Effort Joint 3,Predicted Effort Joint 4,Predicted Effort Joint 5,Predicted Effort Joint 6,Variance
-0.689802839382953,-1.133979592650077,-1.0904322891501297,0.2130957631214413,-0.481058631948847,-0.0681422337263333,-0.7307585074586314,-1.1729988862434766,-1.0779111000892954,0.1868636776925996,-0.5253053389455999,-0.01334939378193667,0.0039866702743018324
0.4802778237555422,-0.9799668669232195,0.0727769461215511,0.4271843059465025,-0.2002812383360027,-0.0135378772676641,0.4715175093533617,-0.9805818440927396,0.062216179754329914,0.41950469249240996,-0.18647233492674786,-0.004001121249075368,0.0034777839158841063
-0.3130140918043821,-0.8521653961393151,-0.1840032842662118,-0.322028033019359,-0.3262999931487966,-0.0174611631855401,-0.2772045965639336,-0.8719121374033421,-0.08696554281959834,-0.2988349132119765,-0.28720761245631365,0.017547952369113773,0.003552213552602882
-0.2052940466413761,0.6611448647309492,-0.4838134051664264,-0.1034197133675444,-0.2110348262213166,0.0158353606498526,-0.1670114701755665,0.6676867757578293,-0.5426162486019166,-0.14698530104578822,-0.13709709060549358,-0.02430007454722727,0.0036436630039033448
-0.1618933265084356,0.9311416422587144,0.8344069640765541,-0.2699595648437447,0.6844691660908017,-0.0352164675421334,-0.27697634504056623,1.0131752564066119,0.896932311739647,-0.3158449492766522,0.6424224440906983,-0.04347657381413228,0.004378202217936337
0.4759118545097836,-0.9795468722582434,0.0736191926153236,0.4264236159656151,-0.1951947931029163,-0.0133861781550018,0.4692816072374626,-0.9786253695365303,0.06277662126274208,0.4201762150869399,-0.1817585022718049,-0.005018064566229441,0.003477316510736631
0.4746559406344148,-0.979471409094416,0.0738683764232486,0.4260507312550522,-0.1938223554684683,-0.0133428907450451,0.4688562896108124,-0.9782983300256092,0.0627262293338049,0.42091369705121906,-0.1808674894214164,-0.005592677714048477,0.0034780815645418274
2.293042031702964,-0.0086792003971951,-0.903252917026614,-0.3399819528282334,-0.6608922443703157,-0.042726944354094,2.2943791991156104,-0.01071467008887339,-0.9106727286393834,-0.3410116304512485,-0.6438969260765361,-0.0734642553447884,0.0055733416162879225
-0.521051534764484,1.9757111108408307,-0.318396123244036,-0.1659709166729945,0.0619605157042084,-0.0682619926686017,-0.5257627416067407,1.9703641355536092,-0.40563153221228276,-0.18347425837237097,0.06486465617126669,-0.021733436416980112,0.0037877234550129403
-0.2928877087695388,-0.8478573692107247,-0.1734573007968056,-0.3283207229784284,-0.304447539547883,-0.0294846273286166,-0.2903741703767082,-0.8412606215551932,-0.18309533910723985,-0.2865215363453899,-0.31873197185404933,0.005496976818449184,0.003502223702974209
-0.3444572160865694,-0.9013549297204456,-0.1973637675646503,-0.3744820760608049,-0.2909189977638333,-0.0171076842886868,-0.34217560091929045,-0.8978459120271509,-0.19752937519933766,-0.37310600037562835,-0.26446784451809435,-0.017144346583791048,0.0034919903487071226
-1.1473228772320647,0.5217677979084974,0.0608305294332202,3.699705759455537,3.168402916740579,-4.454247336135423,-1.147252178062672,0.5206447686429101,0.0703277143413743,3.6794018147629686,3.1568503473323517,-4.454021328044632,0.0044555380237276156
1.922686348980904,0.3717424105647494,-0.4444874010030898,0.10746602698542,0.1765764401887227,0.0163648786006228,1.9620514949310746,0.36365903072601213,-0.3695434000178466,0.10927607752728363,0.21853106209209727,0.05629182451139059,0.004571102484501825
-0.0214443244970585,0.6844997312086378,1.3880079178952809,-0.1039734443451325,0.91912829868759,-0.0112586247021481,0.024838031083163514,0.6737844608296655,1.4224732526158732,-0.11244223252379015,0.946868204432576,-0.03524281854743094,0.004781526024523589
0.4253964911243243,-0.9646660085727646,0.0025602769675375,0.3528825247565282,-0.0852412908368194,0.0890578209264689,0.45991164492443204,-0.9729611896009374,0.05607638879945398,0.39988996092779416,-0.16038440852207714,0.02293022208959883,0.0034653528290468673
0.1768994105254096,0.8754466965123211,2.276237798523694,-0.1463617670489362,1.6108623409966911,-0.019870973904407,0.18017153993059765,0.8778559418442455,2.322830116843761,-0.0961039830926893,1.6133425200673628,-0.033156517428551524,0.008856244386873772
0.4669922910060807,-0.977840433388197,0.0663496529505044,0.4187862962746834,-0.1841751486855303,-0.0030083640205883,0.45479267878272367,-0.9716884588751782,0.04550366069577194,0.3953909051051596,-0.15066798863063013,0.03018204021736892,0.0034664589812051817
2.118002378786197,0.5081938052222137,-0.4097312457905139,0.3065793041074294,-1.7352931988067128,-0.0385788739389606,2.112169022386297,0.5119080766944535,-0.4128990732360762,0.31285946700336353,-1.7300497331175393,-0.05814910756816971,0.0037038056417421673
-0.4638228026011269,1.7298376029000184,-0.3431518014710139,-0.098575133249955,-0.0558516244427792,-0.0290901266365481,-0.46214034108197666,1.7185639043864285,-0.3024337315791854,-0.08658455702425272,-0.021575599858806527,-0.03790978551523949,0.003983217215314642
-0.9720488443668788,0.0798169584867031,0.588748858714093,-0.2660194865817197,0.0121711935321865,0.0061786931344671,-0.9669410848637199,0.07525035823982762,0.6026099787031853,-0.2853725008517358,0.02136458210679848,-0.008736351925563213,0.0036049328040738716
-0.4892305875440836,-0.5851997884602302,1.061405671171707,-0.1701612641316474,0.9853427405969764,-0.008088567276748,-0.48726160694423015,-0.5857361787511763,1.0807714292868695,-0.16961354246086557,0.9969602817805026,-0.015838461254134018,0.0036492387345822865
-0.853616701106224,0.508750711485111,0.0489123192985575,3.6823314563686425,3.160037944567818,-4.14596546194146,-0.8799857076876378,0.5038615503569872,0.11290004982390656,3.6984784081571433,3.2283942633799825,-4.173993554822118,0.007447425273505007
0.712084703260915,0.5815844519706862,0.3613483993797493,-0.4749846407258747,1.816592682241948,0.0927562512453437,0.6386761962157834,0.6074606350730392,0.17757806905865436,-0.48279451987582434,1.427616671938722,0.15070211956390267,0.0040951906274570606
-0.2504001264771974,-0.839390305104722,-0.0656501337608281,-0.072255640124615,0.3002448992553588,-0.0690704072114975,-0.22574112095844612,-0.8464849331148798,-0.04547146500863164,-0.08479171556791698,0.2995770066604564,-0.08100899257215133,0.003625173530878715
-0.2939549601531095,-1.087429646966822,-2.2540546064249343,-0.2890336314875418,-0.9719773570062998,-0.0500631100750114,-0.29835157546585833,-1.1272285195245786,-2.292364484323116,-0.259693129981315,-0.9946756433095061,-0.010742804456640442,0.004199703440048001
0.8080984193039654,-0.1234708398835971,0.0942746781188225,0.0163997527964287,0.2803199537486909,0.0169327133945094,0.6449055249186131,-0.24339718179271586,0.09603319047164405,0.07910388571144722,0.2684766117017716,-0.010342887882416107,0.004857525931389165
-0.1634296145289816,0.6626781698294283,0.3185208124746639,-0.2360864109522569,0.4103895734234815,-0.0503523518585095,-0.04819751917148096,0.8769735757177841,0.31040468895298545,-0.19318120744355838,0.3358709206572712,0.07141406929804361,0.0050019080908298465
-0.4015722311851259,-0.6013671049218353,0.0729164659680575,0.0003724024356017,-0.8051357462104805,0.2299426636927111,-0.4002608970295114,-0.6010271520135575,0.13643842956298613,-0.12985846476294682,-0.6793719539674612,0.13372754316515056,0.0036548314133113026
-0.2958481179319555,-0.8422198282168779,-0.176995122736516,-0.3095717229708402,-0.3194320037467277,-0.0265391077159276,-0.29128727358147444,-0.8392620595668632,-0.18200401384910947,-0.2823162292334018,-0.3206862126271517,0.0010666980856512964,0.003500592313412102
-0.3599283975503408,-0.9298325559143656,-0.2030544241903076,-0.3909500215819156,-0.2670554333649754,-0.016187987624692,-0.3562890169050661,-0.9257772737055348,-0.20180533912662213,-0.39302553287052433,-0.24243787875911949,-0.019413806589909655,0.00348673312595044
0.4252216887596217,-0.9646962384075308,0.0026706451453661,0.3528488269194555,-0.0852264715466492,0.0889483631423422,0.4599709225285551,-0.9729244147556528,0.055861493053839695,0.40009845037275227,-0.16021703756177885,0.02293479440641022,0.0034654539395339613
1.1678775177344802,0.7378086374803353,-1.00301152848084,0.5490201915050164,-1.072972676192135,-0.0927201786434332,1.1866012738601057,0.7217613007906039,-1.0972895081490606,0.5632945831039251,-1.0489748054969823,-0.08829471445028503,0.005288622347642661
0.9172604099145328,0.5731535839853035,1.401657039754453,-0.0098915446088988,1.2845071048792778,0.0359188912556032,0.9090039596439965,0.5743293023942897,1.3791392710409127,-0.006195889080117922,1.2949756738319138,0.043494135413311596,0.0036744580594969024
-0.9697835294505116,0.5751581470273812,-0.1133062104305196,-0.2451238616636288,-0.3241163710969442,-0.0685082980357286,-0.9961007138135756,0.5848275536400251,-0.04754763626306158,-0.20749971037821524,-0.4056505081839532,-0.004253905932046109,0.0036600433611090923
0.0707778383842803,-0.5272040052905215,0.5950056706048313,-0.1393841296427308,1.6074282902570003,-0.0680067753201825,0.11799357002382749,-0.5478122638423883,0.6105478176214092,-0.1174127903777844,1.54813133527,-0.041640263501903974,0.0036241494301065304
-0.1955044309362158,0.76721616539822,-0.5216832152135444,-0.0794380588992528,-0.2046092569339863,0.0223622574321879,-0.1361496295494362,0.797839461998592,-0.5602431746938237,-0.10968992033849645,-0.14804881303189177,-0.011380564536011661,0.003841395874339685
-1.0296254850450604,0.8289063699421736,-0.1208634326838182,-0.2915927147298984,-0.3788935659658629,-0.0526378778119906,-1.046196974824852,0.8377346253373616,-0.05103025223615987,-0.2563640576063335,-0.4526399927226521,0.00036880499897051777,0.003631260401537776
-0.964732086022103,0.1426532162730255,0.4806586258603091,-0.3216657131899377,-0.1179463439832087,-0.0260965542674744,-1.0013732680154135,0.14188224946974515,0.5071751070981918,-0.3249771491136926,-0.14835712810645418,-0.018348810062889243,0.003565880068880648
-0.2223609264949022,0.4268992014008651,1.3997895983194426,-0.150260259520498,1.2667579463964276,0.0153764323744605,-0.21500982278303127,0.45778935470571014,1.2749426516584208,-0.20834337259293534,1.3010756824596683,-0.002015143363223615,0.006409060637900314
0.8912744866710919,0.6672345847244497,3.0197279256360154,0.9007947728165048,2.523779135026767,0.0812495091004517,0.8324964792018363,0.6608087139084091,2.993200210332816,0.8788414396940425,2.5274138092117937,0.07577531291281048,0.0048788896047120035
0.4260395759744835,-0.9646271221310532,0.0022132637109888,0.3530627078728905,-0.0857894779821856,0.0892807227934672,0.4599224352350575,-0.9731203889323297,0.05639192814112448,0.3993128414513194,-0.1609620244466896,0.023058734041114803,0.003465009443129833
-0.2753015952707193,1.2445019442345748,0.0382131503178935,-4.274729532563839,0.3567968806224468,-3.100474544310011,-0.1689687428296338,1.2862918856865235,0.06988909223355222,-4.345729620764814,0.393692582818403,-3.237861898102892,0.042255507972971784
0.521717921733218,-1.0019743295410024,0.1819295204285018,0.490738547197441,-0.3188032574400413,-0.103567375556867,0.5140448418842425,-1.0010428729983687,0.16625155092441446,0.4837983418819931,-0.2993915951415147,-0.0905429200256549,0.003478158264535739
-0.7628033398086297,0.9518816237069012,-0.8865858402770822,-0.3848588907969821,-1.351703492512055,0.0258066584963755,-0.8123426020165425,0.923239167360407,-0.9631567984943104,-0.37343035152844095,-1.2499423954755002,0.018257136867759982,0.0038226666875586547
-0.2687383881455666,-0.8254143318299307,0.1833343445351967,0.0279128861204389,0.1072227810647061,-0.0080769309687473,-0.21678236382604155,-0.8179419036259787,0.19788469550439913,0.05147581338133023,0.11362089655312957,0.010382383075238977,0.0040074235715052454
0.3372124314217053,-0.4845970124520248,-0.0538979689413632,-0.1784601171596151,0.1196441790758793,0.0034193354736872,0.2672369434567372,-0.5499567761680737,-0.05097439933251735,-0.12357910734681354,0.08070309980166712,-0.009156826137768803,0.004185281741144468
1.937881196314952,0.4776659019673779,-0.0255995683204806,0.5179390294675164,0.3495370922742877,-0.0298370705259709,1.8485521465081547,0.5057333195381943,-0.024768487992957944,0.5127644450112712,0.37445142205342563,-0.04421398748786487,0.004241479672015106
0.8107415820079868,1.698621196843736,0.06082943095005,0.5492083934274518,-0.0095645015769415,0.0213878308110339,0.7847306210578608,1.7297703742478916,0.04158356547645781,0.5249551166798483,0.002567098383906341,0.01155382227670998,0.004644055445702736
-1.406451447233238,1.2613807075984618,-1.126535576288881,-0.505397425964065,-1.6565722114185415,0.0107262038217632,-1.3746695014688157,1.2582494744192445,-1.1044263179992413,-0.525498749817416,-1.7277251125192379,0.006157817951589095,0.0037244177187580364
-0.7514653085231363,0.4126405211343069,0.934524276712286,0.0682976775636926,1.1451359323292245,-0.0377576211064511,-0.7205905304517728,0.4039261546704438,0.9413684480159645,0.0815029986697482,1.1508141674489707,-0.01803020936949906,0.005211152001120826
0.4249397953391544,-0.9647735374445467,0.0028231187281819,0.3527010275951046,-0.0850290420776092,0.0887857980982931,0.46015200388774247,-0.9728545868356377,0.05534471053334755,0.40045257523343025,-0.15987146839370325,0.02303514689037911,0.0034655999725116717
-1.4969514917353952,-1.218990915591626,0.7753697873795621,-0.2930129698851523,1.0409317439228971,-0.0051253357591136,-1.526471916889932,-1.2378563019201465,0.7522990691963969,-0.321730375802872,1.0297576748389474,-0.011550214636372402,0.005111933582978071
0.6202777090235501,0.2338879083023907,0.2142324860700712,-0.1247616427824478,-1.0677989856731656,0.482811357048046,0.5508405935815972,0.24243127490990446,0.2065954566369328,0.03951506889461598,-0.9541235106144086,0.32548793071759974,0.0036538930186728637
1.0295282948711022,0.7979912247712226,0.1209838967518621,-4.274729532563839,-0.5092210771006161,3.165225233469596,1.0845446480557257,0.7705390889796035,0.1597560263246578,-4.279318803536171,-0.3828987736228555,3.1598755778677514,0.00712217276087718
0.4839069720487354,-0.9787617370225812,0.0619196860311588,0.4210516424798637,-0.2033501386841794,-0.0026663914246106,0.46245270635427005,-0.9744374549991335,0.036182955013146056,0.3878633510112195,-0.16202674250780547,0.040082463808630564,0.0034957682707996186
0.4736877432558392,-0.9795338339927468,0.0740874948961615,0.4255072819160628,-0.1929361704401172,-0.0133106163551536,0.4693463188723399,-0.9775776966207559,0.0622315819563255,0.42125370914254745,-0.1795065810711094,-0.005181074085612636,0.003478667290882146
0.5222868263639905,-1.001922469656459,0.1820225919908588,0.4912730176974021,-0.3192804824927484,-0.1038183381908689,0.514122345006399,-1.001145291949797,0.1673675720124379,0.4834454273823212,-0.3002611005149447,-0.09095788208287559,0.0034780157485527242
0.1523516293725682,1.074650354533046,-1.1594228658887031,0.3315842284739234,-0.187019768117165,-0.0815992957177912,0.17346858215387329,1.0791319988575196,-1.1702680562843852,0.3345712453492524,-0.19918461693544032,-0.08391601778475888,0.0042084011186004945
-0.3233004615509288,-0.8648043650744368,-0.1883482643412552,-0.3406357492648291,-0.3199647058394366,-0.0174902757833469,-0.2982698083324067,-0.8855464172856955,-0.09197939130353916,-0.3272456244176283,-0.2684037179801635,0.008367520854335453,0.003550110723079928
0.0078651559913946,-0.5895688176761014,-0.0368074931049642,-0.1978649807784291,-0.6406991415425898,0.0627146620774934,-0.0024518114023521775,-0.5863967760187734,-0.02977142199051741,-0.12755223028216278,-0.5704933970378079,0.08768765093100228,0.0036367637660538778
0.486795796124326,1.3356171478966354,-1.2974295605293191,0.4662093179960304,-0.6786458883241137,-0.08010228005819,0.48331412302513854,1.3260315254283341,-1.2970107642390758,0.47300229298252816,-0.6832914261727012,-0.08680871203023344,0.00469986224855096
-0.997398843275688,-1.1388732448433485,-1.0996018730360018,-0.0330910615958791,-1.0805086576566898,-0.0921529629470938,-1.0427172082781908,-1.102553664934021,-1.1013780037692413,0.0034070146775775356,-1.1830340239994257,-0.010155437028970482,0.0038237747358144704
3.202760839320613,0.6565020400370132,0.1791450886556936,-4.274729532563839,-1.0587678823353517,5.592214347600176,3.151778785701282,0.6544549002765052,0.1695364625812772,-4.276974152327739,-1.0838384676779071,5.545969020081383,0.005720959297964515
-0.1818789943649479,1.5437758174487377,-0.3137501687713417,0.2984159749059836,-0.192539888280769,-0.0013431687408699,-0.25280370960445,1.4784692412094955,-0.3861229174362961,0.2636869284469867,-0.33323899314245864,-0.035869703954631404,0.004262482167768315
-0.2295802612088348,0.4854589189734982,-0.0429683039138586,3.627183660753589,2.8605661704273726,-3.48927694726043,-0.21127990106379002,0.48444244747861376,-0.035318646743007776,3.649991556882469,2.863084218168865,-3.4983070045743716,0.004027136249050659
0.6201961988551236,0.1104498298719851,-0.1368742019661768,0.5564487767988232,-0.3319867694548108,0.0218733988425646,0.6174951371358475,0.11019800387293799,-0.1355683818678699,0.5875196625656827,-0.3301559221199568,0.006351919939334039,0.003562354543778571
0.3783186753325823,0.5544883910276,-0.1043001339669121,0.0116517410572921,-0.0365504854956059,-0.0385656062856803,0.3543442978088933,0.5476646960951257,-0.12746108780038412,0.01773336988662777,-0.07708790627225426,-0.037891379153734306,0.003998928174472286
-0.9853332662908022,-1.1273718751678976,-1.140382507968256,0.0914232747109785,-1.0273202119158504,0.0044984008849873,-0.9580147736523941,-1.1212188171057278,-1.0433136950359767,0.0688655281010142,-0.9084342731753168,-0.057640034935957374,0.003803666335028214
-0.9769796486725094,-1.1385234960044917,-1.10800462960055,-0.0026995606750835,-1.0224422604243115,-0.087280799307956,-1.0147240202031753,-1.108474032367667,-1.121419572227751,0.03476936228980776,-1.1375098316748335,-0.004991996678199939,0.0037383368083189795
0.715206539602022,2.408279991851691,-1.7075814777442608,0.1919571071195324,-1.38927624556766,0.0134443376114731,0.6820262531441585,2.4040641081410286,-1.6260593442616482,0.22479320292768534,-1.4208972124001775,-0.024815921802201046,0.005037865164088277
0.5808362522414479,0.0166733619964061,-0.1397487663493934,0.5570573630621914,-0.085534385778628,-0.0029118534206858,0.5776663247888791,0.013553390408560517,-0.1451916326477658,0.5655061899033171,-0.08751340949856967,-0.013208668936385948,0.0035278524002825863
-1.9607668744413835,-1.534218553119499,2.1888267665796017,-0.6590120575344154,1.2133339016964535,-0.0338818568846313,-2.051079596175896,-1.548733235776126,2.2594072277574924,-0.6939090362711795,1.1877662532353952,-0.04416046010965147,0.006250551497495042
-0.8784153558435992,1.0495474138612042,-0.1756786037192406,0.0164115439578788,0.9274629085935308,0.0089371756343496,-0.8662760866500321,1.0491045376766124,-0.18507242714622407,-0.0016849113708303776,0.9315893982275156,-0.007833735176063783,0.003585261340987859
0.473626702853249,-0.979548226605117,0.0741013322513853,0.4254516045795439,-0.19288905326288,-0.0133085998301352,0.469413109607558,-0.9775484610272542,0.062168354360835565,0.42131997361684626,-0.17943976766264313,-0.005164075290394976,0.003478693415541915
0.2169933666990261,-0.5919722741268904,0.0065322517237215,0.0487526334495798,-0.2179634850627053,0.1847352498567473,0.18515607570498105,-0.5801393171032032,-0.0012516900851551327,-0.032748697505667224,-0.10083112145639461,0.06632397319663141,0.003685293898478551
0.1070629345332865,-0.5771930943265855,0.1276020153433454,-0.2012910147483163,0.2564331626056872,-0.1335768833522518,0.10471300998506194,-0.5879273773243767,0.1280553549686374,-0.21338169554292108,0.24113661632571848,-0.10151769183903525,0.00413379826045163
0.2354433749328172,0.3666326823654445,0.2437082488193162,0.2679287884796487,0.135452817712929,-0.0519034856491692,0.22225217788854934,0.40466540524448646,0.23650914064319295,0.37835965439990105,0.1504984331900232,-0.13782900168916967,0.003991805526589235
1.3318620134974253,0.084167385244409,0.4416943440194126,-4.274729532563839,0.5654626581529054,-4.178238177030219,1.3388761725373115,0.12068338512654009,0.4427278541434134,-4.155318766158416,0.5622858682718288,-4.142812837521433,0.009932953616726695
-0.8411820418361803,-1.1197866564422407,-0.0861255093515044,-0.2686814548163839,-0.8238841272077292,-0.005902790912688,-0.854609867768886,-1.127189342478232,-0.05721558509594615,-0.27243895636820525,-0.8182350512781795,-0.021835535369973513,0.0038144587345036486
-0.3165276155271967,-0.8708424281723947,-0.1831548786404699,-0.3521623052608955,-0.3018559658633494,-0.0176162342279946,-0.31656353594826214,-0.864589441885073,-0.1904619885590364,-0.33436597481886565,-0.2943974649242591,-0.0066693976900751295,0.003500383931325405
0.6248541202663448,0.170959018749328,-0.0577341980906596,0.6283455622148859,-0.4718395830589293,-0.0642816100989953,0.6396293594825693,0.1770587638793586,-0.0687616725767839,0.5832808346749516,-0.481180563122507,-0.003757289543045772,0.0035506692896418203
-0.0956301000608693,1.7885490535023765,-0.6134005717557867,0.5525945338921453,-0.7205063734159672,-0.0020370109807124,-0.1031842756392507,1.7703606408031192,-0.6353474287152494,0.5408395924769138,-0.7210921813239111,0.008739917954244447,0.0036285269536874866
-0.1792607246806764,1.40894536662636,-0.214004616672823,-0.4552685996164923,-0.4311181397256319,-0.2377164065170417,-0.32584563076761697,1.4199640135639129,-0.18394307923335873,-0.33391247854888206,-0.4409977543300556,-0.15612022687855642,0.003827119777121527
0.8329479433243526,2.9143507098347854,0.5839051760573133,-0.3568862435501668,1.3093891973983938,0.0584660405128586,0.9152302856796268,2.950420545866109,0.5836214716064205,-0.3795243033509905,1.3397962502224345,0.04449589092837414,0.004714609817867813
-1.8161837928419693,0.6625346485344621,0.0414480289401312,4.301637490841008,2.2119287405353774,-3.8991713806974007,-1.7911220138958015,0.6559593622810098,0.031286323817994344,4.306717688334629,2.2196038126265876,-3.884348588264743,0.004057384484789043
-0.9735890991000602,1.810375182555582,-0.0875320270285589,-0.4050568576868906,-0.4388453880485687,-0.0095029712036928,-0.9703493043616618,1.8215378047998456,-0.08675273530025152,-0.4126131821412855,-0.45115961556211914,0.0007000750920269638,0.004089604422834629
0.073803383727341,-0.6102336104294446,2.2923817952666057,0.1873321278263307,2.0473126851244907,0.0482666949172267,0.14284514208441124,-0.6005422079506388,2.234745839941297,0.150238092662903,2.071430369634527,0.026171880976582074,0.007979394052612224
-0.6994205666678374,0.5368248560632622,0.5524029601567679,-0.0385103729353135,0.914475729746884,-0.0313081166260118,-0.7272502974137751,0.501096600962228,0.6058691065563835,-0.09061471670611354,0.9594133475129638,-0.04352638312639101,0.003961410010742742
-0.2517201477502604,-0.8564477366232736,-0.1604064116163925,-0.1907627684815469,-0.2300557839243886,-0.0135613819043192,-0.19490504268105724,-0.8661637378254454,-0.09764061567875615,-0.11693765309246373,-0.28865391682757036,0.05881960873875869,0.003582904699076909
-0.1416757815486322,1.680332402309218,-0.510654475413485,0.4893145492292355,-0.5125744551811604,-0.0194648712327517,-0.1277647158203763,1.68533326843135,-0.5195514307642952,0.4720105406759103,-0.4905163542966875,-0.014352277041780326,0.003541701185810712
2.1336968847856324,0.4609783301124325,-0.3868633282802353,0.308666973418948,-1.6885863956282392,-0.0459581903503007,2.1275514975523038,0.463765698473253,-0.39019944909068727,0.3064659349456633,-1.693246645250838,-0.05485723153242361,0.003860272866941631
0.7743766510578144,0.2128316647374377,0.7282175349963332,0.0926934866238336,0.6876685471049937,-0.0751607337250224,0.7670530769009929,0.16372990537274745,0.6314310799543819,0.10067569095554063,0.6888024940517425,-0.02082066180264519,0.004389367507411538
1.8582777057995528,1.8224884714653429,-4.600730935206832,0.9755446987469324,-3.6239423236425847,-0.0437679468365558,1.8681785699874354,1.8512544684451768,-4.635942467574438,0.972781754685343,-3.6602735642964035,-0.09700397515706527,0.007102712146416838
0.0533736120092169,2.8288640775200165,-0.657673166068802,-0.3385779736719781,-0.0719456816003967,0.0197901667744214,0.06785141710497555,2.828877035161895,-0.6726651025592219,-0.37057655299577164,-0.1055368882791754,-0.02376804889581763,0.004614080262517365
-0.5628757186194235,-0.5112806069259497,1.033203793508279,-0.1770148853326779,1.108709836348189,-0.0022255602980803,-0.5681157028484449,-0.5102916029800326,1.0559011755849497,-0.17984822487051133,1.1034720296938758,-0.007690825225381559,0.0035596161049872878
-0.5180156386564271,-0.1533523265146703,-1.8681494131003629,-0.3265710315201982,-1.2503916878765975,-0.1784988910084886,-0.6371391551087981,-0.12287337128782383,-1.913060734339524,-0.13730028109057457,-1.394632226874137,-0.03655622568476247,0.004266132971083084
-1.0275603260963837,-0.3389921435129916,-0.8049455838520688,-0.4065366402606623,-0.0032419853893619,-0.0457419439294012,-0.9234421265146011,-0.20130631234042085,-0.6917038105002575,-0.4479860366864159,0.004650995455449447,0.09374457374860867,0.0052284763545784076
0.3879928602329812,0.1830064862372197,0.4479497332022703,0.1108992968746759,-0.1087413175500879,0.2677645007849819,0.3583860590697441,0.21112157728202874,0.35705240470724675,0.014481931386399083,-0.15652383682936488,0.15767483784748038,0.004879511481374169
-0.5383708412198852,1.437676720849437,-0.1700085818414727,0.3651223510239273,-0.1754102964341975,-0.0498162225876715,-0.5002029635979852,1.4451170435331733,-0.1591868654695645,0.3651466347546375,-0.16467916827241424,-0.014281797883086256,0.004100041698770599
-0.2175743271204397,-0.7998392980687749,2.408684665431267,0.6680621002781273,1.3587604795658357,-0.0520917479585416,-0.2542631012615857,-0.8036431886416722,2.363222183608741,0.6716518511038885,1.3939852608533556,-0.06435644760063042,0.006918893322286738
-0.344374010723027,0.601411076125467,0.1590978425806749,-0.2809469248348529,0.5300399310247285,0.0003235477075437,-0.24351390906667802,0.6354013395666698,0.18820199988658715,-0.30381632150420046,0.48368052949581397,-0.0123827773973062,0.004009709802897891
-1.0425106930779875,1.088170587726269,-1.0490973891474944,-0.4532754561692452,-1.6391935491084897,0.0194369792278706,-1.0620327685510347,1.0539448077724956,-1.0869223036033873,-0.4395385004772834,-1.5708068872759213,0.016883616604900453,0.003733033399481559
-0.019033263620382,0.3213431343228642,0.162282685021947,-0.3861680711159097,-0.1130460090030256,-0.0016757965196996,-0.03281777259235241,0.27816751474983903,0.15146539118586588,-0.41625660651880025,-0.08534347372369666,-0.001805019452376655,0.004300663817215781
0.4668541331286496,-0.977883789108142,0.0663952782525211,0.4186490859822608,-0.1840739117386006,-0.0030197913109898,0.45491947787377285,-0.9716514863075645,0.04523297230718981,0.3955840617982176,-0.15049047948514271,0.03023350352896159,0.0034665290552246576
0.5541548344711996,0.0034519433791597,1.9412540025622145,0.3376513943776365,1.8104962695043727,0.0436118600656435,0.5981082409141436,-0.05021084657346364,1.9210662019822848,0.34235923147934955,1.9501024968105867,0.010157793502912682,0.008009139495329168
0.6242336645868436,0.2350736714179936,0.2289803350542286,0.83188162123304,-1.278516515399954,-0.1947922268040582,0.6587130177031213,0.23253816167380137,0.24579140948253553,0.7598287948267171,-1.31477228404583,-0.13516716713979804,0.003942542511805317
1.9247063397832125,1.8145248270380263,-4.772610589267219,1.1094102675446853,-3.688772045871325,-0.0535977782100275,1.9050356513763518,1.7614328605877745,-4.6380919851849,1.1463926553852843,-3.6770360794500903,-0.04617784004221903,0.008764265727635393
-0.3387572820342894,-0.8915575545643173,-0.19526228228283,-0.3672582106929516,-0.2991527860569294,-0.0174783616008901,-0.3366835667320629,-0.888292221188749,-0.19572689711912972,-0.36485829242155887,-0.27282257414844935,-0.015962373474394553,0.0034943404954900815
-0.1018541136162375,-0.7139006870359004,-0.5606746169187146,-0.1801315335513025,0.0907696342199317,-0.2294998148350687,-0.2133957053093809,-0.7502626414332099,-0.5548902605509056,0.13113985116979165,0.05277757463824173,-0.024707662922196505,0.013498511303570996
-0.4198025052724341,-0.632469375911505,1.0745241271238943,-0.1671692988260103,0.8852904673202475,-0.010575771150239,-0.40436859424244176,-0.6217569959881075,1.0764421872481762,-0.1747122414799378,0.9039186295856325,-0.018294101925675932,0.0036587344509768117
-0.03868387228589,-0.6023526565024232,-0.5778394700232399,-0.2351596117834055,-0.0732242583775909,-0.2674663484793954,-0.10537042982974754,-0.6210075495629326,-0.550683037278759,-0.06552328190491608,-0.14865337883139773,-0.1463659540736444,0.013873981794948424
-0.1053335284685788,-0.872415853466535,-0.0012849423404975,0.1187804153006886,0.1279785665911079,0.134745996193243,-0.13158257097074966,-0.8621016347906334,-0.04565771428315202,0.04310608117521042,0.14632977123255841,0.07582146644563181,0.003545510305976666
1.9555302014266585,-0.2163648254800987,-0.8527412691884668,-0.3071777003194049,-0.6666082995940773,-0.0259223106320894,2.0113132884407605,-0.220061650155003,-0.8425477436439905,-0.29006790470157284,-0.6552812780283261,-0.037636291106082354,0.005630484071766421
-0.4481823805052455,1.647549180446499,-0.3564993443804269,-0.0759174789634977,-0.0784780626713409,-0.028781441914189,-0.4401033951671707,1.6426876724872272,-0.31188249240949517,-0.06894883309905708,-0.031206267386096442,-0.0366448784466229,0.004120522267552832
0.2400961456243531,-0.5990749103615016,-0.0530520400249274,-0.0317619668081821,0.3397154712717626,-0.068458672787738,0.2637272280189791,-0.5890009461663794,-0.10553003337281552,0.01580578143330058,0.3506976280186791,-0.03784278405555597,0.004020190533510163
-2.548928896598916,0.6757658984766529,0.0836201639056715,4.017728345780097,3.0206980494857145,-5.396626760700459,-2.4918329143259825,0.6737969927169729,0.07907080170275549,4.028303568105798,2.981300666958589,-5.325784478367723,0.0057543455500812
-0.2186704887044305,1.59256330229469,-0.5410951993127783,0.3976269527985096,-0.388685786426683,0.0212980714613371,-0.2421458144508506,1.5932730307004022,-0.47010020483685366,0.43190507504550624,-0.39621621965306986,-0.007341175919464149,0.003684944780162073
-2.584081441451532,-0.6079979944575122,-4.9160269528378135,-0.9034111916335466,-2.228424862251658,-0.1606492875658378,-2.6045277793082278,-0.6132139679912143,-4.915990482987127,-0.8894301620257465,-2.1396957456036034,-0.13268645183143235,0.0040809296224508275
0.425617261684789,-0.9646428270387466,0.0024574177608386,0.3529949615266065,-0.085535363839864,0.0891166811326181,0.45988277637752617,-0.9730223653250505,0.056245349551659274,0.3996893698504209,-0.16060061965526984,0.02293369517019528,0.0034652326560410986
0.4734914344332013,-0.9795871415142096,0.0741407841430447,0.4253152709103758,-0.1927967728785324,-0.0133045416733568,0.4696008844048265,-0.9774844042140103,0.062021539620445765,0.4214839681435478,-0.179289809243528,-0.0051260015161460615,0.0034787476519617146
0.8325327224778072,1.1604603512058658,-1.0849465884280454,0.5758224168547753,-1.4400724086685786,-0.0228681818666294,0.82068720469033,1.1514113631110376,-1.1017820706883867,0.5670714189573118,-1.4382464259456356,-0.01830531379664535,0.0045489972402072455
0.9691252267421624,2.9862844516115072,0.6210724360737991,-0.4430098354738868,1.5400220622546683,0.0258928226773681,0.9337703586697899,2.988273632569417,0.5940960987563813,-0.43912290494517947,1.4664955874656016,0.044493194237929856,0.004090257765018538
0.2734435384260301,0.2877481979248492,0.2804237971970962,0.5494008702820209,-0.2929262275403461,-0.1793973416577479,0.25994838530550624,0.28397148757085233,0.2752010199246797,0.5915985859819557,-0.29819303659678553,-0.20993727328209388,0.0037829423329298097
0.882654554347554,1.5468498993380788,0.0545236400328719,0.4792631548068427,-0.2658456374550357,0.0077138419899858,0.8341307525270167,1.5114956614579569,0.052221289451608754,0.4802585594052289,-0.26165271717809446,0.03531334250874352,0.004677343633524959
-1.4473111923458943,1.4667887028252269,-0.9410095665629152,-0.5574574963806413,-1.5163945647036363,0.0007831850428888,-1.4500633886364085,1.4739146300144057,-0.9122355534791495,-0.5411502767346974,-1.472318493574221,-0.0017173698079204769,0.003656708339765561
1.1319085645626272,0.8211096206665343,-1.3416289497245593,0.536482853419551,-1.2965058866287398,-0.031179439658833,1.1262738863269988,0.8231004216486326,-1.2895924058673245,0.5098121013843411,-1.2888330223067896,-0.0323850651527664,0.004325695400315414
0.5272057722729007,-1.0024531390100098,0.1829363805678287,0.4928968637294962,-0.3253498692664815,-0.1048228657301157,0.5163666448770527,-1.0016561349775657,0.16742702813206733,0.4816026726130076,-0.30431975522151333,-0.09048926107379884,0.0034766021890361744
0.6213491168125371,0.0999543355814651,-0.0943383929855912,0.5970758536500432,-0.3504583359931081,-0.0329455076439419,0.6295026137677269,0.10276689062447986,-0.10463641668138735,0.5749404926709758,-0.35173740681238996,0.006402618546871963,0.003534167075422704
-0.7634957144937365,-1.1198493616577654,-2.493481565820976,-0.3503164593857902,-1.587721185962037,0.0752309889406476,-0.7515316274821089,-1.1328715831641603,-2.5502043654696536,-0.3751091596805054,-1.4865767219512236,0.05273130221644351,0.003969333766474296
-0.3875664805745292,0.346053747127137,-0.3729538067746825,-0.215920277286376,-0.2045259219448824,-0.0244574075618639,-0.4230749794401163,0.32486633920143504,-0.3513977166830955,-0.18017331055125396,-0.2509839504386946,0.0032890088605199708,0.0036117660534002484
0.589082355649791,0.2955137183678946,0.1746595099843332,-4.274729532563839,0.6371113621041067,-3.9423671252733614,0.5869420500357592,0.27870764624321964,0.16450527591132413,-4.321426237062042,0.7749988234950251,-3.8828535573456975,0.008950625760296208
1.1010766892661334,0.7101745216224401,-1.1856733386323317,-0.0819696271121308,-0.6663861961013344,0.0158917227202015,1.0720647142961752,0.7128971617084972,-1.2102048509977976,-0.08407748803165305,-0.6722715658094103,-0.005827740354789057,0.0039011615721988337
0.3475683780277194,0.7599613518078125,1.6665752387811197,-0.316174568966217,1.9426610845981045,-0.0452155465811424,0.43883556019864045,0.9028878003518912,1.722699140743316,-0.3234870356372994,1.7956851073947746,0.062389063896716834,0.005535967348219987
0.6241408775238713,0.141050002461811,-0.1311355610644032,0.5506322167348117,-0.3867013988576571,0.0312171539060367,0.6216056263201608,0.14229006925324938,-0.12875988802443317,0.5880230908551312,-0.3832402484413251,0.006999595233992295,0.003577260362452154
-0.3275332267287664,-0.8755676811142205,-0.1911287758778056,-0.3574323942682417,-0.3093365422305861,-0.0204538229767645,-0.3252544328179283,-0.8722155250361538,-0.19237356782196002,-0.3470497105463437,-0.28739477260705826,-0.011940029042762035,0.00349832443930315
-0.5543682012197884,-0.5197658080684692,1.0439673285158766,-0.1721708975703743,1.0840455754211276,-0.0087423202401938,-0.5598543073792825,-0.5223958943715843,1.057635528861283,-0.17617155882362567,1.0877311434360308,-0.008481596541969338,0.003549803427934154
1.1808419543616344,0.6943664528286946,-0.7868229334616901,0.4677473469967423,-0.6582363260944727,-0.0228323130014271,1.1755380696777138,0.6851504499054499,-0.831187707324716,0.4843774739811124,-0.6037934965593195,-0.049704565678439394,0.0046848592793586365
1.8554083016455944,1.1876894266304792,-0.3877957598862884,0.3281984818300923,-1.607083906478864,-0.0369725022475666,1.8654048828793748,1.1907075253147923,-0.3812838786998327,0.3261759117058318,-1.5982432965156477,-0.027254087004394023,0.0036757197975105273
1.920569957272583,1.0507930686197675,-0.4042678147470752,0.3253074314508368,-1.6612037823425236,-0.0379484182737246,1.932600920115874,1.052165424879604,-0.3950695700468714,0.3245677948643788,-1.6468993775129093,-0.027598934479556192,0.003776389558304675
-0.0903780307804309,1.849073630809984,-0.5576473770019189,0.5686576690892212,-0.7595979979888176,-0.0170780871092101,-0.06660885298697394,1.862079106414967,-0.5584144877111612,0.5882933882003272,-0.7586034636833574,-0.013938318258169602,0.003591403399742791
-0.3437479485065274,-0.9007145573196526,-0.1969945922707399,-0.3741022044277349,-0.2917067586284735,-0.0172855672524993,-0.3416492849582937,-0.8971882499681669,-0.19754828164695937,-0.37247345361174666,-0.26519937520561143,-0.016904241410884424,0.0034922114927701843
-2.0840656572626908,0.5679494497798465,0.0893357011296727,3.7897033539897658,3.1792225674483694,-5.36280995274006,-2.0799043947635028,0.5761850402674327,0.06593257407394049,3.811177232197906,3.1472809996907927,-5.361665874398682,0.0057785844086068495
0.521710867823075,-1.001975766347844,0.1819265444755769,0.4907294549975947,-0.3187961879520282,-0.1035634425285641,0.514042483783669,-1.0010434308342155,0.16622847795565576,0.48380622652257443,-0.299380106857825,-0.09053782392857102,0.003478157196643298
-0.7568773360326048,-1.3804989661923297,-1.7433644393412575,-0.3628824851787113,-1.018036481030152,-0.0258515134896243,-0.8129611140939232,-1.382637140877705,-1.76283992535582,-0.30953952418713016,-1.1183217293237249,0.016947972663274413,0.003728698301639969
-1.5931396204404054,-0.3295374572027543,-1.206389809427359,-0.5665929884358422,-0.0284450683961572,-0.0042954456081524,-1.599059207127084,-0.347509101072319,-1.2183204880693665,-0.5745631838399277,-0.004802134621741061,-0.018014801358731347,0.004189912158744039
0.3309360138487897,0.972322028975424,2.2516658032172194,-0.1296410128452993,1.6889031521696696,-0.0633908820829155,0.3459295118541377,0.9626878281474092,2.157183609862841,-0.18258438437806035,1.709900063857276,-0.10049627838418473,0.0056173542564692015
0.0979338945823813,-0.5384918950070393,0.7419021822659237,-0.1051061505984456,1.5950790546788174,-0.0185985262029563,0.09371195207768324,-0.5303454529575902,0.6705322421139499,-0.12447667957894737,1.5668225970669027,-0.042989413962459366,0.003639134139146353
-1.068702162853124,0.954751344608167,-0.1023837824651199,-0.2847306511311039,-0.4334101107674181,-0.016353513512032,-1.0623950577264623,0.9464159670378649,-0.12901965824403305,-0.297156929042103,-0.4225064224824564,-0.03600353285764868,0.003812703657381792
0.4735318513204645,-0.9795745776358918,0.0741259258807599,0.425357491088189,-0.1928211480043082,-0.0133055577020889,0.4695372553387642,-0.977502996272051,0.062063369668749147,0.4214319554048416,-0.1793325484018169,-0.005135344462814828,0.003478732426871193
0.5937733227557888,0.3053701165335359,-0.0212180650391835,0.670705577199427,-0.5290261811317987,-0.1218714475472527,0.6058848330203546,0.31139847986923996,-0.013006280029912887,0.6146449495308843,-0.5592653368876199,-0.06522872013192682,0.0036974183172488496
-0.086800079013578,1.853033505264618,-0.6148106066084902,0.5724982472960723,-0.7968922058264348,-0.0074942081165707,-0.08856094978000328,1.8466247318101523,-0.6107514625728072,0.5827656498495344,-0.8080120603763135,0.00267106656838223,0.0036542698300514077
0.7916847394012534,0.937839430530063,0.9958947357631944,0.0961381917316222,0.80189198531482,-0.0762444715132267,0.8045401967447106,0.9546255810400908,0.9855674784230359,0.11299341450285283,0.8178730377530883,-0.06645030222762216,0.004094680770493301
0.7010977548336341,0.1113106453625455,1.811781825582416,0.6136233047391233,1.8962330004997832,0.0364846978857867,0.766525792977518,0.11756711482030369,1.9520998821853937,0.6412188171379967,1.8321938246631362,0.013174726243960322,0.006003820858101864
0.5702451165380481,0.3956760528038217,0.0062104012394208,0.6863843479329443,-0.475350708446202,-0.1617252264599803,0.5568446532943199,0.396560555904216,0.0019284249929114594,0.6698371453039726,-0.4837309970516799,-0.13723478477731987,0.0038616511256257015
-0.2919306154366136,-1.2675541377241415,-0.5627306815681888,-0.112598100150532,-0.067719356778134,0.0265391129583748,-0.3847353815435781,-1.2177147487336697,-0.5344172055492891,-0.12820387448482506,-0.012573211548442487,0.003427254126108892,0.004388052767229925
0.2416679506410247,-0.5291785160785696,0.4239125546752004,-0.0720142826548195,0.3810894673155953,0.0052633471414133,0.14737526906264975,-0.6771864281536182,0.3473314469815705,-0.11507639566843864,0.38611157896502846,-0.06569493677761784,0.006542424652782489
-0.244358238904334,-0.951353210022,0.0300132088290571,0.0158332639177623,0.8334606574550786,-0.1612198956994497,-0.27793441065205116,-0.9326062563941377,0.0464813727148794,-0.007822801326256013,0.870014284734907,-0.1993945926892593,0.004302418796069577
0.5076898298932301,3.035756485508014,-1.0841344438493288,-0.1239526616581376,-0.8337635050090245,-0.0149516224133781,0.4823587624432548,3.027186524868739,-1.042750740610245,-0.11719743656431092,-0.8093340958337194,-0.012915378198613325,0.0040024173357415295
-0.5954219636664898,0.4716925500796509,0.6012382428628931,-1.8626915870841765,-0.8412033258802128,-1.1134868365032156,-0.5414293695994274,0.544244309973692,0.6137408347512974,-2.0798858629295864,-0.6968839772779347,-1.190074697577984,0.009927443498654657
2.3633477713093414,0.0756206912327162,-0.8928101602877793,-0.2716343545593602,-0.7568539014420216,-0.0441856344320882,2.3914240752546903,0.06422731957627548,-0.8657007026927204,-0.26972183596262767,-0.7440215073838772,-0.05530446834382019,0.003951703034861868
0.1603523939530476,-0.575950758143429,0.485282707643035,-0.1358895752347439,1.596768979877749,-0.0882097589984754,0.19942632596394105,-0.5969130346657039,0.5008621141432741,-0.112446033708693,1.5411061525994683,-0.06061048519995893,0.0038659469106831525
-2.015881298821178,-2.3795003995878,1.8900697883759137,-0.4362179234818185,-0.8912416162062493,0.0245628070696391,-1.9837943217098655,-2.3745157774374093,1.874963285159538,-0.4593886483889946,-0.8750018759028535,0.00933192441243591,0.004675624069098109
1.277313251428274,1.0912668875448783,-1.1687151933514504,-0.0953343746274738,-0.3548396522713236,0.05877807084203,1.2611608056640762,1.1086311893695893,-1.1818077171396908,-0.08042690340789704,-0.3811254191545004,0.045083841645919165,0.005099034140070461
1.1606268198533756,0.7764037919496227,-1.1766182105892324,0.5117490560915283,-1.109106649896252,-0.0294006968596734,1.1127525870515456,0.7941971220816413,-1.1932163258843502,0.43049688451264956,-0.9876320998578194,-0.02673671918319087,0.007004532871033479
-0.4128881162661376,1.4292836155608462,-0.5327441418890453,0.3666518593276814,-0.314583874192462,0.0019840747575739,-0.4455869636058196,1.4245705781713696,-0.49294009070035827,0.3358281626133248,-0.2997326260392583,-0.057161097315201914,0.0037146091810781913
1.835138270563208,1.2133476436408268,1.8712018883364732,0.1063095306776531,1.550334921858305,0.0507926666060259,1.8146121906929693,1.2107397981371832,1.8168174708880542,0.10452301235272898,1.5244388392964083,0.047899264533498354,0.004102447906810528
2.04303261974574,0.7527731105008407,-1.827872765365312,0.5683531574166821,-1.4005999468842938,-0.0372994448249972,2.0674704792327248,0.7536036981755387,-1.7026674361698042,0.5424883340601809,-1.4451421347962423,-0.040446697106517604,0.0055503318698561545
0.4253342140958311,-0.9646752006398852,0.0025957219909272,0.3528595045270029,-0.0851987435025965,0.0890301754195361,0.45993041629026266,-0.9729449673905037,0.05601322857381774,0.3999553210187514,-0.1603237102822277,0.022932682439204655,0.0034653897914551125
-0.3166178231270323,-0.6109028766509963,-0.0797011235248362,-0.3488548239858994,-1.2021653129851553,0.0622878667156573,-0.4282780936891868,-0.6304318582824635,-0.049329244744512835,-0.10989867498574313,-1.1716101491515474,0.23723344421341608,0.003666560619429663
-0.9242458871019492,-0.989011793814396,-0.7929457325822037,0.0443549628733512,-0.8941985885369889,0.0063653072436394,-0.9618584429608745,-0.9960991356538216,-0.8298468567900272,-0.0039054414701240603,-0.9452584378536812,0.011205381160834804,0.0041148944981485615
-0.0490824868119213,0.7252274618187668,0.2892599063484931,-0.1947813992223772,0.51315521720142,-0.0136484027715528,-0.019008340144864633,0.7421331401492353,0.22545924683618068,-0.2444734687123855,0.48711986416174113,-0.05132058917388349,0.004374000321978048
-0.8378782156296742,-1.521514358110519,-1.1473438290364082,-0.2697523564769826,-0.8131741259468692,0.0111108486806894,-0.7802493944773232,-1.4523762419303239,-1.0831082994575354,-0.24245862295356346,-0.8099265564082998,0.008172525202553516,0.004515399563601977
0.5304261643210021,-1.002867615472707,0.1835224523280939,0.4935327227337222,-0.3295576085313798,-0.1053112184996826,0.5180952624195925,-1.0018804576166076,0.16614480326273906,0.4806501394632505,-0.3066044755337316,-0.0896250309115203,0.0034778551558935535
0.1552519934550769,-0.6070405592139608,-0.0035818334902691,0.0888927476888067,-0.4742404048040954,0.2600844800058775,0.1257208167507997,-0.5850079103984172,-0.02568770556445088,-0.029258292066515423,-0.34913024854404284,0.11669365931629727,0.0036247668437183224
0.7183558382427324,2.8715578443977763,0.8453602329098079,-0.4701002476829443,1.5850570877126369,0.057234948885361,0.7090222343490495,2.8526857392585043,0.8557993550907668,-0.4736623482676805,1.6472199790854347,0.031900846614007605,0.004815755100648193
0.4734104629352141,-0.9796146379753836,0.074164235701769,0.4252244534111734,-0.1927306116413372,-0.0133027930550373,0.469726495809482,-0.9774496653290043,0.06192284082533206,0.42159234427890624,-0.17918670698372807,-0.005104238139210793,0.00347877380150469
1.955048334013779,0.9717122479187192,-0.4135362451698265,0.3234991624364161,-1.6916368802837718,-0.0384406213938877,1.9655957316854256,0.9717305623053107,-0.4037848715165637,0.3234475345725514,-1.6755367679661504,-0.02909118732100069,0.003804700247834251
0.2787062238501815,1.031544426797268,-0.528046139524461,0.395973078904498,-0.3265740170640773,-0.0142058842687733,0.263542783101002,1.0145905590261464,-0.5532297617628501,0.3822272728484677,-0.36740319979389824,-0.03877615221654196,0.004080526192642157
-2.6825895879944035,1.0652729295753802,0.481012822451498,3.435808547989849,-2.788101621703455,3.2281969626797404,-2.6940330493853253,1.0530967931199484,0.473533924207004,3.5051471681717885,-2.820609300484648,3.26411905366308,0.0041018823281510665
-1.494738130666792,1.5303492866238646,-0.8507470344333409,-0.5316988258494073,-1.4157154412452448,0.0242966312239034,-1.4768392465393845,1.5440515513437276,-0.8696084182174673,-0.5610052236243064,-1.4225827352279339,-0.001567763928505883,0.003849922486818872
-3.112297790589979,-2.7388757512666757,-0.2092982961820621,-1.0974367549745334,0.3784780888272737,0.1015232529355742,-3.088806682073937,-2.728735847965254,-0.21845985097843368,-1.0884320578279585,0.35625359826462955,0.1181002702414844,0.00495830117804336
-0.7919741745861723,-1.2175254267767364,-2.2472307842931696,-0.3316784102601818,-1.4637403798901685,0.0704142775093027,-0.7880386355254814,-1.246094022847501,-2.292958264712979,-0.35255181143566006,-1.3596454957682909,0.04962196167207367,0.0040298534772282325
-0.023970886850459,1.1839372055072095,-0.0237050527764817,-4.274729532563839,-0.0145834343881185,-3.276316565790218,-0.08912795761614234,1.1565138109797317,-0.036150090347973673,-4.212639551298253,-0.0494438740950045,-3.1927325397516597,0.008211937815165885
-0.2149084898141789,0.8546259704637199,0.8694031772402409,-0.2865731523951292,0.7559071885782013,-0.0334539094656016,-0.32663128930607854,0.9327842592883826,0.9433531072172627,-0.3374734690796686,0.6941641496832744,-0.04905989432472779,0.004388024090417889
1.2844617582987474,1.1050528071663783,-1.2201702040052007,-0.069985195309488,-0.4699198211479041,0.0100885093533692,1.3319400616869643,1.113106251539648,-1.222400909215139,-0.07595535811196896,-0.5721480285277494,0.0412638376662926,0.0065285805859011704
-0.6601528164929144,-1.12716672345853,-1.0626708971443013,0.2209519833979309,-0.4235212516115575,-0.0670729303856363,-0.7074561925401213,-1.1699009381627548,-1.0345604175890912,0.1823419896300038,-0.45490171324399853,-0.013079820666462183,0.004065310948352777
-0.2032345571203943,-0.5853625074468928,-0.0677479660029701,-0.2867996723559802,-1.0840345092290398,0.0866078029362167,-0.2678290539415684,-0.5952218384081789,-0.03521724860001996,-0.12433108171353524,-1.0520833297305217,0.20538466110792797,0.0036447996710974907
-0.2427050699606423,-0.8681526884366144,-0.1580057028075219,-0.1612172540845181,-0.1948571484896701,-0.0086614425838678,-0.20011065845210396,-0.8792899657883027,-0.10061670782852161,-0.09300118699138693,-0.2540832718614183,0.0540296906497133,0.0036201649189606146
0.3573677850799068,-0.3713364474745305,0.7612157991184875,0.3790504705270764,1.1393255363835162,0.0132023501339108,0.37159741060804663,-0.3201295840590319,0.7953200044694313,0.36281922087255225,1.1228843196763592,-0.037296847573543346,0.004268751014106346
-0.3008001925649218,0.7152443113944299,0.93411703199256,-0.3109900166645555,0.8736205167874972,-0.0306414694565621,-0.38527303080945785,0.7740576961145962,0.9998927601570813,-0.35808018688749144,0.8010837671829449,-0.05284440763375642,0.00449528004371719
0.5499622578723099,-1.004053243106954,0.1892876419723667,0.4959947663189208,-0.3518000615237432,-0.1077075146823919,0.5288912133446502,-0.999936887502372,0.15479922113303246,0.47368315412404627,-0.31434881467521336,-0.07951569079750698,0.003526408624730141
-1.3952062433004908,-1.6585397955999646,0.6605825734571554,-0.3510188924173394,-1.0570153726321094,0.0068564793208267,-1.3594053239648929,-1.6265727555119156,0.5829478975847451,-0.327612651648451,-1.0230630166524861,0.017427860642328596,0.004360019111676553
0.7816113198740298,2.197853455536165,-1.0575654597022217,-0.0222491352926407,0.3049275404270578,-0.1041350305563241,0.7518764271276268,2.199028128545706,-1.0095692690611031,0.05148464864214475,0.2652042303948292,-0.07511508551169754,0.0052579606782294265
-0.2035160135280531,0.6651471634000912,-0.4857245320821459,-0.1025759102127743,-0.2094493018350544,0.0158611465580131,-0.16549068196081862,0.6714646836635438,-0.544057758083909,-0.14724416908575222,-0.13598180968801898,-0.02485016457603706,0.0036401233672200307
0.0652510153239857,-0.5865466211032067,0.1206666335993252,-0.2330133426367869,0.2360841313124257,-0.1577224658455572,0.06635171316702326,-0.5941995177036006,0.11394452878084849,-0.23301222629015683,0.21778311492465718,-0.12181188173508417,0.004067955263917514
0.0763539587424025,0.4254583378473546,0.0040972952728576,-0.0548660298168744,-0.0906779838167759,-0.0239224563662049,0.10529586999837193,0.44254965652271494,0.004091717808023532,-0.06554689018412319,-0.054902736778103645,-0.02005018939371439,0.004644345415301291
0.6226103149653236,0.2246486124264067,-0.0962190539168648,0.5716203954374073,-0.4918301153330916,0.0031027931692316,0.6200881333525103,0.23401860882859182,-0.11049083411171523,0.5704296913800135,-0.47430256391999137,0.01100780441038296,0.003590327053569712
0.474846937892782,-0.9794773758953558,0.0738332160981604,0.4261205608350388,-0.194026124044139,-0.0133497325170477,0.46900967226793,-0.9781283616975998,0.0627312639355182,0.42051696522139537,-0.18066273640306463,-0.005192357014038862,0.003477933794958591
-0.2213031393843088,0.4039838639314186,0.7990747711491252,-0.3857143335950988,1.1743397928363752,0.0089913519566403,-0.21332749219709513,0.40262212314155477,0.821791620734075,-0.3936037662624585,1.1343591654645024,0.02028317507574684,0.004179066587806705
0.5935179581301243,0.0317984245876757,-0.1284130935461594,0.5674671368723662,-0.1475474687713455,-0.014147891594261,0.5909540804050266,0.030071429970121244,-0.1352967508155416,0.5708227718732815,-0.14536073717590625,-0.009603896674434509,0.0035093582042981554
-1.061066784916459,1.076164635087086,-0.1528526182737005,-0.1177996801016949,0.647775709002129,0.0128573692396231,-1.0749393933992906,1.0616771555742162,-0.16584602263719717,-0.11672621042635001,0.6591252214511769,0.008497740569964662,0.0037961643027457116
0.4736441047969577,-0.9795439365103,0.0740976900085284,0.425467893058358,-0.1929029359272432,-0.0133091342458359,0.4693937570336857,-0.977556661532617,0.06218732008238703,0.4213006889940516,-0.17945929183315457,-0.00516925343163166,0.003478684901520427
-0.1847679936346994,0.1657836659538919,0.1517762880324808,-0.3241274110088926,0.3833372592444522,0.0070379913277907,-0.17188471544159256,0.166777869314501,0.11535218742210418,-0.33375622257517534,0.41123343994672723,-0.006184778327224194,0.004585748874980925
0.9601851653789862,0.5410691110045213,0.4321180724179314,-0.2440806055149173,1.5113667978124727,-0.0101331232323775,0.963501532997725,0.545159760318711,0.4008986678445581,-0.21303480568440136,1.3725702790657124,-0.043363447603042005,0.0038006653402404313
-0.4154723806017917,-0.3782014171950781,0.2724631811541791,-0.2092568493708782,0.3845621406772247,0.0079159536474679,-0.4202503813103249,-0.3769562091820262,0.276001009005995,-0.2102143395168241,0.35795917679752165,0.03552246870913223,0.004529985714960719
-1.2185176196500418,-1.215268707236456,-2.683131890845818,-0.3998656079050894,-1.9066553679428333,0.0370650031744502,-1.2336530515335653,-1.208322796862376,-2.6878371244738446,-0.40580256119937985,-1.8860227707250488,0.028578695143551158,0.004636216652529061
0.6243692052225948,0.1748324920397799,-0.0560508017696872,0.6296033181111779,-0.475962533543978,-0.0655532411628148,0.6392617368292122,0.18099669839921262,-0.06703595180761113,0.5847052782264655,-0.4861853461879946,-0.005530930602162698,0.0035514906648549983
0.4669495458097537,-0.9778526228080794,0.0663647344685416,0.4187463920135472,-0.1841450808770612,-0.0030118478729493,0.4548298126219379,-0.971677442179498,0.04542823627815551,0.39544916057820956,-0.1506194885955665,0.030194719104656542,0.0034664821417364523
0.4756358309897941,-0.9795249650969504,0.0736762991186395,0.4263549695466611,-0.1948873855113876,-0.0133769637055603,0.4691918279913807,-0.9784982775136086,0.06278364773430667,0.4202526712897452,-0.18147598289579037,-0.005072810558431229,0.0034774556363614297
-0.4814404465063334,1.0185453180532105,-0.3670841429683955,-0.2730542302587348,-1.0400783416124044,-0.1159658074787418,-0.48386264920100075,1.0033634210612945,-0.42629862042031164,-0.24845170746084477,-0.9858509665054953,-0.08704413338136874,0.004421376244952927
-0.237586673717825,-0.7612638685707254,0.2126920397936704,-0.0385957629715662,0.0658123153110192,-0.0570777267729582,-0.2413384876008422,-0.7421337217592736,0.24591066354150826,-0.024591844990936806,0.06978557899037696,-0.05501906581298499,0.004209483813309493
0.6128137701638275,0.2842008910287554,-0.081777278413333,0.5662330504632476,-0.5271896531954837,0.003451206128261,0.6150347330139994,0.2981368309037862,-0.09079464524756986,0.5438398333799341,-0.5116275617647261,0.016785479039754136,0.0035810282321803756
-2.5672280567821595,-0.6487788568679163,-4.883424384313916,-0.8759978528074939,-2.150093102401622,-0.1510916822450534,-2.565003412409169,-0.6545888421928794,-4.857004515864219,-0.8591673533210269,-2.1100327246953157,-0.12722110320328284,0.004296985772065557
0.0619104440339744,-0.5146658897952497,0.7581616785951667,-0.1190585910052174,1.5807747588753205,-0.0237850950962694,0.06060987973705778,-0.5055070570151656,0.687757077016613,-0.12779027507531282,1.5499979063345108,-0.03928500302254179,0.0036511620877496855
0.4962871435160823,0.5185469520901137,-0.0941702922275002,0.0269150781285019,-0.0390135215729616,-0.0454161863795397,0.46949942486207874,0.5050262768572793,-0.07691830979820224,0.015630506839443115,-0.025425312058814598,-0.04643485780979972,0.00393613094920359
-0.7402048663711589,-0.6443146199529526,0.4595957270238726,-0.2533755715295023,0.7073689507919444,0.0070300498136831,-0.6900539835523887,-0.5961385460286692,0.5092501932240339,-0.21429013766464777,0.7676127740987795,-0.009333968695500516,0.004624831160069124
-0.8326564538832948,0.9610559591170588,-0.9333559410494854,-0.3805477749222481,-1.1897836263586266,-0.0105731161476049,-0.8352513150603045,0.9765837756349356,-0.9184237007712,-0.3799477016491437,-1.1465037801131075,-0.01474520986130301,0.003706563679572287
0.4249907933037101,-0.9647549719250064,0.0027830411882984,0.3526952759816913,-0.0849529881822083,0.0888472732897882,0.46010998543897585,-0.9728625656671284,0.0554737637847893,0.4003677737191538,-0.15994327498947314,0.023015907568606053,0.0034655707953176774
-0.0701354932107966,-0.6009457383609866,0.1086645601402412,-0.3624643873064427,0.1512340785037726,-0.2437375059243365,-0.0555067985687856,-0.601997624788055,0.09440289248504996,-0.3133302165897476,0.11566491750667751,-0.1904427153576762,0.003980493718697079
-0.7657830533269899,0.2802950631998647,0.0342515267696823,-0.1018540712022403,-0.1894663074167397,-0.0192987949033618,-0.7491648060722582,0.407016366820244,-0.0007296266412595287,-0.09017626170134463,-0.1938477388953288,0.010559937457855995,0.00599705858939065
-0.3602259799393103,-0.9436429932829664,-0.2008823180033143,-0.3992762134435088,-0.2473246804741588,-0.012514364780791,-0.359407381469282,-0.9361871162573152,-0.20266893137522857,-0.3973950497147598,-0.2330958649627064,-0.0180788193592889,0.003486042851115815
-0.967087745964158,-0.6214024119674728,0.4456478638609744,-0.2181262038653151,0.8315370607558594,0.0005760043822368,-0.960699590376862,-0.6244628587210173,0.5249201801079835,-0.22233814750507008,0.8303398695193209,0.010757142166312406,0.0040088409100184665
-2.533112232596757,-2.750752383189788,-3.3928897044943938,-0.894493062636514,-1.6337159345429155,-0.0081408659299798,-2.508795599119594,-2.7663958881580584,-3.416973706223871,-0.8811498095337811,-1.6302032177829915,0.018573651855376738,0.008243284788236497
2.263315074280509,-0.0150797263723931,-0.9389376150151608,-0.3533866151853875,-0.6645649585810188,-0.0486966578967073,2.3024951282463917,-0.02270436942444576,-0.8899328624042937,-0.34001125371014496,-0.6346369481674401,-0.03624341700515288,0.0039994132888742685
-1.6579654890442173,-1.1690676957360997,0.7007957886195378,-0.1748427871589688,0.6852246739480126,-0.0251882553588024,-1.6694749809639688,-1.2148527625759016,0.6424348373079738,-0.23275058001308935,0.6180329309331682,-0.023060719586283085,0.006927484118080588
1.1271060528939345,1.1307426161391745,-0.7898161316370921,-0.0812416167448037,0.2217496434546452,-0.0225290871129542,1.1616834390497388,1.1391883701144252,-0.7705399663054777,-0.10335399215910002,0.19913878496663528,-0.014464820396142386,0.0055109517018194255
-0.0181461417531891,0.2163587396296477,1.1079250753658,-0.0912280388904535,1.001381745965451,-0.0590297246391248,-0.020084896126718377,0.22993208600746584,1.035624108661068,-0.03774396178232564,0.8786568052673829,0.04260644335681718,0.004102838041188665
-0.5805339580086306,-0.4834530182109328,1.0269175000959048,-0.1779250259308902,1.1326704666595573,-0.0028051788655087,-0.5795423737235978,-0.47829666825873574,1.0292868104279478,-0.1844566000490886,1.1318059568502576,-0.002883842299979733,0.0036395811664362045
-0.0066724832128594,-0.9368824223668192,0.0630215683298338,0.4021159383839151,0.7020438897614685,0.2146509893773568,0.03534212686281535,-0.9094925369818156,0.05266338216551958,0.3996792711732269,0.7537741817009191,0.21028383093380398,0.004924026837387078
0.5243197430230628,-1.002087152026402,0.1823946831659357,0.4920774043417396,-0.3212858651369712,-0.1042892681943319,0.5149286402320286,-1.0013180609503252,0.16801453107024145,0.4824498527132164,-0.30196963130310905,-0.09089899983291616,0.003477048994256552
-0.2737812965332512,-0.8395124325549541,-0.1653997127991659,-0.3090615111999208,-0.2744101759713428,-0.052375383346232,-0.2690912385687625,-0.8334506455512383,-0.1757114463398466,-0.23310589254106162,-0.31996562927179184,0.014919844305495644,0.0034978317523168302
-0.8483869248438934,-0.6076230114345783,0.4300090637210431,-0.2749124744109465,0.4942425143417862,-0.0005387860076143,-0.836688657466766,-0.6151894209215243,0.4975894726203478,-0.27940296193992253,0.4872819036513647,-0.0034573386792544625,0.004060597759061483
-1.027707568941758,0.5192367764852742,0.0207536921814509,3.7252756851404616,3.0956529485497817,-4.312949333303657,-0.9981875355322245,0.5119894579361244,0.051505464871524964,3.6958348777793617,3.1515175564933315,-4.334695698970904,0.005057489640198202
0.935719318429976,1.933226261519508,0.1470260434398537,0.6324593892458847,0.2236601865963026,0.0341145286385926,0.9359927334407985,1.9277583838088503,0.16216786384143234,0.6131595439460398,0.19750656904579955,0.06907953164750325,0.006074440958745601
1.854951483011403,1.810682889096917,-4.50350457105322,0.966660187942538,-3.627094258484697,-0.0746850128203226,1.8686863355459309,1.8557176156823516,-4.614152702448536,0.9481133700735427,-3.6362564024470885,-0.09870528734768413,0.0078031911682720535
0.4973449528706263,-0.9801826424762032,0.0728486419782192,0.4285480188754703,-0.2165116616731341,-0.0140650068877397,0.48267684395523247,-0.9838614259597307,0.057257700142201884,0.41610154169302405,-0.19857785845260878,0.005313290182584751,0.003528618415278021
0.0696308139831708,0.9401589125040396,-0.0607859815409745,-4.274729532563839,-0.641451732733246,-2.9498298138707644,0.08571915371226169,0.9583084852702086,-0.06289402312040693,-4.284977895927113,-0.6332208642970727,-2.97253975047488,0.012948339971164461
0.5219909914257543,-1.0019355666014804,0.181968835578484,0.4910351113697915,-0.3190097445952263,-0.1037028371790688,0.5140605396600222,-1.0010974308142977,0.16691258129259268,0.48361882849985705,-0.29986606514739833,-0.09079722029355253,0.003478116349712127
-1.4379904017724214,1.436805210668347,-0.9731842617137916,-0.5534505449007189,-1.5492364049128091,0.0006565346098187,-1.438461640512287,1.4427945032384741,-0.9397822816936241,-0.5382794003799063,-1.5072581580875521,-0.0013991901619192504,0.0036183351976972235
0.7073817464801598,1.7338101462249824,-1.5773822942393805,0.2838034941065602,-1.231035754305979,-0.0009954944206888,0.7575773603457492,1.7112002261601447,-1.5258390392193633,0.31653357070263155,-1.2677831467835858,-0.026704276535383542,0.004824573790007395
-0.6868921161462269,0.5169808070713031,0.5803241324007825,-1.598764209350279,-0.8735893040333572,-0.9238383646446988,-0.6836061666404021,0.5571932217617359,0.5706014698316721,-1.7159362746515399,-0.8312462208178886,-0.9390365436634056,0.007590212101217634
-0.3862747784669125,-0.1102575246988124,0.1780909444552779,-0.2752445169977031,-0.8197122214781676,-0.011622601373974,-0.37683222482291967,-0.10867735219289898,0.1746986325506441,-0.2722310881745216,-0.8002523325403672,-0.009292655360241042,0.0037367400097180793
-0.8450208755502726,0.990408034161026,-0.957436704452538,-0.404285929261909,-1.4604862655181674,0.0244189549191266,-0.8891649807092108,0.9517875458241178,-1.0239046480728575,-0.3910571349588281,-1.376249653990726,0.023373615448235796,0.003790650112606545
-0.5833707987209334,-0.1405978211431081,0.3650721230866655,-0.5296277202243599,0.4897607825967813,0.0084730499649336,-0.5637702734488812,-0.1434222050011158,0.3799457192607463,-0.5527218030765653,0.4947587351701941,-0.0017319274345481972,0.004044420684750253
-0.2144064154568115,-0.8498474776564865,-0.0512535020429036,-0.1544723375204537,0.1659385438336764,-0.0955748763194675,-0.190587123075602,-0.8761094697410954,-0.03310406508626329,-0.047405371893546544,0.08249385663611974,0.00901155220981309,0.0035718617979695923
-1.111456374169768,0.2712352743282729,0.3167747498970241,-0.3100924920548098,-0.6269832141056559,0.0492641773815456,-1.0829462611391136,0.2886519171988766,0.25296690558388946,-0.2509452462545596,-0.5268642708037987,0.06932882455612344,0.004002545104999814
-0.3206638821952167,-0.6714121068927547,1.0824016775428695,-0.1625190115446338,0.7524053630577686,-0.0129858334049092,-0.30080220896252285,-0.6540225523549452,1.0757829395406588,-0.19271994019800331,0.7723610872883455,-0.026488885947856033,0.003598648445692635
0.5946064675425902,0.4538738681146496,-0.0226790889448821,0.371349946659595,-0.541484799281127,0.1699487798443566,0.5669568971316039,0.4667739587048345,-0.011796423499617958,0.5123443115371629,-0.4538374951489459,-0.006119007795405196,0.003669741675395858
-0.8193750958364315,-1.3967801345593327,-1.671082868976572,-0.3102911153264926,-1.0628466565929608,0.0168442728597793,-0.8216398628410388,-1.4090085478428591,-1.6715813149401129,-0.3019196926634322,-1.0782327164483831,0.014853292508178129,0.0037180839427263836
0.189963994781354,0.8959157483104337,2.2777369583235543,-0.1461977950882799,1.653057436713506,-0.02146397858631,0.19788043371545427,0.9000875974370501,2.3302583473955565,-0.10315048765096435,1.6612962571853132,-0.03700684549153266,0.008118958909218935
-1.0529758384972383,0.2337973450731395,0.435340064508439,-0.2834046942617022,-0.3804777756372811,0.0382268395693574,-1.0219754877216474,0.23379613521774445,0.3925158457923317,-0.3208432387909852,-0.3310678289153657,-0.0006481215841631638,0.0035963743905866354
0.8678840106303484,0.529458788932067,0.3754563590924766,-0.2947107866825799,1.6990523483238174,-0.0098810182045193,0.8460524790489217,0.5364165608998519,0.3072563824653116,-0.2790603806524814,1.4877760857953035,-0.019901552694136626,0.003638378960119485
-1.7466798374658818,-1.2427713827417524,0.7335460924334126,-0.1847257104401716,0.6536962738339425,0.0071331420908136,-1.7537376718755695,-1.2695233179792922,0.684445655044783,-0.22951630953957647,0.6615551214713378,-0.011294278741161179,0.0062306856326876416
-3.2303502555438453,0.4098556300594652,1.724356672561025,-0.9247798161211744,0.7610576825780534,-0.1764772461925926,-0.8647743674946469,0.7079953640813983,-0.19283393129626347,-0.4995517216666485,0.8501693818993772,-0.1613340481690102,0.013085638202878062
0.4690523029236218,-0.977805070657049,0.06579051753634,0.4196281964729707,-0.1862252389179094,-0.0029280586689832,0.4547749079283676,-0.9721748293004566,0.046007301332906536,0.3937288969891597,-0.15221769426761966,0.0307567325448872,0.003465706278941997
-1.0952244503121813,-0.3859682386110623,-1.0405337958463672,-0.4195188018838183,-0.0530384671748368,-0.0253904999421759,-0.9928382134503408,-0.2891499756533449,-0.9349738188284391,-0.4035153532968252,-0.13728622668759272,0.04989040217969887,0.005468381929870151
-0.2521329893066166,-0.1885965159478086,0.2543306993640721,-0.2150104331161499,0.3920573057523301,0.0040794705330184,-0.18901350765099778,-0.158890088334374,0.10655052939364396,-0.14910719138970308,0.3618256395275239,0.05044275176669544,0.004050887865446998
-2.452403167485328,0.699160789279412,0.039844192293564,4.383203389765812,2.8201833327035817,-5.014302160613008,-2.4965843479010346,0.7095576082399475,0.06350822941584511,4.332387889746087,2.826573986437552,-5.062192965723625,0.0043585893936685695
3.09118436084263,0.5769525604131078,0.1121631276373261,-4.274729532563839,-1.0598003985104985,5.43344547481896,3.107107747713286,0.5811549633821187,0.11692519184521188,-4.294886653481058,-1.082516153363187,5.439035066463845,0.0047716969687995915
-0.7946317799125356,-0.5075883995046769,0.2187001275480855,-0.2747244647274823,0.8804700239101221,0.0098019014405151,-0.8356686409888425,-0.5511326896703395,0.23428964767572324,-0.23974113832082367,0.8826197225948818,0.008399559267672885,0.004161717463468665
-1.1960351456425329,0.4755418523506757,0.6276671017299368,-0.7895747077686066,1.6836314810593611,-0.0325669842530662,-1.2236957945624454,0.45046131584240356,0.6382299747638172,-0.8001663701779762,1.702403263941278,-0.025681315122710657,0.003962282429768652
0.3083318060437902,0.1517526635498764,2.7276662845991773,-0.1231169882615119,2.5538583142026776,-0.012337737427685,0.2653305694466326,0.11142786982964026,2.778417520209132,-0.05460419265909877,2.6500454694912605,-0.05257983084629814,0.005665686310376731
-0.5283461074049116,-0.4747266801986847,0.2265431381571557,-0.2434365128679357,0.4052877274409455,-0.0058249366492218,-0.5114405956292103,-0.4325845123912586,0.26276206245347566,-0.24653970083818422,0.4089988513328535,-0.004610229593254189,0.004318311536043399
-0.4478996340871238,-0.4886454553509242,0.2403874456076744,-0.3526840269859168,0.420515580678236,0.0380788125621443,-0.4779457204231221,-0.47805482117883,0.2521931685284926,-0.4214098412421663,0.3605901089370036,0.061342499498778125,0.009192621006690774
-0.8570088244409969,-0.0093816269497972,0.7006496515971942,-0.2632897138961542,0.2639823422435066,-0.0175116278154075,-0.8656619142520867,0.038367802271750406,0.6870434585243856,-0.2722897499679675,0.24815533141577362,0.0070701164299862285,0.004148408862854228
0.4668438124391646,-0.9778871886605686,0.0664009038476287,0.4186387751828682,-0.1840666652691365,-0.0030212161178347,0.4549310154943669,-0.9716501582724959,0.04521469707896131,0.3955998256797102,-0.15048035293193607,0.030234901791118318,0.003466531585563263
-1.4416084356167207,1.511436288998571,-0.896713626982185,-0.5791404594940985,-1.5273320578303549,-0.0066580155159026,-1.4636702562393111,1.5201505565055413,-0.9091123090538531,-0.5812375635468925,-1.4932569134393816,-0.004951034378791519,0.0037366728526399585
1.8033816701261405,-0.0047679102027992,0.001873543870345,-0.0796526325795011,0.2396344499144789,0.0040003096728068,1.809487313000318,-0.006993002050876385,0.007476214609596354,-0.030922236564947525,0.3006778339199627,-0.06248598154979845,0.005572645526314705
0.6195166830151234,0.23515325476926,0.2136884901623124,-0.1301749442726011,-1.0597634900596775,0.4840161053147316,0.5505969328178253,0.24367481584522466,0.20624765412185297,0.0326006736686395,-0.9472738515096353,0.3280526490389093,0.003653864440896274
-0.6746989691166372,0.2812478978904306,0.0561224315874756,-0.1335732858945944,-0.0587637137701405,-0.0837872431932271,-0.5565539689123398,0.5064955564594129,-0.018162233725888655,-0.06002775921660941,-0.0038290263314593176,0.0025957259063034144,0.0045236622983366205
-1.0319469778305652,0.5264754218711184,0.6097732983371218,0.0141088152390173,1.3705862417720736,-0.0635033167981997,-1.0352760390051117,0.5242878963372277,0.6077422476082575,0.029702025225560647,1.354110209563487,-0.05463270916879992,0.004735929234460815
-0.2066883690012306,-0.8514509034216904,-0.0346403415457077,-0.1273753433604995,0.2241870999652576,-0.0904713419422946,-0.18744063035137515,-0.8777265780772723,-0.02167558353721688,-0.033253802203034866,0.15073304170164192,0.0009091499073292653,0.0035784700578715446
-0.2001189837191438,0.7375989324414756,-0.501601029806753,-0.0923902745886865,-0.1994287072898282,0.018408994240437,-0.14939522972326813,0.7513165615591788,-0.5584874112055331,-0.1424045143139665,-0.1265428189631166,-0.028983897518173762,0.0036422403267379368
-0.2554757407064003,-0.7037972732410799,1.032405365810575,-0.2026524826293436,0.5883387227718012,-0.0407603673681843,-0.2614046960216001,-0.6847402600087662,1.044847667661088,-0.18876921645460243,0.6342424051501894,-0.022464986994236824,0.003835358588035024
-0.2512962130582592,-0.8569867982367474,-0.160383573326467,-0.1893155561418175,-0.2287663938767669,-0.0132449964522857,-0.19496101382810593,-0.8667227300738887,-0.0978865844081156,-0.11577738106643665,-0.28753145903829136,0.058673870068105316,0.0035845355536500735
0.484795125317231,-0.9803383357574068,0.0718828139409682,0.4277323080838883,-0.2055912708409729,-0.0136926203271699,0.4742595604438975,-0.9827163974150608,0.061326801476582204,0.41957470005399955,-0.19190195684541322,-0.0032247223348349507,0.0034841793110202447
-0.7861622054059497,-0.6099330256329017,0.2848498513231724,-0.1214644016582509,1.3592896862181023,-0.0449644544944966,-0.7604358498756483,-0.6183503481470325,0.23531580115195538,-0.06837040289246943,1.3445625634533371,0.010733695257840736,0.004392199466729255
-0.1904841068496548,-0.8646889413567048,-0.1277755006707731,-0.0765130968995517,-0.383909213028958,0.194024773171268,-0.24451688771387126,-0.8282941264833426,-0.17971541339284158,-0.20654470882072928,-0.3327817220201723,0.04154237754528367,0.003508550021202598
1.661305109942968,0.7836973408190586,0.5690193756372706,0.0670317521439599,0.9127044993195712,-0.0186506721931473,1.5943988187664218,0.7915563692349679,0.5139576281526388,-0.011482520731988188,0.9392818029368755,0.05404179535116782,0.007906290082936255
2.1833092751528147,0.4141705572586955,-0.2015078718833277,0.300814602141967,-1.2920344678109117,-0.0469646121648213,2.2473730914734915,0.48780692310356244,-0.26571384572207535,0.30672302694983955,-1.1720988375445813,-0.09550459317279092,0.006814710443003139
0.5216292924666371,-1.0019941978337896,0.1819166143085644,0.490620719906915,-0.3187437084562169,-0.1035149154509093,0.5140465515642063,-1.0010229130184598,0.16596750242592861,0.4838606468119906,-0.29919721685701006,-0.09043263465400742,0.003478158084434472
0.3598749852884267,1.968198737629308,-0.922284196955251,-0.0457315170599288,-0.0365811316357508,-0.0513142765502434,0.40025404030120626,1.9824877677142467,-0.9378337521948197,-0.0506052257205738,-0.022108646357992257,-0.06523554777322715,0.00499403024122164
-0.1520085991455214,0.7033121276718027,0.5177868443312884,-0.1523697532113605,0.5332252465798647,0.0105770140071391,-0.006705235241497576,0.8358284651194481,0.48890270666379365,-0.18477628696382453,0.5803793989712176,0.0074479840777712525,0.0044400425160701674
-2.3761060836316665,0.9107885017687168,0.5646495480865071,3.615174508055351,2.3529069598762,-5.626630309417866,-1.7069065881008783,0.9014478819668454,0.5691442967907392,3.9455246558705994,1.887647923115793,-5.279190461024768,0.11756389385004756
-2.412906767784852,-0.7027272626179425,-4.548524229144911,-0.7971038017281513,-1.87180270351318,-0.1135055317098242,-2.40833292073512,-0.6942123987073501,-4.487768531413167,-0.7983542778674746,-1.9265369568960296,-0.10703530713908549,0.00459008682213086
0.3110002028334611,0.219092203174221,2.687981479879804,-0.1306089984999481,2.382151410692288,0.0919742968392189,0.3249635594438587,0.22878966181542637,2.707868866461922,-0.14624954013379465,2.500614145862073,0.011086848028753593,0.004000265220949376
3.148161868281359,0.7607345972243452,0.2041055203366818,-4.274729532563839,-0.8838867467555279,5.638932480731885,2.820772056874347,0.8164306772436021,0.39854778328322027,-4.16330908613088,-0.5867726057425671,5.200484102166,0.04280999095876287
2.229545024992135,0.3309516872116378,-0.8864888058792106,0.0039281182031901,-1.4085560885308122,0.0845048782047982,2.264724117771948,0.3109682985659674,-0.8324675459384707,0.06780379439351236,-1.4502986567845255,-0.012002351754745177,0.00518209381646945
-0.7559297969723837,0.0996091127883922,0.3037309346804837,-0.2753324032410819,0.1088681339511298,-0.0264569705478093,-0.7553334398999141,0.10732634258420148,0.4283562910513865,-0.30485264451817784,0.07687946316400485,-0.032941681922238786,0.004561800785982843
1.7236458700352275,0.8254528228409217,0.2020887058274733,-4.274729532563839,-0.4528531104486617,4.12526590356769,1.6895234525477463,0.8250861831202201,0.1746764452457228,-4.298292528508682,-0.5289907169274102,4.080821988534922,0.0063347638086532244
-0.7549683970996537,-1.173328826711425,-2.347574949980082,-0.359647655921204,-1.3769617270559726,0.0271673850721144,-0.7300059695999153,-1.1718363082327414,-2.24127936220998,-0.3423242250601106,-1.2918937876770542,0.0029967544589908357,0.004142192557122729
0.2248830892205162,0.3739026774471405,0.1775979421761839,0.657676886554838,-0.0785039781041717,-0.3387768528627851,0.29085844926066784,0.3385206865305008,0.17151293928782252,0.5091107551061214,-0.14737997058000474,-0.24118970970062037,0.003709959530149024
-1.7840558934443411,0.6586757558396631,0.0450428475217474,4.314858604419009,2.18626179254654,-3.854650178949413,-1.7600055171806162,0.6532003943707423,0.034678373563792775,4.32054592765553,2.193808849011475,-3.8386936601842763,0.0039054573407326133
-1.7762154767805882,0.6576118570213608,0.0459438825133746,4.318096946227146,2.1800474810457064,-3.843705380477724,-1.7522112498149909,0.652381516864807,0.03552667949145416,4.3237413501913124,2.1873765569609986,-3.8279190489439543,0.0038752385662916312
-0.1805224903053752,0.7138914769862355,-0.540666105157751,-0.1094601072385526,-0.1176655477296154,-0.0059654472655406,-0.16907102689538078,0.7033215294477486,-0.5296190846011086,-0.1394965798681369,-0.09804165090417882,-0.022655219932858017,0.0035703732859501715
-1.50132280697851,0.5391948670705022,0.0751523819398716,3.729636726284693,3.1696958258740446,-4.819244777046554,-1.5426350205877952,0.538675602856415,0.0844228924466961,3.7021575227814765,3.1947145481871075,-4.843824628847074,0.0037669662798555693
-0.8132680624337275,-1.006332948586821,-0.0833766343214211,-0.3015486115760169,-0.907315209560562,-0.0058555703885205,-0.8189219105547636,-1.0081947130765911,-0.07166348219834617,-0.3018846218546969,-0.8835280618043271,-0.016418331279055565,0.003751941839067189
-0.5104850244534335,-0.4021237507661893,-3.5371319156817536,-0.4114861282168418,-2.020569094192934,0.0734975526129933,-0.5307675377835039,-0.4027248853362835,-3.5014397101372197,-0.40258406999146246,-1.958175356429365,0.0474496589440605,0.0038626449238853867
0.0187317119384597,-0.0011569822158939,0.4221978240733904,-0.1159274730047108,-0.4930138085325271,0.1968998703410183,0.018544177294643305,0.03755156002353033,0.39600540224682845,-0.24536367601558595,-0.44378155490994686,0.07477089972155682,0.004842780112451709
-0.5526030841722825,1.464437804855578,-0.020622293822631,0.1059693408890945,-0.4016440435390269,0.1471557127421366,-0.5560075958537709,1.4673638186750395,-0.025429187829104194,0.08303827579766221,-0.39346892293633573,0.12201970221713054,0.003960886479181528
1.994333017172992,-0.2920750556495635,-1.0193785517801446,-0.4474914897319663,-0.6169040763372948,-0.0431213318245158,1.9860830347492993,-0.2931333124856792,-0.996764163242915,-0.4450632206262526,-0.626684287670912,-0.024110227980145282,0.004001629110594155
-1.0681606437721003,1.4288070462481417,-0.1115403278038036,-0.3665187858679086,-0.479596891990564,-0.0108594738509456,-1.069786635649507,1.423067654260194,-0.11446654582550764,-0.3730773402357954,-0.470195056220291,-0.02764157396632072,0.0035881134946833017
-0.1352356586997578,1.6828538808592972,-0.580770725561304,0.4946663597918603,-0.5559874077055299,0.0065631248731736,-0.15530113936711132,1.6605118595080057,-0.6033534632970259,0.4706403598047473,-0.5551263691713757,0.005511046909759898,0.0035986726785252644
-0.2978390780653047,-1.0434335897716516,-2.185971398574128,-0.3038410877335675,-0.9580205287507858,-0.0513821575725953,-0.29652556718701817,-1.0815604454919594,-2.2218942144068023,-0.2824663969586254,-0.9766362526150942,-0.014690340587549144,0.004360324638228167
0.6092214070955221,0.069450025692664,-0.1404365931648224,0.5599655519403981,-0.2429354330702864,0.0109407067517657,0.6057947289173171,0.0674853561904456,-0.14257617103976372,0.584701608031537,-0.24170249599319504,0.0001904545865727414,0.003528237621282574
0.876366371917571,0.5618433724445708,0.1784027798742585,-0.1667016793255844,1.0346476448115056,-0.0649777864805128,0.8701166368937265,0.5698174074050257,0.14450262834498062,-0.18722834798791155,0.9269883367924194,-0.04011894628456503,0.0037451242406311737
1.035116252419383,1.133232624155477,0.7540548792519918,-0.197002964464389,0.5616654663538265,0.0814343132988106,1.1002991219875184,1.1591796498560143,0.7387108265170355,-0.1560515311311974,0.5436551850652904,0.05684199374172749,0.0052685191754632855
2.150374154670533,0.3455934392793489,0.1572278849889295,-4.274729532563839,-1.182356170928026,3.743405781878219,2.159934933387831,0.3441554273449583,0.16310409373727452,-4.297257252552754,-1.187632893110731,3.750967901099216,0.003956109951414436
0.4866697371024469,-0.9787443775958002,0.0614413578353224,0.4211795567205796,-0.2061975588498651,-0.0026229139352034,0.4640684550076912,-0.9744398956418081,0.03403306303300724,0.38680557949555805,-0.16334972567574368,0.04225329190830962,0.003508386240743181
0.8601576999744044,0.5583801898032467,0.1627089576917936,-0.1773714247760254,1.053028798360473,-0.0616761778984319,0.850126973659826,0.5646350027700464,0.12562479439111485,-0.19259224626875948,0.95036138884916,-0.04508510107029906,0.003759509504267459
-0.3557247703772128,-0.9205912971990108,-0.447867099421976,0.138895839290878,-0.006828874355327,-0.0517056672621808,-0.3367038518736081,-0.8829655546760478,-0.5255259947061859,0.0860286278402782,-0.10023234670006786,7.151317004172597e-05,0.004248790751031965
-0.2682407505420756,-0.9420598337752352,0.0527593347088015,-0.025644687308217,0.9294070284052828,-0.2184018691726029,-0.2847866537704249,-0.9190287935234664,0.04223234859728109,-0.014403926650629728,0.9145782305367902,-0.21387701947833193,0.0037670277741638815
-0.0673105934032106,0.2325654384728129,0.9550121094231204,-0.0814916925024083,0.5971735211328295,0.1102271397120334,-0.003822556174782221,0.3064628221827661,0.7840571807309971,-0.05979174738058646,0.5899012020308874,0.09940576647841226,0.004639065421685632
0.4724121522759404,-0.9781051520562538,0.0649350522963701,0.4201480269945923,-0.1901013928183351,-0.0028541365504893,0.45614615893009614,-0.9728499498751262,0.044292343374479515,0.39202499043312855,-0.154405779404442,0.032703241814942885,0.0034667356940196216
0.4681433167331393,-0.9777557343152212,0.0660236362620197,0.4193904069651093,-0.1852468275763197,-0.0029524346000647,0.4545699373165917,-0.9719648354557648,0.04618339293347162,0.3943087143907178,-0.15159158313826993,0.03035266977349238,0.0034659513060090776
-0.3589947659438294,-0.8329344031690643,-0.1787588550422753,-0.2398955985079255,-0.012375292639664,-0.1386872756032063,-0.36219875456117734,-0.8450179227866101,-0.15413431216529716,-0.2686569988527481,0.013519065368200245,-0.15468268719496336,0.0037058911614741875
-0.3410266803562201,-0.2132296760834053,0.1677767022599259,-0.2283182092286646,-0.6730107872020453,-0.0098592711772454,-0.31455092016312847,-0.2223055612139433,0.1699480124279944,-0.24565898622768145,-0.6627339509268495,-0.0204356752935837,0.00378071984936729
2.691280470203687,0.7444506642012637,0.2051143327367178,-4.274729532563839,-0.7175766578015931,5.318693625135136,2.7372520866888976,0.7458230384119133,0.24797837839776093,-4.287805762203448,-0.6849258909092164,5.307884297620234,0.0064840626470760755
-1.553545831584512,-0.4747024652553093,-1.2727354146912695,-0.5458135864185932,-0.0228293487243967,-0.0004377612298667,-1.5594848357714,-0.468144569892047,-1.3201175646718184,-0.5268407124358419,0.08717610928192698,-0.015194442806205188,0.004704425471292854
-0.3630845119134461,-0.98958014213994,-0.1862058456541283,-0.4113989078366838,-0.0712714912836203,-0.0433634674773556,-0.3271636288936861,-0.9916749487265406,-0.1893397296580588,-0.41127045609391644,-0.11278166551483082,-0.019640293972315703,0.0035573646236357094
1.0275428446562096,1.9808307587668168,0.229783988564579,0.6258202111203433,0.2462277898589402,0.0323672346429625,1.0550085621280232,1.9835271931742682,0.21609688388434733,0.6336348876384363,0.27051098681749863,0.0067052590945877455,0.005041727611335648
0.5239149955282817,-1.0020375800674524,0.1823151145234299,0.4920283415629621,-0.3211510018733137,-0.1042336164044452,0.5147372177898433,-1.0013467661410687,0.16807419327568596,0.48272591112436203,-0.3018043241959276,-0.09109237402208237,0.003477246520710412
0.4714760489700031,-0.9780181335533688,0.0651753581437549,0.420031020806263,-0.1890009214065563,-0.0028743153374979,0.4557139931102938,-0.9726770934739761,0.044850536120748075,0.39246319206904445,-0.1538071060049333,0.03212434016040788,0.003466123063603891
2.1151752843260163,0.5166851923380199,-0.4130488992503723,0.3071851958027768,-1.740916235476004,-0.0387023887921686,2.108628684296491,0.5195861291385881,-0.4157820614027514,0.3129808581998077,-1.735231988697251,-0.05732821415108447,0.0036913846580303757
0.5743749964035146,-0.8315151365450293,0.0815612027968102,0.3693387130710613,0.1540368679333154,0.0980353631144758,0.6092942209561443,-0.828688140021768,0.14610929030686748,0.4028979502254515,0.07899360393162169,0.03050473018674893,0.004879416825070041
-0.6091847851925536,-0.6381108720167215,0.0621943476485457,0.0779548645756037,-0.9278316564871166,0.2927351700220423,-0.5426228382530098,-0.6286835922828686,0.11073619884973596,-0.1175220772583998,-0.8275181173657984,0.16968828811695857,0.0037164959345623062
0.5343786339825743,-1.003327042979031,0.1842180790882148,0.4941954174308583,-0.3347067749984664,-0.1058632137175324,0.5203054764951958,-1.002072588644296,0.16426097373613402,0.4795983093617906,-0.3093420722657356,-0.08843837742097094,0.0034821694717776554
-1.4912611410096,1.5393759908468296,-0.876092606656421,-0.5723074458334636,-1.432354267585333,0.001258518504949,-1.5010033115559054,1.551814102111166,-0.8603862015634149,-0.5528033416885592,-1.3824304665722593,-0.0014767033530915796,0.003981804868026632
-0.506058667853304,-0.7546561392853636,0.2591638726701779,-0.4826045988803744,-0.0256865256861304,-0.08037849009441,-0.5408114531501269,-0.7025095239032453,0.21346046745748026,-0.35476249465682486,0.02900255606846258,-0.011848442614336818,0.005429128414864596
-0.270701410380779,-0.8402077953637078,-0.1660219722144359,-0.2548355698412962,-0.2886221792948369,-0.0253581378768765,-0.2053762978503073,-0.8512306575830735,-0.08956741309339122,-0.1765704674344306,-0.323702002385744,0.05621745522148558,0.003552002924344936
-0.2292062345346574,1.3794144589830712,-0.224898455543713,-0.4938699534161956,-0.5273086366444095,-0.2481158647094697,-0.36113527068209805,1.393172891883296,-0.19398285779789148,-0.37305658668446995,-0.5316296458458964,-0.18029710865494053,0.003755108478522732
-0.1513753785253959,-0.7229063769295636,-0.7080292468270637,-1.040929192448257,-0.3711180673698362,-0.6282978077829987,-0.12406766675530889,-0.6462618245714111,-0.735121915318814,-0.9763530463205825,-0.504989062166203,-0.5662189999848124,0.009807791054112062
0.1855558149422357,-0.859297828677226,-0.3193362436359792,-0.6693764033071987,0.786693494433614,-0.5229919923708164,-0.0003056273093307027,-0.823167866630115,-0.3070698534427265,-0.3671869697291186,0.800679957004661,-0.318943235403367,0.026863417728990317
0.9399308604292814,0.6595706562091933,0.3008549110798856,-0.3899332991751328,0.554086439978319,0.1700658092882815,0.9393036074898191,0.6502534331621064,0.3857117606421525,-0.3895567893714542,0.7865292486740145,0.12187108526904922,0.0036753860402149487
-0.8422458439063099,-1.6469115466742483,-0.1846317429916147,-0.2435660879445094,-0.3598557345546062,-0.0246261591438817,-0.8635512021619434,-1.6300645355740926,-0.19806034279054074,-0.24990069570048945,-0.3648134758213928,-0.005148083902440703,0.004151742070317158
-0.6217907597108056,-0.6578747796955426,0.2329731093950939,0.0468096330766581,1.6312646740745878,0.0467699679794064,-0.6469387395477497,-0.6611263332042654,0.2441802359016947,-0.0036334376363811316,1.6585278473618246,0.02022661162482109,0.004118272665902981
-1.2040507424296576,0.4585211954256564,0.637004370399942,-0.7893177926282046,1.6872721277062948,-0.0354384658593627,-1.225566320931648,0.43109407178599213,0.6495015212203725,-0.7991944958557724,1.7012464162814922,-0.024710526914532238,0.0039216340527736294
-0.3132873041782336,-0.8525023652778179,-0.1841470917561755,-0.3226853983808838,-0.3262128647915265,-0.0175225281337936,-0.2775183965532051,-0.8721836208342211,-0.0873884280808852,-0.2994840114770341,-0.2870112913765297,0.017446907524117705,0.003552194921063904
-0.2941092438374026,1.2463168724315252,0.0426073023125028,-4.274729532563839,0.3793486111500835,-3.083321860979034,-0.16805923465994965,1.2958950255008403,0.07731216648176087,-4.359316010389648,0.4268423401342716,-3.246915160765411,0.049672994027709805
2.386766374795145,0.4077844036902201,0.1665265084385976,-4.274729532563839,-0.9747051696409152,4.12147937067838,2.4582393739965482,0.393014425657384,0.20420487881324334,-4.276952600102504,-0.9345067783644936,4.277056762127131,0.004379204933216033
0.5478776158467435,0.3922720687193943,0.1326561185903215,-0.5037549279451938,-0.2928364386184973,0.5117899326868841,0.5742497324108626,0.42048147334844543,0.16700091197299116,-0.517523382301988,-0.3422257303891456,0.5616589468436359,0.00425152771052301
-0.0334392748907747,-0.4676911225140944,3.04364761235602,0.0540287631230029,2.4063995255080672,0.077117410883068,-0.040756848548085145,-0.4559563559596427,2.9966822391154437,0.048689840654787986,2.438989473367201,0.07240627203917915,0.006868120935447922
0.6134481893303313,0.24608133166408,0.2086302930833508,-0.1719151991708072,-0.9929189648436124,0.4917917613926801,0.5492822752748907,0.2545607687188749,0.20347386189951067,-0.022779639328291523,-0.8917780954534464,0.3484152521498345,0.0036557585243321457
-0.2517962613088314,-0.9002380444845296,-1.8028281740620045,-0.3119535806435268,-0.8088629430390242,-0.0090134895733659,-0.20433352152303996,-0.8824125958808509,-1.674880142359143,-0.31861041570118687,-0.8009441854453598,-0.008037036876885395,0.0039669546258280265
-0.6139104905459974,0.8500946177417562,0.2081615916656483,-0.3746332218697508,-0.0634771627563651,-0.0844699880994012,-0.7158667052572127,0.8740434119927158,0.02348846389395476,-0.26149975604312203,-0.07178770511654875,0.0540881093183998,0.006824853367178366
0.487693410070779,1.3352152373087154,-1.2288771128915197,0.4657869942675583,-0.6556428712326483,-0.0881058677291921,0.4870363592067406,1.3375504784089571,-1.233045118400696,0.47175215010156535,-0.6405342418591999,-0.08634818522796195,0.0042787974382789175
0.4429024936103922,-0.5042656169435745,-0.0256833738104775,0.1330843910048763,0.3515272150178417,-0.0039567592702191,0.4069008405335808,-0.5207422814846723,0.00504036865550006,0.13766856170150277,0.3609112738040494,0.010156300225844461,0.005365152478479632
0.5215567320382778,-1.0020129900241626,0.1819047347097065,0.4905162369649608,-0.3186940813897154,-0.1034686379476331,0.5140475826183319,-1.0010059653595818,0.1657081450197211,0.4839115403128744,-0.2990156745236163,-0.09033303758133115,0.0034781553962061652
-0.511936564170247,-0.7454387058220422,-0.0224494358306358,-0.7915001207066391,-0.7707268366794345,-0.3294585496838022,-0.5630577363035627,-0.7491214630636023,-0.025195576162332145,-0.6963750715058268,-0.6846682997194762,-0.27693442736472207,0.0036828856424377422
-0.0874765905491097,0.1940594359008199,0.1878612561097334,-0.4126372134060206,-0.3181098573123085,-0.1053770652747974,-0.0954982097428001,0.1905565628030672,0.25419707027185723,-0.372947368736277,-0.297905376422932,-0.06765888119502961,0.0067090210466608825
-1.3819000668187396,1.318142721392373,-1.0831794081856956,-0.5521348907997372,-1.7809854018352491,0.0055730970010601,-1.3934977069811794,1.3036236581119738,-1.0851975813538957,-0.5539623413733352,-1.7310293986984107,0.002520966214888176,0.0036984843069595742
0.5218900967059353,-1.001946176787119,0.1819563435550416,0.4909365809910976,-0.3189293956814267,-0.1036573225707531,0.5140525621764027,-1.0010776031713249,0.16670576375605606,0.4836806472403623,-0.29970766435008045,-0.09071651311342066,0.003478136858693307
-1.1173597974504663,1.0553138696958808,0.5952461642555921,-1.0153078343203936,0.9120857918795168,0.0958758987376361,-1.0502705788596813,0.980443197569457,0.5609958612466528,-1.078267017928738,1.0755510543501714,0.0320998301946247,0.02122278343386758
1.108553609392153,0.2514496057191013,0.2284074670224309,-4.274729532563839,0.808682994155633,-4.250898513019641,1.1157879036636587,0.24211846968091777,0.2389607060549679,-4.346205573098814,0.782186159867706,-4.286435934897327,0.0048050833835879304
1.1761798301544426,2.063109267861987,-0.8672188632413038,0.0637604176764334,-0.317428966597647,-0.0478436537140382,1.178162167737355,2.072766826271618,-0.8549237617680774,0.07805052091225662,-0.3420124991876037,-0.051873450364382734,0.004513282939208
0.4296160185531643,-0.9648362281820798,0.0002531738976816,0.3534505910504356,-0.0893336488446794,0.0899962997912644,0.4616239880306239,-0.9739557731072637,0.054909170288055975,0.39714457032005157,-0.16394581971053412,0.02512653581243285,0.003465374730460883
0.5218179731629654,-1.0019562961017583,0.1819455124772325,0.4908585862719075,-0.3188745956288746,-0.1036216854887529,0.5140478967341551,-1.001063423074811,0.1665316803848782,0.48372842713160935,-0.2995835350739071,-0.09064992646517567,0.003478147305792493
-0.3948956871686593,-0.6494386246482741,1.062892094562358,-0.1508608843114589,0.8351591440335019,0.0090192631398739,-0.39178319523489336,-0.6635005185025875,1.057044322305046,-0.14988315352275094,0.8146747125640559,0.0023862068023845495,0.00357375597814941
-0.0978185969423419,-0.402414223014546,0.7620603481306899,-0.1746131429616734,1.4658714289098238,-0.0502334899202313,-0.09523233552772581,-0.40025567494831193,0.728105085484458,-0.1443236882569181,1.448488895514629,-0.01957330470895613,0.0038098022658316667
-0.2986240191356457,1.2915317468881302,0.0630800324677607,-0.7085251377929175,0.587853253240613,0.0130214649142421,-0.27877628545775224,1.3000139933810715,0.0406689703304437,-0.7070787429747725,0.5739144413971076,0.0024835648032421886,0.004689752421200569
2.1366761172882325,1.4638126775000826,1.916569768332622,0.1498775341706543,1.7642815727720167,0.0833624655127757,2.1409416323504047,1.4673588759042104,2.0195563010356636,0.14512336637926637,1.7323914247533594,0.09169518096496176,0.004534723363964491
2.3827066399188177,-0.0315602666371877,-0.756666078286935,-0.3243791558073154,-0.6154137543886463,-0.0245957417675366,2.3397185304352206,0.0036363931490086543,-0.869958061759462,-0.3137718096122626,-0.6526350664491929,-0.03325078778379975,0.004593054469083927
-0.1943468525001976,-0.6002219808907657,0.0716517537867162,-0.0439845017920021,-0.5886359932707865,0.164533633594189,-0.24200736838338344,-0.6012741435697535,0.13082107168520452,-0.1412436207447172,-0.4446085765952148,0.06381885451901326,0.0036501686074827434
0.4773131664776528,-0.979676067407136,0.0733479349651268,0.426716916716986,-0.1968027161022257,-0.0134350259452302,0.46975083337019896,-0.9795315867486352,0.0627057122324004,0.42020036239773617,-0.18365404672294972,-0.005107725164634758,0.0034769205465294307
0.4731888735699154,-0.9781756583956882,0.0647345601627563,0.4202349019217673,-0.1910029197083453,-0.0028397785442673,0.4565166223901542,-0.9729934998258614,0.04380043555335078,0.39168347595841624,-0.15491139829009626,0.03318531647028067,0.003467447196993493
2.390232492861756,-0.025510307780514,-0.7523962606333985,-0.319248937377306,-0.6216610804862518,-0.0245536034168149,2.3467270974124403,0.009486392264989263,-0.8671891530552784,-0.3091776233732162,-0.6585240872146869,-0.03422153865722066,0.004620791500337066
1.365986002299748,0.7799101940125532,1.2129840138622567,0.3283175282552614,0.9908004533802024,-0.0696788742513595,1.4218109598095907,0.7856770861071709,1.1865262360970519,0.31891588875078014,0.9825709552387707,-0.036458155866057496,0.004602801339402777
-0.341057353567481,-0.6651199848851163,1.0834965782652055,-0.1631297796551784,0.7820723442160509,-0.0124756966136514,-0.3210410251404028,-0.6484039271472284,1.0737697133963593,-0.1882209022896859,0.8024233838862074,-0.02359661163882265,0.0035892284860891722
-0.9444794280187484,0.002101949473394,0.7220439019131112,-0.2337494630893628,0.2232459468918138,0.0296390020627431,-0.9240863067361715,0.021560862272963277,0.6995369910318914,-0.19526027906977106,0.23230573459477455,0.04389475521429631,0.0038350606505701025
-1.2104932248282425,0.976250873574668,-0.1501648345512251,-0.3284269701388668,0.3359395182397285,0.0267955969164366,-1.1981269728121333,0.9863546799897449,-0.13804680816701875,-0.32607593478041963,0.3243882200135886,0.030041977759083238,0.0038701435458860546
-0.5440383345406573,0.5121936029141245,0.1326901008060235,2.3499451282184043,0.9743989781690428,-1.7354800506774273,-0.5867657730332212,0.4224431794273187,0.12625285195940705,1.9599452657557777,0.9997452302341117,-1.436712121059145,0.009154591406262017
0.5386898891495542,-1.0037472433580803,0.1849335517985964,0.4948342408742116,-0.3402744822142324,-0.1064256698178418,0.5227879497579124,-1.0021789073971377,0.16201714422032865,0.4785620018137706,-0.3122813859549751,-0.08706376940290284,0.003490394753712326
0.4802484257543201,-0.9799640903291584,0.0727826566487766,0.4271802499619486,-0.2002466037765601,-0.0135368615479076,0.4714999686948431,-0.9805691583769658,0.06222155559140674,0.4195073823339044,-0.1864400225222198,-0.004008557383258449,0.003477765661195679
-1.1724392718444827,1.1146622437090248,-1.0930453265558524,-0.4433845775619721,-1.4708762313601265,-0.0033974316556215,-1.1410098721580653,1.1104373505067997,-1.0881636789818003,-0.4543278990295221,-1.599273548263227,0.009376415211590938,0.0036713107939411772
-0.1443964203529643,0.4415250616795219,1.3492000717614572,-0.3641565803613342,1.5020739252979545,0.029901213879177,-0.14994291689617967,0.4440304664776704,1.3091601239029842,-0.392543975605804,1.4532522812532989,0.06315069843913079,0.005713859984507411
0.95891108149131,1.0095148345263691,-1.367793816574643,0.5892659993654421,-1.5671226890579393,-0.0276417159564571,0.9717607585557744,1.020650010261761,-1.3538908602556603,0.5795252316506776,-1.5490136904613792,-0.013091844129348829,0.004891198201854411
-0.6954187636517921,0.9209341164542674,-0.796828229669636,-0.3671188257321577,-1.1846630191362435,0.0154201643904818,-0.7408040993677787,0.913723779414795,-0.880730405153372,-0.35946712859731633,-1.1112129924658802,0.008823381348520343,0.003857625954911629
-0.8027156934604965,0.9332112313088164,0.2676314481192963,-0.1286386055434457,-0.0290617925756612,-0.0144784193587004,-0.8142131390477516,0.933997709533287,0.2622143942007824,-0.1101245431091229,-0.03268214044817341,-0.004006478079645603,0.0036882078270614217
0.4748917647644725,-0.9794791746937752,0.0738254233916389,0.4261354809107961,-0.1940667383743236,-0.0133522661206603,0.4690135953169374,-0.9781540721005513,0.06273766118357571,0.4205039016378578,-0.18071609345770412,-0.005193072436213697,0.0034779040554659447
0.4312695213869653,-0.9649499118409212,-0.0006616824802184,0.3535424162183179,-0.091031942457334,0.0902478315323839,0.46266576137531956,-0.9742949354222219,0.053772378485973604,0.3963357251868729,-0.16532786827019663,0.026263254973400763,0.0034672825474763615
-1.103787831131979,-1.829536515851732,0.8406336464549262,-0.1713417769429929,-0.0847629265215122,0.03220520951723,-0.9867875056506819,-1.8381227927525288,0.9198795579522994,-0.19312445600917272,-0.01908462890764895,-0.025146700183540815,0.004822822913397477
-0.780933084927478,0.8607509198358728,0.2978696626909954,-0.0833038698088223,0.1722189868642806,-0.0156795542366496,-0.7824862603138172,0.8645639034339183,0.2892538505293487,-0.08808124660026806,0.1766129256656086,-0.014386505305992614,0.003886663659092352
-0.2657423992477968,-0.8419323013121447,-0.1617452623292941,-0.2997997062115387,-0.2431372918654705,-0.0681207542438763,-0.2633624174459328,-0.836457712441188,-0.17166497888683807,-0.20553662248858018,-0.3047215518727171,0.015608405579769169,0.0034963940124199157
0.8456945124309069,1.0328929318005096,3.072802869829706,0.865439750096808,2.794919019155907,0.1106909627037937,0.8937224080259512,1.0212275094600045,3.0438477612005954,0.8654060077092254,2.802965841517562,0.12081426584506971,0.004883813151590647
-0.967377771010083,-0.001341696930856,0.5756148490857363,-0.6293069865508029,1.2349579915680833,-0.0167868231888757,-0.9571819497432443,0.04693847500675474,0.5674163773619512,-0.6051153161806724,1.1617309628302337,-0.04002910816052463,0.004985826611705494
-0.190698152972368,0.6468551321908378,-0.5189813635309503,-0.114538750335497,-0.1440094747982735,-0.0034491213731297,-0.18340330847513542,0.6383337260522239,-0.5092915717805226,-0.13656498089039815,-0.1190044931504417,-0.011221714275961858,0.003667845083101088
-1.656110186828845,-0.0459219535556835,-2.765861891125728,-0.6854347966632423,-1.0223987270616697,-0.0929378732278218,-1.6690340751156327,-0.05040212198855443,-2.75326200003974,-0.6502460766114382,-1.0249789516130932,-0.06612274387452999,0.004058356477618378
