Roblyat/algorithmic_payload_estimation/payload_estimation/data/result/effort/pipeline_0_effort_results.csv
Actual Effort Joint 1,Actual Effort Joint 2,Actual Effort Joint 3,Actual Effort Joint 4,Actual Effort Joint 5,Actual Effort Joint 6,Predicted Effort Joint 1,Predicted Effort Joint 2,Predicted Effort Joint 3,Predicted Effort Joint 4,Predicted Effort Joint 5,Predicted Effort Joint 6,Variance
0.0191322153564682,-2.807668111589198,-0.1583386545024209,-0.0002987763928185,-21.996817528501648,-50.99728047751315,0.016447888272523414,-2.8076077042187535,-0.15875330095923346,-0.00047126088975346647,-21.99548735202916,-51.05332458004705,7.332103363095051e-05
0.0599620239669451,-2.515114762642751,0.0257949503547599,0.0354732898442861,-21.704323618065978,-46.392690262869245,0.49296312468868564,-2.6606143479571074,0.006906064562826941,0.057889768414497667,-21.661067406037546,-46.96215526945889,0.02825191177971104
4.6804109629846665e-05,-21.31338492164595,-56.414383429505726,-0.0002467832716606,-2.6546379199523025,0.2551545263130565,-0.00016122529450512957,-21.313663594512036,-56.41418740749941,0.00021404970902949572,-2.6546035350620514,0.2551580646027105,7.181912758963811e-05
0.0048241787798665,-21.31183328915774,-56.41582526963628,0.003055642619173,-2.6519241023570927,0.2574470840062554,0.001703785392237478,-21.30766768280955,-56.41277915504179,0.004714691865956411,-2.65354349899917,0.2583892561046923,8.523687780010299e-05
-0.0004654194248364,-2.654398028892037,0.2551315944348996,0.0002367319033218,-21.313161822971807,-56.4143474500986,-0.0010935095342574641,-2.654409672581096,0.255205480371842,0.0005257182856439613,-21.312996829514304,-56.4154242616205,7.21147835409149e-05
3.090994455347668,-0.2387695733088716,-24.82450927586569,-44.436681107080574,10.24173141361089,-4.814181464223712,3.0925442595047627,-0.23838461620904638,-24.81245715848027,-44.50390144868754,10.191178814519844,-4.814101071855305,0.0009732114839155522
0.755019390073731,-2.927112996634605,0.3108747666677767,-16.19494175084477,-39.65991838933823,-7.526909531821378,0.8334512374927394,-2.9002147843547648,0.3200030529866742,-15.899429849610538,-39.2280698156672,-7.658020899570744,2.9950869112271676
-0.0002433709690146,-2.654652494896287,0.2551563068303634,4.368063918613089e-05,-21.313399360209925,-56.41439393099432,0.00032497241045348346,-2.6546372758475627,0.255100793137899,-0.0002283968542542425,-21.31359536428863,-56.41343040566426,7.204698633839619e-05
-56.41435355662082,-0.0002529985885374,-2.654599382297428,0.2551497220009095,5.251963975808965e-05,-21.313348371067107,-56.41454285962391,-0.0008927048693294637,-2.654682586117815,0.25522002663819876,0.00053587971979141,-21.314279704158253,7.186661671338264e-05
-0.0002567302123242,-2.6545996869497137,0.2551496795440651,5.509097798904321e-05,-21.31334877419596,-56.41435825161888,-0.000754750071791932,-2.6546188585016353,0.25518791600188706,0.00023926185713207815,-21.31326949151662,-56.415014174970565,7.183915477665799e-05
0.0191301607228923,-2.807660201238553,-0.1583384081279758,-0.0002971915182935,-21.98872980919918,-51.11609523349088,0.017104912643844727,-2.8077897237362777,-0.15860804699741493,-0.00035368387898415676,-21.98849736320335,-51.070317994832294,7.304391167534525e-05
-2.806973687033711,-0.1636610357109534,0.0002655814752493,-21.996795030278147,-50.99726009315312,-0.0170998427582144,-2.80785301018841,-0.1632352177912253,0.00032233174715656787,-21.99513737831421,-51.03228598849091,-0.006389399983163457,7.296327442557889e-05
7.379870452973078,-0.5268304927752296,1.7436839592455244,0.0860233839410749,-15.275084579381396,-40.63048790318369,7.387170096727743,-0.5275613232362844,1.7413427299800617,0.08625069965072107,-15.276642524354884,-40.59176752604981,0.0002451868304606571
-50.99728349938822,-0.0171035784816029,-2.806996890665355,-0.163662051504633,0.0002608503164525,-21.992975535458392,-51.010727447253885,-0.012365652713924646,-2.8070474939158885,-0.16312486223432643,6.570900222868659e-05,-22.00719081114221,7.311747729116654e-05
-0.0026809056255249,-2.8071830574480603,-0.1624491128543768,7.894081023316078e-05,-21.99296171139854,-51.04098470313991,-0.005563339014770463,-2.8070382508094553,-0.16279913413700342,5.702215275960043e-05,-21.99180297518069,-51.039893382025184,7.373970289021166e-05
-18.212880714040992,-49.92550882527399,4.689257739179277,-1.683660863855677,1.23371332211073,0.1019069251468961,-18.159150752771655,-49.75540985623695,4.647666854067211,-1.6797204037268383,1.2322461837590346,0.10010313726298836,0.012558684165077497
1.4725931624040018,0.1327722156743518,-16.79939591150406,-40.8317176447249,4.509258856175596,-0.7513217813865926,1.4829450677312934,0.10986609564415062,-16.847899657301582,-40.998340757574624,4.540015827747084,-0.7691561300907495,0.1228068176762977
-26.84264249354544,-59.19238584186937,0.7305590407469682,-4.041653927324507,-0.4361218387894778,0.0015667165387341,-27.649688668935596,-61.447390559404084,1.3677874155437166,-4.12169881675004,-0.375661063097823,0.042795892677759184,0.349104553216853
5.746837013667146,-1.3940836190275765,1.4206618605977603,0.0690271841681776,-17.917081334846987,-51.49234718983906,5.7943128524587415,-1.3974513843506733,1.4244444843030162,0.0702689327317958,-17.867482039811513,-51.38124368472775,0.020267032013981893
-33.46187848970527,-70.32417872929004,1.456455971480881,-5.244658956497046,-0.5583716788759047,-0.0261926683403018,-33.12225924528134,-71.02629191752965,0.40244394297212693,-5.170667363768171,-0.48408222081540586,-0.02160094005719415,2.759707657827056
4.229553661823882e-05,-21.31340604482382,-56.41439887795661,-0.0002417190968903,-2.6546598874172664,0.2551572043705956,-0.00044449894994613715,-21.313917342678906,-56.41397329219035,0.0007505004468839616,-2.6546193041422157,0.25518252510028105,7.213978506709757e-05
0.0191205180008975,-2.8076262872985707,-0.1583373751393083,-0.0002895665190331,-21.996770105252747,-50.99723822992967,0.01582970632443903,-2.807334610192811,-0.15879106421061806,-0.00012304491826853337,-21.996462884424545,-51.055023692548275,7.368265412450022e-05
7.543106296775122,-4.232783129181672,2.022423571590856,-0.1033129264936296,-24.299479143010625,-41.66431350476815,7.081407775206571,-4.240984862992761,2.0395461321287893,-0.10774819685383719,-24.302339909834075,-41.37747360750245,0.06183992643528908
-54.51061269997512,-1.0160156150013564,-3.011972257991097,-0.3162545118988982,-0.0172335205739884,-21.1529871917634,-54.48191932073678,-0.7170145649797632,-3.0150335499001812,-0.32724402956409904,-0.026960472288919846,-21.24450095541397,0.004343080758082156
4.567024234081559e-05,-21.31339004352123,-56.41438712978584,-0.0002455116731486,-2.6546432530665225,0.2551551794763401,-0.0002322867076145485,-21.31372677382751,-56.41413405330968,0.00034877909638453275,-2.654607328689508,0.2551641614968503,7.187980432971493e-05
-2.806976055626213,-0.1636611370616882,0.0002650702521035,-21.99679771439285,-50.99726250303243,-0.0171002837820084,-2.8078685282816878,-0.1632320777185896,0.0002998720865434734,-21.995098809758247,-51.032331496227926,-0.006355959580105264,7.294582420653135e-05
-1.871215056652324,0.7441986318930726,-0.0409322988198022,-17.89101181491561,-50.31418791853004,2.919239723218212,-1.8711234425182184,0.7404818698033397,-0.04053991736397222,-17.893834024682064,-50.384415663307664,2.8535217123962866,0.002239795462350262
-0.7275484848597343,1.963039352639248,0.0478742422175522,-15.006607004859848,-40.93214550264125,8.336627410166578,-0.7291341946583714,1.9634956012748717,0.04774940252500359,-15.011147383647312,-40.96881845951475,8.304778661859473,0.00034998236433265013
0.8164531490167538,0.1253336267411702,-0.0068308305416411,-16.24761080809919,-33.96814427044652,1.5149206215789874,-1.305557741053235,-0.24553501016862356,-0.16852200173889287,-14.617221037324498,-30.62926565438829,2.733916388348007,6.892893933329396
-0.0666865804574039,-21.99888853474664,-47.905626517002034,0.8990500188839987,-2.968342864403184,0.5687433257833514,-0.07197983749756531,-21.95001098551802,-47.907485164018,1.0707046392199118,-2.9669019306584232,0.56928993033398,0.021906611537679314
-51.040996855503856,-0.0026805780964448,-2.807198126189065,-0.1624497421211682,7.59793603306497e-05,-21.99297883030889,-51.03386877925368,-0.00476003249787027,-2.8070233196290246,-0.16261267244499322,-2.358905157961999e-05,-22.00817647107033,7.354755650252194e-05
-0.0712252770499962,-0.006435042301803,-22.2217321395478,-33.69135340786667,0.0328681009624143,-2.943468310149936,-0.060785219628996856,-0.007466996335210752,-22.311192368194497,-33.636390816442145,-0.020414374685060466,-2.923648654682893,0.005700523019987973
-21.313385766387395,-56.414384037690304,-0.0002465716519502,-2.6546387998167744,0.2551546342051074,4.651845128929089e-05,-21.313974363216403,-56.41377454519534,7.192556586232968e-05,-2.654566552466349,0.2551363886523177,-0.0003417910274947644,7.182569738145979e-05
-0.0233972018846093,-0.0104716980534917,-21.803946874346902,-33.624444182260035,0.055054067609677,-2.70344382254757,-0.026431435109316226,-0.024760842918226444,-22.064464743357348,-33.442130588024156,-0.10452103187526518,-2.6956155869911527,0.020012415943944265
-3.564529545381893,-0.3201790699591862,0.0013117927801711,-23.032055441350337,-52.635939650246726,0.0220052264858634,-3.5707285812277405,-0.3184929274636943,0.0028154183964943513,-22.9850484206263,-52.61567818617914,0.09506805673299823,0.004284970488390887
-0.1636617248740632,0.0002623161844159,-21.99296699794055,-51.04098849682107,-0.0026807946528424,-2.807188016193496,-0.1633826914016936,7.30276360627613e-05,-21.994889790092202,-50.99922135566885,-0.015496362138947006,-2.806571377374894,7.375566057161016e-05
-21.988699456181727,-51.11607912387639,0.0191229385903964,-2.8076343605194607,-0.1583376173786988,-0.0002915060003706,-21.990579691326275,-51.10617280981387,0.015753506937471684,-2.8077126790340117,-0.15876605560060852,-0.00011795861973951105,7.315645263500776e-05
-0.432002115059728,1.8022724461940696,0.0883048458669293,-15.01574517294336,-40.26602806074456,7.851995758564557,-0.4277124011377822,1.8053637590311666,0.0889332034788648,-15.004452799708588,-40.342963070845144,7.828952238953207,0.0026235697219251825
0.360041643410705,-0.0262976242274833,-15.46802786908752,-38.27069520787124,0.4109955987117525,-1.0958432678678995,0.38474732323084027,-0.0058969447102299455,-15.158434997256336,-37.53403256818274,-0.17911005358109833,-1.1663104386157102,0.5494048187126512
0.0013117927801711,-23.032055441350337,-52.635939650246726,0.0220052264858634,-3.34699436900032,-0.2687960734071093,0.02770847674946708,-23.393594606164697,-52.44641081626469,0.37554181254381547,-3.3697333445657023,-0.29234713242476573,0.03748866833922788
-2.8076525101339374,-0.1583381661563435,-0.0002955817510648,-21.98872095586792,-51.11609048324969,0.0191281827536654,-2.80699582703528,-0.1584398601025896,-0.0003407250806048978,-21.99045699551789,-51.07665361709951,0.007772543183818925,7.320208238209964e-05
7.787327526624901e-05,-21.992967734983896,-51.04098902866214,-0.002680780413217,-2.8071886633449323,-0.1624493469759744,4.503581840253901e-05,-21.992719702953764,-51.04196100495756,-0.0024810860049910843,-2.8070945722333818,-0.16240762573033862,7.381692396419133e-05
-37.83981633978415,-3.511137567858116,-5.565824666363048,-0.759640034702759,-0.2259442957817487,-26.34318004786758,-37.81842118163445,-3.5171033566448386,-5.565573578689126,-0.7598443017199656,-0.22631565969012968,-26.349937229461034,0.0005236668505747596
0.0002704242040568,-21.992924550249985,-51.04095906366043,-0.0026816950571442,-2.807151289133037,-0.1624477860066147,0.0003823627303063404,-21.995198358981725,-51.019493816333124,-0.009327307212515734,-2.8072297428111597,-0.16332294974108663,7.557244652528901e-05
0.255154029133263,4.7577428107366847e-05,-21.31338146067115,-56.4143809465756,-0.0002476582062844,-2.65463431395276,0.2551067596790517,-0.00014246879686652392,-21.313632240182415,-56.41453770290536,9.783503264770843e-05,-2.6546294179188408,7.180009720881138e-05
-2.859727136622445,-4.748889549239025,-0.6118616137165638,-0.1790455982412866,-24.400660381326382,-42.46703081508701,-3.468148395500066,-4.75997392497095,-0.5957833993985275,-0.1887480152712655,-24.365226384059724,-41.95225973795823,0.11689941923834252
5.475455392569609,-1.448382700382052,1.362639200962033,0.0683721760262707,-18.22004560272263,-52.18239241820272,5.531826742334729,-1.4522430681188823,1.369075875889366,0.07037359294550782,-18.145654329509355,-52.0137819081848,0.029729221176245605
-0.0008689662345551,-2.8139049943744667,0.0351484867497566,0.0127728423172993,-20.91515664239198,-53.814738588778894,-0.10997788855456747,-2.8424848704416945,0.034097288160410244,0.023812015712337598,-20.733603709672025,-53.50464925915003,0.002706048897670403
-22.166245355590583,-46.59677985964194,-7.672757921085352,-4.851091880486081,-1.5108155859154957,-0.2011041355297629,-22.17068723266948,-46.57657655598268,-7.689471628054889,-4.851349309282284,-1.5108669657959553,-0.2011514398077594,0.00013158604747926368
-20.753861166401496,-52.162046689534726,-4.705407743840176,-3.650365148742813,-1.0495872270269675,-0.0892428138173294,-20.803192151958456,-52.135450388168465,-5.174070490083977,-3.660335395908419,-1.0364005994257894,-0.09681211053401739,0.012553276164487929
0.010808597324423,-20.82844201294557,-56.4266233259911,1.2618900707222394,-2.3956537989382047,0.5147824513904533,-0.010575326896287152,-20.9825478841085,-56.81851017563895,1.3694388002768392,-2.4054322502624927,0.5203294047496456,0.01088321891024319
-37.19191268974092,-4.002572414829148,-0.6290203902311441,-1.3577244691081178,0.1771430286318136,-17.576355118992083,-36.79268333899381,-3.6966994828653696,-0.6285046754774442,-1.3670303190097002,0.1782219265757874,-17.5413977399312,0.004783382019786846
-0.0002478751324238,-2.654633427587009,0.2551539746272042,4.767366161598529e-05,-21.31338103559273,-56.414380642581605,-4.722276935353875e-05,-2.6546314090064698,0.2551303441696291,-6.647849795626826e-05,-21.31347695443219,-56.41396959562553,7.180058117367956e-05
-2.654396153863251,0.2551172438301059,0.0001274668185193,-21.31315895818964,-56.414291544225584,-0.0003097504537191,-2.654446902588461,0.2552538161744451,0.0007424368504871381,-21.313128888499705,-56.41549162326555,-0.0013948440755484626,7.203241037840165e-05
-50.99724905585192,-0.0170979622931145,-2.806963091314564,-0.1636605684461742,0.0002679513468636,-21.996782943869185,-51.01172097938252,-0.012494137801695615,-2.807197522608476,-0.1631702574177325,0.0003101061165580177,-21.987173966583214,7.313342476917135e-05
-0.1583375313290651,-0.0002908442150294,-21.99677617799936,-50.99724348749547,-0.0170969779670907,-2.8069575414536856,-0.15910826624849506,7.593479847400886e-05,-21.99390836459679,-51.04516492230687,-0.002028390861596563,-2.807547090913431,7.379091457577054e-05
-48.232068519722574,-1.8646283594940245,-1.419143548791164,-0.3560076928249096,0.0296688988202307,-20.946452907272764,-50.34105007084145,-2.2075179290183087,-1.6406547354405916,-0.3747588065849641,0.06217462547252239,-20.52576618504054,3.1079744523532953
-0.017101170349862,-2.806981747262482,-0.1636613873713146,0.0002638678216894,-21.99295828990653,-51.04098234494954,-0.014117433514911681,-2.806829078598639,-0.16325239134221192,0.0002195622290845911,-21.993645043623474,-50.98898003369686,7.347144839426185e-05
4.699697970247857e-05,-21.31338405913273,-56.4143828016467,-0.0002470039660075,-2.6546370203779106,0.2551544158069034,-0.00014914447638147976,-21.313652874825493,-56.41419645617134,0.000191136117791757,-2.654602898011035,0.2551570290258951,7.181012441632013e-05
-42.95714646023166,10.78182986126479,-4.920837434347738,3.02439010136673,-0.2438811908442138,-25.0413666974117,-43.13583010982984,10.66446833435839,-4.923965411059726,3.029820672962387,-0.24447801933015967,-25.058111502262364,0.0018656422640563372
-2.654605739533239,0.2551505609652201,5.417078485792113e-05,-21.31335456215477,-56.41436220452016,-0.0002550215742782,-2.6546734736675717,0.25519579318597607,0.0003359139418535051,-21.3133216914448,-56.414798777645046,-0.0005307347601046786,7.176149902105429e-05
-2.80768011603622,-0.158339041590771,-0.0003010464058937,-18.55062209338856,-43.60170423433228,-0.3227007037130832,-2.2053404180696816,0.047846342733350866,-0.00951554706261959,-20.37954902062711,-54.21826250927916,1.751737807164318,0.10595780796513193
2.212543158782741,-6.281068278863713,-0.836902343562722,-0.0508010036343345,-38.20339220556035,-78.77798564285183,2.213222369507548,-6.28233739836196,-0.8363563467233348,-0.050793616127947416,-38.20794165221753,-78.76039598314037,0.0004345103504934152
-56.41439114124275,-0.0002441767672249,-2.654648991096985,0.2551558799511729,4.4392110818200175e-05,-21.31339599164785,-56.41358492799918,0.0002649064117576927,-2.6545391284189463,0.255098598290715,-0.00041411859820073005,-21.312565640822868,7.199718934342421e-05
-51.11610148847578,0.019132798723225,-2.807670403672057,-0.1583387301380567,-0.0002992221332654,-21.988741473151325,-51.10759023501305,0.01580367878341349,-2.8074318117160146,-0.15870195559728018,-0.00039726840714138234,-21.982551946581225,7.333970632456406e-05
-4.559143970785674,-0.3409187889987616,-1.711027082565094,0.2865053202645733,-17.39506945055335,-38.55841293303981,-4.551210939706152,-0.35881559838024657,-1.700774805009523,0.2851748538400538,-17.39187194084036,-38.8728290999843,0.02666168684561993
11.259315394941536,-4.585872668183466,3.038198698160318,-0.1780267262777063,-24.003848142115903,-46.00469456764422,11.31937421632756,-4.5854024314826916,3.0348073967340383,-0.1779360071841083,-23.997033856668736,-46.10829042944579,0.0006703661933104607
-51.11609341207197,0.0191294520769191,-2.807657539761114,-0.1583383221913411,-0.0002966423391428,-21.98872675091632,-51.107351868471596,0.01581232855824055,-2.807499921091221,-0.15870122220258054,-0.00030146413291731733,-21.98241977908765,7.305009493191868e-05
-21.313350893926387,-56.41435934336074,-0.0002554639774223,-2.654602574800545,0.2551501080316977,5.428273111537596e-05,-21.312919241659984,-56.414252625836525,-0.0006513864973385353,-2.6546311642323417,0.255176996107366,0.0004727491764242586,7.176232956024726e-05
-0.4232665409211967,0.109011077142611,-20.088795782169385,-33.408875312984016,-0.6253278129096864,-2.1163398242090325,-0.4500568952407775,0.10395790753273104,-19.917838544796723,-33.42949205410332,-0.7392947017460756,-2.0619488025754436,0.03480941767791163
-21.313376995769914,-56.41433643011804,-0.0002031013667052,-2.6546400414154667,0.2551565830728727,1.8699908899277217e-05,-21.31251710426295,-56.41429034344037,-0.0009301442514697555,-2.6547100031530135,0.25520394628165377,0.0007952899322845042,7.191982206817123e-05
-0.0264020304850364,-35.89433835418456,-75.01287607706094,1.866050845826965,-5.690726224093528,-0.7647733567106013,-0.026513829647046072,-35.86952883858448,-74.93257922816076,1.912901606133346,-5.686661315464669,-0.7656667432267881,0.002629421844580097
-41.64330384045967,-0.2541538718668269,-2.7713634821763566,0.1037761571894622,0.0026478679238729,-21.8062805633911,-41.387813006469514,-0.6086173179937759,-2.899740178920183,0.04386655042981147,-0.052102324301813496,-20.403323493679636,0.23660295281204097
-0.002680577156549,-2.8071955358703624,-0.1624496381809891,7.646987555736461e-05,-21.992975897315883,-51.04099504327763,-0.0054373970633605495,-2.807088204001957,-0.16279649244779648,-2.8328283081080485e-05,-21.99159355752272,-51.03950135986088,7.395254602355202e-05
-0.1768038095780306,-0.0053397995832527,-21.206165832917872,-54.412890263643305,-0.1279902198411571,-2.836295073343595,-0.18014920782252375,0.01992727400011063,-20.92596223126384,-53.676267807622935,-0.3288340654771673,-2.832489028469354,0.009871737556074126
0.0191243576492113,-2.807639221351585,-0.1583377633213011,-0.0002926360920017,-21.98870553738824,-51.11608227067224,0.01679764444270404,-2.807654099253341,-0.15862706245025038,-0.00018143589790953207,-21.98898266607648,-51.071157285157824,7.309921540494109e-05
-2.654645920469466,0.2551555052993405,4.502383547295715e-05,-21.31339302531861,-56.41438929023508,-0.0002447878942692,-2.6545853182578867,0.25506723223952577,-0.0002685073113752878,-21.31347050101499,-56.41369390976615,0.0003662398084998131,7.193745680095638e-05
-2.807151635524507,-0.1624478004670842,8.596863127226936e-05,-21.992925362220102,-51.0409596049071,-0.0026816764880693,-2.806600570675073,-0.16276681715999075,0.00029570196056738496,-21.992652572131874,-51.040723974305365,-0.0027281018992653117,7.421933594881487e-05
-0.2336048531533561,-24.996514802757936,-42.95714646023166,10.78182986126479,-4.920837434347738,3.02439010136673,-0.23405806534310614,-24.983039653559672,-43.06869047025975,10.700932051413474,-4.917446434395629,3.029011045755624,0.007280349750806441
-56.4143883719432,-0.0002450932859714,-2.6546450326582347,0.2551553970009191,4.520790393729504e-05,-21.313392171568378,-56.41365413169842,0.00018700787040870637,-2.654548373270245,0.25510669551113097,-0.0003493257054287824,-21.31268365084179,7.193956333279423e-05
-22.412303355076205,-44.72500264789677,-8.028208976028045,-5.0364642067657,-1.4652721935465935,-0.2261917957070569,-22.414336837310202,-44.736587413715824,-8.032467955850734,-5.037229021940391,-1.465806778399827,-0.22651183919472828,0.0002448104810414727
-1.590462871307088,-0.2483131849684186,-0.0071412217997783,-15.037994827787186,-40.93486767995986,-0.4394521520515198,-1.5062162575268303,-0.22679060354289504,-0.014851634533442848,-14.656553306448302,-40.34743737244753,0.28682807336736005,0.9107803374700498
0.8788102931302156,0.0364696209369281,-17.974512427519016,-45.74143634911483,4.96852426001107,-1.7570604482692451,0.8958345203412819,0.0383092504525564,-17.956479203665936,-45.73151280563707,4.852332025755459,-1.7518093880889865,0.022216515128582418
-2.807657867995956,-0.1583383324205704,-0.0002967105307229,-21.99680605300572,-50.99727000293099,-0.0171014538755133,-2.8078562390091975,-0.1589400210327767,-0.0003274814016549499,-21.994515360870764,-51.04231662490565,-0.004098400175280403,7.336422380061343e-05
-17.917081334846987,-51.49234718983906,5.475455392569609,-1.448382700382052,1.362639200962033,0.0683721760262707,-17.915913922933584,-51.48903354463209,5.4789971698232875,-1.4481051014804258,1.3620435672469533,0.06877051769834708,0.00033633266125460544
-1.3596260338753745,-0.8811580868454376,-0.083721931826873,-0.0370633279118552,-9.941610472903273,-34.89106710229104,-1.1061880379020295,-0.7031290161935431,-0.09562006984333493,0.23679191785129206,-11.45491150792077,-42.34056061053707,6.2646737821895675
1.9624926602291053,0.1427017876884568,-14.76072095193583,-39.2039860299985,6.891930408153735,-0.0603707193136505,1.9668907962791309,0.14210395237333273,-14.77338717086036,-39.1344658653652,6.946447080554208,-0.0627342307601566,0.0013469671054681706
4.33283335137249e-05,-21.313401028047306,-56.41439516828334,-0.0002428770553792,-2.6546546770947987,0.2551565721934077,-0.0003794385520450305,-21.31385861648232,-56.41402280982584,0.0006274394108913839,-2.654615529383136,0.2551768706482562,7.204751160000818e-05
-0.1636612582353491,0.000264497387007,-21.99680076296597,-50.99726522846121,-0.0171006866068027,-2.806979073238292,-0.1631921813293502,0.00026030240076124755,-21.994840166797076,-51.029785152117256,-0.006888495010571205,-2.8074488291485977,7.28762233907539e-05
-20.67126719359085,-48.23263515909928,-0.6108587072088797,-2.7054187737853903,-0.1368509348901073,-0.0069946418951236,-20.774578355973063,-48.460835812256846,-0.5240919470925292,-2.699926840732587,-0.15872870807197614,0.006360131653309509,0.01166657097281271
0.2795948054967052,-16.208577064384105,-41.41594108126476,-8.264575231722368,0.755019390073731,-2.927112996634605,0.27633903450268227,-16.516217810746486,-43.15896809345862,-8.89357869740239,0.746056822624755,-2.95357849690174,1.5074220993316831
-4.344737432743315,-1.269117987161451,-0.1320239793292093,-21.167540554659524,-47.35966564531937,-7.503841770068372,-4.3472420597133805,-1.2681457037521113,-0.13201242309389727,-21.16155161734332,-47.3801280058542,-7.425576978639583,0.00019328798246104746
0.2551518264372627,5.157085664778441e-05,-21.313364392816588,-56.4143688997989,-0.000252160710242,-2.654616503924773,0.255149008843091,0.00017269823501919745,-21.313411320095838,-56.41467680585629,-0.00033098382027674234,-2.6545877621992986,7.171308340642575e-05
-41.351769116625725,6.799197849960313,-0.642077871914845,1.7634082153692854,0.094003598723282,-15.976517507965134,-41.375376123764,6.800127941436813,-0.640918790774947,1.763916030113819,0.09392321562785355,-15.978440965889604,0.00035203750497342774
-0.0026807980473166,-2.807185380409168,-0.1624492140870558,7.846712555281159e-05,-21.99296435908243,-51.04098667619648,-0.005538985264138319,-2.8070479060661455,-0.16279853180003556,4.076953393550298e-05,-21.99176278645973,-51.039818050689064,7.376279098165035e-05
-2.6546594622248785,0.2551571528369808,4.229553661823882e-05,-21.31340604482382,-56.41439887795661,-0.0002417190968903,-2.6545577869001136,0.2550279092861274,-0.00045386666079139104,-21.31352324659315,-56.41336091111589,0.0006372573116095737,7.21532030413848e-05
-56.41450306337599,0.0002268154124405,-2.655193430210756,0.2553596243447922,6.71393006407819e-05,-21.31391059683006,-56.413660407910356,-0.0010472813955857418,-2.655352327147739,0.2555282393041125,0.0009075592997760396,-21.315234769390372,7.266690150826001e-05
-16.019726188404437,-41.6978364241991,6.762602966054306,-0.7078615423756801,1.6507040429457,0.0870598979795579,-16.02636584908555,-41.62984321897875,6.7605745004207165,-0.7074100790827629,1.6496995679134159,0.08711273864516045,0.00014484759777272778
-0.0170989168442815,-2.806968583470087,-0.1636608108060399,0.0002667062744017,-21.99678922115464,-50.99725493023753,-0.012868582067312673,-2.807045612714319,-0.16305655870201008,0.0003750269073612422,-21.99756450492714,-51.042250070750015,7.295427983561716e-05
-34.57650773969801,0.0380159319061226,-3.082257640061836,-0.0712252770499962,-0.006435042301803,-22.2217321395478,-35.180396499927156,-0.3539039738170686,-3.0948861999606834,-0.05883285078289191,-0.009483388180115071,-22.290722560195718,0.01844660335766574
-1.5663758414997453,-0.8169479224100705,-0.3990093210552476,0.0332154026517607,-14.894755186784964,-31.810945911613885,-1.8508412266201049,-0.5894416161154368,-0.3442881423188737,0.015284701054952166,-15.088206515431011,-31.329563405364752,0.5884526311055598
-75.01287607706094,1.866050845826965,-5.690726224093528,-0.7647733567106013,-0.0203523619077248,-34.85047612623034,-74.92843357620598,1.9854969078621707,-5.685272611170383,-0.7645971186936578,-0.02112821512767482,-34.81229167051143,0.008785029219473276
-0.3300966415230293,1.8653477390640485,0.0920945112775591,-14.745089755500588,-39.99104502041025,8.04370489247519,-0.32613878615894976,1.8656227315637466,0.09222669755088164,-14.73888102966066,-39.97539887684616,8.06494109740379,0.0021580368691675495
-2.8071679116642367,-0.1624484802501778,8.218158905720664e-05,-21.98871114456051,-51.116085207917656,0.0191258310669024,-2.807388770947,-0.1624173810063212,0.00020060840961377835,-21.98998347585143,-51.11141168042741,0.017410310028935783,7.470870023124483e-05
0.0191320503893255,-2.807667466599122,-0.1583386340621538,-0.0002986498480186,-21.98873812375214,-51.11609987598852,0.01720234022650402,-2.8078322409437533,-0.15860267952439244,-0.0004096398692307046,-21.988342995593484,-51.070052355120424,7.318758023328449e-05
0.7775453771590605,0.1322976842554787,-19.536365281787443,-51.56829789536685,3.1468977184464744,-2.091949150427512,0.8079178372426945,0.11132465773093259,-19.52557889334298,-50.77509410551545,4.155350100241776,-2.0758688042280937,0.6551425285725603
-21.988705141197173,-51.116082064431765,0.0191243576492113,-2.807639221351585,-0.1583377633213011,-0.0002926360920017,-21.99049941531848,-51.10650192799221,0.01583593881878187,-2.807695085204614,-0.15875961417987128,-0.00013848389471604605,7.300190538356695e-05
-0.9764470760192556,1.7421239466253036,0.0368872341562554,-15.486445434277506,-41.70626071944446,7.960638014332564,-0.9745994627797785,1.739677727549008,0.0372604510564889,-15.473910468406984,-41.67693971993049,7.919013302436724,0.0011936874063624466
-51.04096160610869,-0.0026815553100957,-2.807154441695651,-0.1624479218944613,8.529262415428183e-05,-21.99292864089416,-51.03415283031063,-0.004541221926047001,-2.807243296921115,-0.16259290604557464,0.00026309923396183876,-22.008091081144812,7.360308993637339e-05
-0.0429272760874801,-33.648751498871086,-51.722958950829394,0.0652973063640821,-5.373063192921267,-0.2817483294194235,-0.044869782392404106,-33.632837909153324,-51.36823190181812,0.48614579839484406,-5.37110796025494,-0.29033306101398004,0.0036467029990549554
-1.3568863038636587,0.107269145399155,-20.531959869265588,-47.84074354602671,-4.737979069140319,-1.5370505368432157,-1.374226237376888,0.1072674931651818,-20.535869790779202,-47.460681439093605,-4.632065015561238,-1.5387467642910337,0.007530684923415525
-0.0170988589590582,-2.806968247117548,-0.1636607959727124,0.0002667814903475,-21.996788837489028,-50.997254590691455,-0.012873247047537006,-2.807043568633162,-0.16305681129324512,0.00037777557992813016,-21.997572073301853,-51.04226362684858,7.296063427614648e-05
-2.654604124556533,0.2551503659719421,5.4421399579526686e-05,-21.31335299724258,-56.414360994308,-0.0002553703242554,-2.654678241313377,0.25520226769504006,0.000366106489309459,-21.31331514797307,-56.414854696449765,-0.0005756367318099365,7.177400062258606e-05
1.6584688630669018,-2.358275592102222,0.4734863116197807,0.016839899177299,-19.146016479159663,-52.98652307842341,1.6333123966596474,-2.374238630448664,0.45933702566159695,0.022075116698815123,-19.160949495313275,-53.23537238034987,0.0666933599885115
-1.4642360006032598,-2.12140310119748,-0.0996831355779077,0.0199058672902502,-17.018170292068437,-34.92792014999762,-0.9878456810292846,-2.2885556995233856,-0.13492494616139084,0.05379842739250762,-17.412624792733368,-35.96975315231248,0.21090834049048252
-6.714280557369142,-4.308562556574649,-1.212663560238446,-0.1328049694204254,-21.37154465667616,-47.52441237691348,-6.695709448291382,-4.30879503027279,-1.2130899202364844,-0.13319552642662558,-21.366117826636582,-47.53977087900512,0.00025560110692052625
-2.806968583470087,-0.1636608108060399,0.0002667062744017,-21.99678922115464,-50.99725493023753,-0.0170989746410265,-2.807818832106932,-0.16324236760544864,0.0003715161747095408,-21.995222386083697,-51.03218458420088,-0.006463641664595343,7.303612438275671e-05
-2.806974020022832,-0.163661050375058,0.0002655091565293,-21.99294941555119,-51.04097602079913,-0.0026811484202401,-2.806713288759056,-0.16311421656337188,0.00033139679453597637,-21.995462629816984,-50.99972976299796,-0.015603561230818741,7.361815889933972e-05
-0.1583381763896023,-0.000295652500857,-21.996800389343928,-50.99726489257125,-0.0171006319931298,-2.8069787432936266,-0.15905593946467889,-8.026890213841398e-05,-21.99363024424565,-51.045341225410084,-0.00190364142144972,-2.8075054433174955,7.337767079346598e-05
-0.4455035977685644,0.0428179754228517,-32.43992816455132,-68.60453587818095,1.317530767235885,-5.026000591486581,-0.4706582335984706,0.04836180217120756,-32.570330104172314,-69.1756882460063,1.0851419393211472,-5.0484906623788675,0.7397009066241995
-56.41436972125833,-0.0002483971256059,-2.6546294328813103,0.2551591868161144,6.987424255128914e-05,-21.313376793781025,-56.41460026227287,-0.0010496062313904986,-2.654738348794126,0.2552491797177936,0.0006680901742583956,-21.3145460038686,7.19728302615615e-05
-1.378197850613295,-0.1737445930314475,-21.858958191661547,-47.8024823312114,-6.645968319515637,-4.473651335402941,-1.3815683358334132,-0.17407883576860872,-21.85638505488988,-47.82538334087131,-6.625278662337337,-4.474368378817431,0.0003565776991424948
0.0002644276859321,-21.992955227503685,-51.04098010012671,-0.0026810285187179,-2.8071777252011927,-0.1624488901443632,0.00025874742823361885,-21.994694364351744,-51.01967070935643,-0.009265506945666857,-2.807182380984159,-0.1632477572056814,7.48498854707443e-05
-34.875700153110024,-1.3596260338753745,-0.8811580868454376,-0.083721931826873,-0.0370633279118552,-9.941610472903273,-42.07654888016987,-1.151445984516613,-1.5623020625766912,-0.2661916967540492,0.2527225103874571,-20.998511047269858,6.892997137978376
-50.997270671183685,-0.0171015599759379,-2.80698440767107,-0.163661507171418,0.0002633183469589,-21.992961338069183,-51.01061478300835,-0.012336484811385162,-2.8071107529140136,-0.16312164180271793,0.00015390935595860356,-22.007106904915418,7.28905818962496e-05
-21.313330151385166,-56.41434816047024,-0.0002598746338597,-2.654583388542942,0.2551462365599343,5.255000404865994e-05,-21.31263023543579,-56.41439652687404,-0.0008513426291756332,-2.6546386546324356,0.2551856717118426,0.000689721306116553,7.18454618666194e-05
-17.974512427519016,-45.74143634911483,4.96852426001107,-1.7570604482692451,1.0117720005069135,0.0382283756742172,-18.004705502893785,-45.834256014938546,4.9305738590974215,-1.761909167308204,1.01061333425708,0.04436503481859688,0.004976197279239873
-33.69135340786667,0.0328681009624143,-2.943468310149936,-0.0447058273948419,-0.008618494881546,-21.86334926554856,-34.24808616650989,-0.36573142998531694,-2.9660622367057385,-0.03775906858390954,-0.007974192765232146,-22.036340811202535,0.026785103374214973
8.005110552706542e-05,-21.99295560596293,-51.04098036729897,-0.0026810208208887,-2.807178054810938,-0.1624489039111612,8.789161802269518e-05,-21.992900726658263,-51.04192926597898,-0.0024882403085939586,-2.8071116298428933,-0.16243057226165547,7.370647052224306e-05
-42.51780824858386,9.68032478678881,-4.732656563718879,2.738696981676521,-0.2145805683970209,-24.86418390710288,-42.59240493676771,9.587407271279517,-4.728294533719804,2.739663759094128,-0.21498623948758677,-24.86178776126144,0.004482682043777946
-4.8922571395733705,3.090994455347668,-0.2387695733088716,-24.82450927586569,-44.436681107080574,10.24173141361089,-4.893171174953977,3.0945947331689183,-0.23848629268403698,-24.83058129040967,-44.595343176501046,10.169137314175714,0.0009412722893446565
1.9804495202086512,-0.1107630037333533,-17.182891324524025,-47.24353574896547,6.992313916289389,-2.9854933664694414,1.93770522902701,-0.10768477254715236,-17.187954677908532,-47.182217748346744,7.055567936113448,-2.9981329986632943,0.2939904544032063
-21.21996567828075,-56.30000422009402,0.65902958549911,-2.848307569389679,0.2308255546072196,-0.0255202809095793,-20.195287930302584,-55.63795266331363,0.4580001889207779,-2.862015780492584,0.2970911910351788,0.09177057366559893,0.056917794971332376
0.0002698306623872,-21.99677374591273,-50.99724138701663,-0.0170966429153887,-2.806955434626176,-0.1636602270850671,0.00029069981246721,-21.995548096267157,-51.02086970023811,-0.009890548230032437,-2.807325333389599,-0.1629062429719852,7.356225007155011e-05
8.334394193379894e-05,-21.988705141197173,-51.116082064431765,0.0191243576492113,-2.807639221351585,-0.1583377633213011,0.00017811979705584235,-21.989347425027518,-51.1094547121902,0.017315770921413787,-2.8076274134018604,-0.15854239170130313,7.51573403536306e-05
0.2551241181971385,-5.456338755456485e-05,-21.31327741544373,-56.41426568902381,-0.0001756005831471,-2.6545719500918388,0.2552040815944565,0.0007001155709076556,-21.313037208337846,-56.41502492262953,-0.001144642461440526,-2.6544779424384615,7.192831328123724e-05
-8.223184913283063,-4.426313269104418,-1.5362770391572018,-0.1612209130389984,-20.7249798510974,-48.210007179614045,-8.216224862133231,-4.426778589275273,-1.536320060049448,-0.16128154386441906,-20.728368215317914,-48.22206277329087,0.000155422175061208
0.4137366663335622,0.0480582270681519,0.0139751868375911,-14.9702142204455,-49.23718393907288,1.0638748535171485,1.0481476227350868,-0.05259036823559882,0.0069764825906304395,-17.348878730284696,-53.9467722902682,4.922466978752709,14.980987421243048
-40.64215525324183,-0.6151893407165625,-2.620135796339872,0.0715436634921694,0.018168477559014,-19.34399682396419,-41.593375813390594,-1.1726757580399862,-2.6861206604360177,0.05008213978726417,0.02279273094563905,-19.330893240781734,0.23362831224512232
-51.040999080752144,-0.0026804696471268,-2.8072007068897213,-0.1624498540847328,7.549750321329514e-05,-21.99298173829459,-51.03384938542149,-0.004771850552060641,-2.807012074463728,-0.16261415453209338,-3.90535278711468e-05,-22.008176251285477,7.363790289244683e-05
-33.713199872519766,0.0928484867579122,-2.700603797819293,-0.0105282512891243,-0.0093643647033853,-21.85809262400508,-33.70454258832615,0.18757927264960017,-2.679512201724947,-0.007400130082714895,-0.004077526319406388,-21.557684215826157,0.004657216449351413
-21.313185267085835,-56.41426244277297,-0.0002451313532903,-2.654472410929453,0.2551159090614658,-2.432868046388866e-05,-21.312354994297493,-56.414661321054155,-0.0010531983352848329,-2.6545485234819353,0.2551694495996344,0.0008245411154348403,7.193470981431822e-05
-2.285673391942416,0.1870243182625537,0.0507070672367924,-21.489519612602408,-45.84544871608154,0.0599620239669451,-2.455756256578752,0.14889416392429666,0.07106247901901952,-21.54898799453531,-45.74571944447234,0.48127643235056894,0.11478476887933792
0.2551564679358559,4.3414291392323385e-05,-21.31340061552801,-56.41439486390701,-0.000242973735614,-2.6546542484050217,0.2550631446800935,-0.0004718915995454154,-21.31386883340747,-56.41438991272298,0.0005469538045872469,-2.654674697052542,7.205785519798631e-05
-18.120968018592865,-50.41754684969391,5.435549501787762,-2.831601500299771,1.6594466325491397,-0.1335938291762798,-17.92744236230078,-49.98677385842984,5.013023156057443,-2.818626548197244,1.657745105708159,-0.11471165409164996,0.6443180791894807
0.1106216734306648,0.0203167653440584,-19.484866817269616,-44.329629322590336,0.9853315571109852,-2.2013423761177378,0.05962857062399962,-0.033206450721024794,-19.140721362081422,-44.33302809117595,1.3346083192664082,-2.2744719036327297,0.15875490360756456
-2.654648558513313,0.255155827208098,4.448064155712002e-05,-21.31339555964897,-56.41439114124275,-0.0002441767672249,-2.6545798699771694,0.25505941535266174,-0.0003053345499210991,-21.313480673955837,-56.41362749378459,0.00042025985021609813,7.197427971189903e-05
-1.1134880735403028,0.1954338779013002,-18.026802906999468,-34.93062466176783,-2.6016813608733407,-0.9852063451413332,-1.108202148028795,0.20113032640381334,-18.029957636887502,-35.994656375580234,-3.043679108068318,-0.9881715395545285,0.045467636281080366
-34.4786341141758,-72.04112522983864,1.602619895793244,-5.462538501512379,-0.6053738878418076,-0.0573513408862582,-34.06156444752444,-73.07079188543258,0.18672554786348883,-5.378578906288055,-0.515252230349347,-0.0540706556574726,4.344749510791565
-0.1624493199511822,7.793776595566043e-05,-21.992967366614327,-51.040988762740646,-0.0026807875123599,-2.8071883398596658,-0.16261854778258567,1.7525287830721936e-05,-21.99276518246188,-51.04210172605599,-0.002604973273264477,-2.807128215474222,7.347684670006423e-05
-44.73878258455296,9.051672170834475,-4.491027274713307,2.663119449497844,-0.1895990940067978,-24.163099938615456,-44.91847374870122,8.950902034299816,-4.492846990341491,2.6672359945030166,-0.18964674901667422,-24.178035488039768,0.00030420350953503224
8.532383036091584,-0.4744169564756528,2.14094704443166,0.0716572479709623,-14.7161605663659,-40.288896543167375,8.503720246560704,-0.4751996208048581,2.140932820624286,0.07170585596488266,-14.714563037719017,-40.29274257884026,0.00020755186012050693
0.0715436634921694,0.018168477559014,-19.34399682396419,-38.171217780601474,-1.4642360006032598,-2.12140310119748,-0.042311076952501026,0.033289638135613586,-19.092870342138667,-37.57998267928269,-1.7803436087551745,-2.124511666496801,0.06281787557580881
7.616749635118055,-0.9764470760192556,1.7421239466253036,0.0368872341562554,-15.486445434277506,-41.70626071944446,7.677288359550438,-0.976841175744994,1.7405515521034403,0.03707500987411905,-15.48007286028951,-41.73087139917334,0.0007576053516291134
0.0352750678269066,-19.925691721120323,-52.01834139897305,1.4034787016588126,-2.1538277864956874,0.4782771400957025,-0.018310544563064468,-21.775367430111146,-57.13677448378803,1.6146680224792362,-2.4319664737616904,0.5207884938657799,1.4170334529721405
7.793776595566043e-05,-21.992967366614327,-51.040988762740646,-0.0026807875123599,-2.8071883398596658,-0.162449333467601,4.631605952454265e-05,-21.992725088231964,-51.041960095230024,-0.002481312010786496,-2.807095070708783,-0.16240830091919634,7.381110029908562e-05
5.125186525625215e-05,-21.3133657213368,-56.41436983232564,-0.0002517969884726,-2.6546178918596954,0.2551520561881727,0.00011675526729959529,-21.31341878919193,-56.414394309860654,-0.00031380116706714034,-2.654589503074021,0.2551344053063076,7.170839678022751e-05
8.398049164638729e-05,-21.988701907974708,-51.11608044073972,0.0191235526543964,-2.807636455236416,-0.1583376772811021,0.00019025756228074897,-21.989402399238315,-51.109423730144044,0.0173103451525094,-2.8076332640125656,-0.1585485883815636,7.524769512795977e-05
-0.2261917957070569,-22.38958263272832,-45.05376981701403,-8.116240850266065,-5.050400493200433,-1.507333997135031,-0.22603160939209488,-22.39259884295734,-45.059679598532966,-8.101077160616114,-5.050903795746592,-1.5075018826578344,0.00019314855598534926
-0.3366225715994476,-0.0085070460727951,-33.20856170988758,-50.54140726390165,0.481759834912327,-5.159121743080881,-0.32585706231441236,-0.00890625211899021,-33.157411581599035,-50.05141756219746,0.9674360615863407,-5.149058144622529,0.007498530540493935
0.0104176191695356,-20.999200665851816,-53.859156765428416,-0.027049946230453,-2.837909460218199,0.0217727800816911,0.010875293104618322,-21.000482469706185,-53.789334565459285,0.001976327854208648,-2.824213621797753,0.01748019765727804,0.0008314583728067967
-56.414389594488526,-0.0002446868147399,-2.654646789004661,0.2551556113353537,4.4844369710186e-05,-21.31339387598177,-56.413623371190624,0.00022172975150169805,-2.654544248889124,0.25510308553566574,-0.00037818953023815993,-21.31263110769214,7.1964353571989e-05
-1.4290163578287514,-0.18342737574932,-21.93811861269486,-47.590525594761125,-6.8770450041594025,-4.563606937242176,-1.4320754860815086,-0.18381952694282422,-21.935194188088108,-47.60900514332529,-6.872746181650882,-4.563928029327705,0.0003398900172501592
-51.469430515455954,1.735699261554302,-2.027059695013161,0.5448762236272481,0.0352750678269066,-19.925691721120323,-51.305590094249055,1.6154705331059631,-2.010106987071282,0.5521792658614686,0.05122044328231823,-19.928579736593747,0.01680160437928774
-56.41438373360804,-0.0002466773382707,-2.654638360042889,0.2551545802857742,4.661212410595764e-05,-21.313385766387395,-56.413771761901444,5.2755000069737434e-05,-2.6545643633708096,0.25512065330804035,-0.00023799230075383093,-21.312885888663004,7.185720119790424e-05
0.9171213849815628,0.0383173364269497,-19.948420424713007,-55.2509279544478,2.609262395022653,-2.0803685686671747,0.9544637903863702,0.02174973690068782,-19.844818776500233,-55.5076708461238,2.850971135256259,-2.1099779967335053,0.06504150168394202
-14.925038488539416,-36.51536195155232,0.1630387916582645,-0.7379598989611894,0.3287642413804412,0.0485020420296706,-15.328902114042648,-35.639935423168936,-0.2137778694741428,-0.7037323418735468,0.35199770719100343,0.028877275877675856,0.1853276845232929
0.9772431015234476,-2.1238974834805715,0.0328263558874158,0.005927165385807,-17.49248382880574,-29.714272754767222,0.7194490327310632,-2.100061166574733,0.037186759987434925,0.03177328146728087,-17.611018394718485,-30.13672365358798,0.09689784942370377
-5.0364642067657,-1.4652721935465935,-0.2261917957070569,-22.38958263272832,-45.05376981701403,-8.116240850266065,-5.037879483407778,-1.4647182328135386,-0.22633312960965668,-22.39362156970128,-45.07687696670473,-8.1138132159831,0.00016936155180386343
3.1566575599624374,-1.6520597468674452,0.8238092826585645,-0.0152503360705032,-17.876324895551107,-49.62316047919401,3.23263670922954,-1.643408718956863,0.8271345203178981,-0.016679958994375355,-17.857005073918742,-49.17552726858412,0.0886822668654818
-0.5392684414723616,1.4725931624040018,0.1327722156743518,-16.79939591150406,-40.8317176447249,4.509258856175596,-0.4100297014382477,1.4763864548564811,0.1264419207998344,-16.787966133545865,-40.66776297333445,4.426759241140644,0.09106990716194358
-0.0026811589676323,-2.807169964605574,-0.1624485702123647,8.172621864978836e-05,-21.992946670322628,-51.04097418692567,-0.005707475414965302,-2.8069805873328733,-0.16280333110807987,0.00015189405405635625,-21.9920401128511,-51.04034031703486,7.377264731784201e-05
-0.0002501415248042,-2.6546243415343214,0.2551528545960655,4.968151138479683e-05,-21.31337232985311,-56.41437446368717,-0.0002343725791433826,-2.654628349673658,0.25514543405006407,1.4579392427549465e-05,-21.31342022631543,-56.41424387332518,7.174676125626796e-05
-29.995881655030377,-47.16097024522255,-0.0547032958727092,-4.67464631649934,-0.1303977519748211,-0.0275459510776232,-30.00175424640113,-47.07770197900163,0.05445774160704531,-4.674627400886307,-0.132472906655293,-0.026946045973684107,0.024881890038875813
-51.04100088908564,-0.002680479040138,-2.807202959398047,-0.1624499439057848,7.508350160106655e-05,-21.99298427976393,-51.03383169742301,-0.004782263451488689,-2.8070024078951974,-0.16261550722083484,-5.244543535809498e-05,-22.008175434777513,7.372312152282141e-05
-0.3740561182980134,0.001822960673374,-24.18012489036226,-54.62710530284244,0.1866862309957034,-3.564529545381893,-0.4129096973638866,-0.1045899337682954,-22.468715096289998,-52.1544518032606,0.3126363825303997,-3.3725600970074083,1.2891503484709463
-2.283669009171847,-1.7997182685376898,-0.675622980624903,0.0599818353502974,-21.256062941707427,-48.71573873931826,-2.495588468081678,-1.763126959006371,-0.6119575355189966,0.060560301416742846,-21.29733024312054,-47.77949234427979,0.08383191116059291
-23.83710433208689,-46.76510907925546,10.512505331735532,-4.45034058030654,2.9547931785771384,-0.1910168846272883,-23.844392802064363,-46.6449003306293,10.534690403044351,-4.448488423597425,2.952173313336324,-0.1903376397996439,0.0008133366512256864
-21.988698652320178,-51.11607871092532,0.0191227360868436,-2.8076336746864747,-0.1583375968935257,-0.0002913442618548,-21.990591172670975,-51.10612557798595,0.015741698323836317,-2.807715200115126,-0.15876698653028143,-0.00011504388612593175,7.318220469327137e-05
-21.31338534415548,-56.41438373360804,-0.0002466773382707,-2.654638360042889,0.2551545802857742,4.661212410595764e-05,-21.313962349522626,-56.413780147748184,6.37130142422393e-05,-2.6545672757420107,0.25513684141060367,-0.00033252205912503996,7.18216353791697e-05
-0.1033129264936296,-24.299479143010625,-41.66431350476815,8.420922288621533,-4.416206048346119,2.277993155189632,-0.11443409749273314,-24.338829669403026,-41.37301906045832,8.535226861448791,-4.404661853893629,2.2974576151735846,0.22923487050548513
0.1452903165869168,0.0263423464760146,-17.322166540856333,-41.21622538759535,1.101412530604395,-1.5015925896571811,0.1143909670291805,-0.04934055638523205,-16.919779156090044,-40.84621404544305,1.3758981464980025,-1.5672472577234657,0.18564237069529693
0.5147824513904533,-0.0031163226165581,-21.17349195296091,-56.76697777170721,0.7121144797412617,-2.527689399999633,0.48189565494101316,-0.008547553605467328,-21.35362471163353,-53.93247732892269,-0.9662327843352614,-2.320429183268061,0.4233068772018444
-0.9912719124421616,0.1035224411893268,-21.124786358391912,-48.07862178660805,-3.6044972402152777,-1.887890384653858,-0.9723338585592387,0.10157752567067746,-21.152567684974542,-48.14612415998272,-3.6002270057051646,-1.8841048801181728,0.005316783392720741
-2.4758823965433816,0.3563633883294892,-16.676199306789414,-38.0570912200508,-6.118648889982205,0.1417983691872237,-2.4857528099832678,0.32751425007433,-15.603822703423504,-31.277767309744377,-4.167955573289873,0.09797163689867006,24.758800193833345
5.429159741504719e-05,-21.313354159642376,-56.41436193108528,-0.0002551527705491,-2.654605739533239,0.2551505609652201,0.00029498915137082804,-21.313263619314966,-56.41452529578237,-0.0006527891237055883,-2.6545811787632374,0.25511940515093556,7.174323125153499e-05
-21.31336262051345,-56.41436768194946,-0.0002526472951461,-2.654614651751708,0.2551516534552817,5.1898392180056825e-05,-21.31328771822882,-56.414088977035135,-0.00039831326284911484,-2.654608303178975,0.2551626325039251,0.00018824193273303536,7.171685613255725e-05
-48.68687152233533,-2.283669009171847,-1.7997182685376898,-0.675622980624903,0.0599818353502974,-21.256062941707427,-50.76430791146413,-2.786292165996201,-1.8917566289476326,-0.6260045108492704,0.05724664864243323,-21.084574894302307,0.5902315725848613
-2.658062735859598,0.2673824085012702,0.004568428805178,-21.31639650169853,-56.41671468968615,0.0168842316035784,-2.659809846762073,0.26716856691837165,-0.00021294463476806413,-21.313736710225953,-56.410179279293516,0.024411058373516425,8.667597737738582e-05
-46.2782368056075,-5.665752966437989,-1.0895037921707371,-1.7732126837062234,0.1453482197935245,-19.59120267788077,-46.45972550578881,-5.740599164109881,-1.0900258673146084,-1.7686134872988077,0.14543657706329327,-19.61888290621937,0.005976712778908937
0.0368872341562554,-15.486445434277506,-41.70626071944446,7.960638014332564,-0.8473334994605917,1.8578069888372064,0.0365622997493984,-15.483747906521703,-41.73011859360486,7.909853944963999,-0.8471597879459165,1.859617016578781,0.0004629222079645708
-21.996797338163148,-50.99726216617512,-0.0171002283640115,-2.806976055626213,-0.1636611370616882,0.0002650702521035,-21.99455643175679,-51.0099065721879,-0.012606705498910742,-2.807011186330783,-0.16305902841668285,0.00014082257621339522,7.26249663275987e-05
-21.98872095586792,-51.11609048324969,0.0191281827536654,-2.807652841344209,-0.1583381763896023,-0.000295652500857,-21.990284709827392,-51.10737131393398,0.016054991450801026,-2.8076483172972075,-0.1587430438185038,-0.00019476084571579122,7.2807540113022e-05
-17.171224699884455,-38.62390991373056,-4.830906087845561,-0.2707462156887839,-1.7795136843478232,0.3206835704894618,-17.360616428959034,-38.863532694425885,-4.384502702623422,-0.2794121657785773,-1.8052190895294729,0.31695118552984525,0.3689895822387032
-2.8071883398596658,-0.162449333467601,7.787327526624901e-05,-21.992967734983896,-51.04098902866214,-0.002680780413217,-2.8068011052437214,-0.16274026180542478,-4.213727152091451e-05,-21.992091902605353,-51.04118137823389,-0.002337682162760757,7.367215278603474e-05
7.99815133919545e-05,-21.99295598409692,-51.040980634429246,-0.002681013134438,-2.807178384230073,-0.1624489176698339,8.653367149236146e-05,-21.99289496750498,-51.041930310369935,-0.0024880266428226605,-2.8071110779465016,-0.16242983467600425,7.37072593383666e-05
-0.1636620375075378,0.0002609113557459,-21.99682079531238,-50.99728349938822,-0.0171035784816029,-2.806996890665355,-0.16316388436302987,0.00014591467106583877,-21.994640804374285,-51.02983349797796,-0.00680862930494186,-2.8074220999415047,7.310098710062014e-05
-21.98871745304493,-51.11608855366043,0.0191273515979417,-2.807649811733682,-0.158338085829782,-0.0002950003917446,-21.990331132605206,-51.10718497138441,0.016007925445592264,-2.8076584043974435,-0.1587465257534859,-0.00018239957853438682,7.282259867364267e-05
-35.80161549915314,-4.146910371221542,-5.932721944560469,-0.8096915658563915,-0.2601629483120576,-27.35606960483006,-36.1874642064613,-4.531167579013072,-5.934860126385132,-0.8026803536098441,-0.2603751446672433,-27.36702760069295,0.004339139909780247
-0.0809408893933639,0.0218478339411944,-21.839170512944094,-46.529135280648106,0.165613015011801,-2.6956913551467574,0.013661187932484609,0.024245858807262266,-21.80002261995287,-46.345059833874984,0.35921826374215016,-2.6968607359922316,0.04082612107683898
0.6450586790756677,0.010808597324423,-20.82844201294557,-56.4266233259911,1.2618900707222394,-2.3956537989382047,0.582107455077221,0.03390768852659676,-21.247684647252754,-54.999997409136995,0.031364905273221666,-2.27430869629643,0.3655754285889034
-18.477709851362462,-51.58974120093431,2.454573710962378,-2.055567085594961,0.6423241585070482,-0.0282382074389637,-18.519398033479092,-51.87333713731573,2.378418445704483,-2.0611074425427063,0.6594585698346265,-0.027932463422605025,0.02236376888101316
-21.99681788805744,-50.99728080831128,-0.0171031307123265,-2.806994286669965,-0.1636619404253633,0.0002613503071398,-21.9942758423349,-51.01080146701861,-0.012370614342216868,-2.8069528537325823,-0.16304099563512864,7.280149247890222e-05,7.276340884371642e-05
0.0191273515979417,-2.807649811733682,-0.158338085829782,-0.0002950003917446,-21.98871783834865,-51.11608875946124,0.016957546875346452,-2.807724978052647,-0.15861681041587872,-0.0002703918446337328,-21.988730258175565,-51.07071997594903,7.297556778124566e-05
-0.3760317630957318,0.067419777527671,-31.37548280930148,-66.98625022722504,1.2440303576065264,-4.7921810334565125,-0.3950334743929602,0.06919018819751344,-31.411421765537455,-67.26428654134156,0.7960477955068654,-4.793305627305955,2.0803748176889827
-1.5339062012266869,-0.2085922638062952,-22.166245355590583,-46.59677985964194,-7.672757921085352,-4.851091880486081,-1.532108804341612,-0.20847388702325986,-22.17395579325665,-46.60365146584411,-7.665968458299233,-4.85234436495032,0.00037385964788567
-4.83862762214402,-5.519102798068118,-0.7920091406682457,-0.2147865071744991,-25.849185296725395,-40.34556260362775,-4.894142689183127,-5.5206843640811485,-0.7910318104792964,-0.21466517745259495,-25.86429607075752,-40.14813380088481,0.0002851430518606187
-0.0002996605446567,-21.988744070280703,-51.11610320508688,0.0191334519859662,-2.807673006404336,-0.1583388103125476,-0.0003939229864045046,-21.99022477548715,-51.09478555910755,0.012351151497568935,-2.807544286362372,-0.15915764462533843,7.398538460873645e-05
-24.18012489036226,-54.62710530284244,0.1866862309957034,-3.564529545381893,-0.3201790699591862,0.0013117927801711,-25.20741108758557,-57.201659699567244,0.6900166499654006,-3.6823377328473725,-0.30125137403956614,0.026670072641081788,0.136434461158706
-0.5268304927752296,1.7436839592455244,0.0860233839410749,-15.275084579381396,-40.63048790318369,7.621380542285147,-0.5231860506548287,1.744415946323386,0.08693121100108625,-15.269292199505344,-40.642741636333994,7.610652810813008,0.002297480663236488
-0.1624490060149177,7.949006156014485e-05,-21.992958665774744,-51.040982611788486,-0.0026809036775921,-2.8071807265056314,-0.16262388932227623,6.301984342371725e-05,-21.9928446402173,-51.04214984909777,-0.0026276195312675554,-2.8071379455204806,7.338912204230404e-05
-56.41425537079632,-0.0001985267054786,-2.6545256110039133,0.2551241181971385,-5.456338755456485e-05,-21.31327741544373,-56.414779865852324,-0.0010907602772931568,-2.6546477772603794,0.25521674391711713,0.0006813476338720648,-21.314485778180824,7.199304628241883e-05
5.802326210339629e-05,-21.313330151385166,-56.41434816047024,-0.0002598746338597,-2.654583388542942,0.2551462365599343,0.0004885346606897656,-21.313088608592807,-56.414673878694884,-0.0010266555473208427,-2.6545647643779375,0.2551044906333573,7.18704999146987e-05
-0.1854183007901178,-23.94364816275686,-46.31882493403547,10.990791347454955,-4.52538304130082,3.0281505614361457,-0.18568531532656607,-23.966107747062324,-46.307081868319074,11.03559223659613,-4.529706991733406,3.030525728866678,0.0013319194600913172
-2.1238974834805715,0.0328263558874158,0.005927165385807,-17.49248382880574,-29.714272754767222,1.06199523549525,-2.1541734899037692,0.08567786532478294,0.028900129006615316,-17.953692604590742,-29.67688174390969,0.9127099687830196,0.1962783867943247
-0.0002933397266815,-21.996788453484005,-50.99725425103624,-0.0170988589590582,-2.806968247117548,-0.1636607959727124,-0.00013820858293911442,-21.99517179936811,-51.01668620784767,-0.010796681381179951,-2.806842647173653,-0.16282038749432104,7.359384418376542e-05
-1.5349912291098722,0.1061452993999828,-20.2146561212374,-46.89497917145744,-5.093339288224802,-1.3379621692396988,-1.5400137555201354,0.10652132206502074,-20.19874172057075,-47.15442007764068,-5.181374466548732,-1.337923823956686,0.0004726306142177102
-0.0012871886595506,-21.31212971548096,-56.41307617551366,0.0018276359012158,-2.65398430831952,0.255268412308366,0.0007124473977455636,-21.3128171058961,-56.41687540925341,-0.001505475738667883,-2.6538729559815692,0.255489726092037,7.367789451135216e-05
1.9338277532075123,0.0971512256260763,-14.513600303789856,-39.65593436775536,8.200248809701614,-0.125426828888408,1.9402122744768349,0.09697748858155819,-14.5084024362327,-39.65629198672832,8.16336180955841,-0.12105867191468178,0.004510920993971272
-50.99724662576539,-0.0170975782559084,-2.806960665601516,-0.163660458369239,0.0002685131374236,-21.996780158651887,-51.01168810261879,-0.01248863117507426,-2.8072120256974813,-0.16317021265513176,0.00032920968214966706,-21.987148537496978,7.322150444250404e-05
0.2551500546415348,5.463309666308367e-05,-21.313349029973583,-56.414356968736215,-0.0002560762227802,-2.654600014643586,0.2552000281502842,0.0005458727837321931,-21.313158168954033,-56.41484028255218,-0.0008368181388505036,-2.6545433294941176,7.181116172344922e-05
-0.0170984870323165,-2.8069658449243966,-0.163660687074144,0.0002673229531434,-21.996786090340883,-50.99725217513412,-0.012907116091810167,-2.8070288473245455,-0.16305867949631647,0.00039751693103262653,-21.997626546119136,-51.04236087790923,7.301259467479688e-05
-40.074345666663255,4.08874623015447,-2.775235908327024,0.9767907284401788,0.0609362614155296,-22.948683514479423,-39.6150501801676,3.8115804972421756,-2.662396309982114,0.9578513104468129,0.04235691289056831,-23.76077797726066,5.13384753022769
-21.436184773907502,-40.074345666663255,4.08874623015447,-2.775235908327024,0.9767907284401788,0.0609362614155296,-20.45651830231691,-38.001493981639214,3.957984070351813,-2.5893194193035924,0.9596423429215974,0.0024583770302240016,3.7564973673371527
-0.0003389256214273,-2.6548523794099843,0.255285710052772,0.0004580945882091,-21.31359360606095,-56.41466937419816,-0.001372668870317284,-2.6547379027360876,0.2553374963663373,0.00048780749648358324,-21.31360074854274,-56.41668792575365,7.25052561054192e-05
-4.393300500634159,-1.2768506737339174,-0.1539025468492793,-21.68545888860425,-47.9379455046567,-6.415775201776025,-4.391161844545422,-1.2778421554784245,-0.15382331542571137,-21.673363689483267,-47.95565243998135,-6.402138064513565,0.0003345932492268596
-0.0026806740251184,-2.8071935742288985,-0.1624495520537122,7.684685840527122e-05,-21.988740741284992,-51.11610128360672,-0.001870388827228453,-2.807446270672699,-0.16243381783351651,-4.548310381835563e-05,-21.989183889789274,-51.11047794634942,7.448442713692678e-05
-21.996770105252747,-50.99723822992967,-0.0170960259076909,-2.8069522786391534,-0.1636600903257977,0.0002705083303718,-21.994964630554023,-51.00856435405149,-0.012954165518749505,-2.80709750187998,-0.1630879094964257,0.00023371250290438184,7.331216637024703e-05
-21.98873209969001,-51.11609654321234,0.0191307709411741,-2.807662524746588,-0.158338478163059,-0.0002976645767695,-21.990140973521193,-51.10794377206912,0.016200588492210954,-2.8076173067438503,-0.15873252439996577,-0.0002336809047847055,7.285532695417281e-05
-21.31336173003439,-56.41436706002788,-0.0002529018977601,-2.6546137172668463,0.2551515379564061,5.212316650805326e-05,-21.31325999798355,-56.41410142766108,-0.00041733187390491366,-2.6546100047798973,0.25516370575587644,0.0002096482144224865,7.171774513520653e-05
-2.7112681475991143,0.3499487565345726,-0.0501120050119226,-21.21996567828075,-56.30000422009402,0.65902958549911,-2.6590324269909615,0.34218869065716717,-0.0471969658992748,-21.634564631611156,-57.19953592378806,0.2976831377163762,0.03132014786272092
-0.0002541082326891,-2.6546090310635964,0.2551509481231084,5.316998910383931e-05,-21.313357686866546,-56.414364245888734,-0.0005638850707327947,-2.6546228190472902,0.25517231506000826,0.00015677186820539646,-21.313324206550533,-56.41473097237758,7.176427775474188e-05
-56.41426706369901,0.0006289409126731,-2.65526874470567,0.2553700812123491,-0.0002979527394471,-21.313977202228703,-56.41329500504071,-0.000911927993001882,-2.6554449525519885,0.25556135641272704,0.0008396115717914654,-21.315046931002144,7.286214344643234e-05
-0.0045844851927904,-32.79278544004365,-49.88654512274742,0.455411730882587,-5.048321453375506,-0.3441435943482802,-0.005280352234011465,-32.9567673066027,-50.783266208904195,-0.3994140477487278,-5.077877633622089,-0.3299243221943975,0.08142414078768095
-21.313359517744576,-56.41436551934617,-0.0002535054834809,-2.6546114045081213,0.2551512520415099,5.266527223151323e-05,-21.31319045073178,-56.41413257860404,-0.0004650563423638232,-2.654614302504342,0.25516640986279526,0.0002633699249372512,7.172178914655454e-05
-41.749301893864015,0.0275988459136158,-2.795627506347653,0.0613369187253847,-0.0122746352165996,-21.892224370153404,-42.53102628339548,0.15619179556233576,-2.8579970378086728,0.03419738484717527,-0.07519186048330084,-21.499546178703895,0.06736733365617081
-0.0002502642573184,-2.65462387219886,0.2551527964322011,4.97870333489596e-05,-21.313371898522007,-56.41437415986908,-0.0002442110489937477,-2.6546281874616398,0.2551462306491885,1.8833383819583105e-05,-21.313417291705264,-56.41425834517577,7.174521653636041e-05
-29.322843930325163,-0.0823652213923808,-2.606631542711845,0.0573383905085022,-0.0110664214511207,-12.539395812430213,-31.29904456163058,1.8691540779145726,-2.456023634042481,-0.2988361074471868,-0.11014502667603665,-11.85897929867133,6.048002101789286
-21.98869577548676,-51.116077291727336,0.0191220068388241,-2.8076312239051604,-0.1583375210881149,-0.0002907618359152,-21.99063258255046,-51.10595460193872,0.015698901250289055,-2.8077242815761565,-0.15877038493363216,-0.00010458942506375024,7.328248304955671e-05
-56.414378793513,-0.000248431265919,-2.654631168878254,0.2551536967254323,4.816644182333231e-05,-21.313378870355866,-56.41389991607866,-9.608176333131269e-05,-2.654582169985133,0.2551361328933126,-0.00011502158940857043,-21.313108527854638,7.179068823032615e-05
-0.3201790699591862,0.0013117927801711,-23.032055441350337,-52.635939650246726,0.0220052264858634,-3.34699436900032,-0.3443637837355027,-0.06743787003398438,-22.04293796487218,-51.048541963114985,0.04781109545183426,-3.2302394881280634,0.33502352691554077
5.50758003663789,-1.603820621802573,1.1617877039696751,0.0374538293119466,-16.99648733082344,-44.129150605410985,5.612560881970012,-1.6104849115695288,1.1592368185958577,0.0368736950308346,-16.963499870574424,-44.23364468393811,0.0033863499189467666
0.1364128638986851,-19.73904203183332,-46.2782368056075,-5.665752966437989,-1.0895037921707371,-1.7732126837062234,0.13679948311437773,-19.70986300286119,-46.87816319544618,-5.9062979696268485,-1.091899609022562,-1.75864865622367,0.005067483061003746
-4.512498040828915,-0.1053269477645175,0.0027289451553928,-29.995881655030377,-47.16097024522255,-0.0547032958727092,-4.477012648010213,-0.10110924687862166,0.0010019625298788304,-29.716426058157765,-46.02532014336475,0.4541355458450198,0.1666221430064982
-0.0026816950571442,-2.807151289133037,-0.1624477860066147,8.605260404208234e-05,-21.992924956456985,-51.04095933433574,-0.005935409462836105,-2.8068888301831976,-0.16281198553542708,0.00029687306448522577,-21.992409999802476,-51.041041789081646,7.439132142534184e-05
2.922090427365952,-0.2175652302042976,-24.48282855315296,-44.98511034230209,9.249498339731204,-4.601132486265253,2.9309234922008756,-0.21844094289640736,-24.483731731383116,-44.81780340242722,9.325949229874823,-4.598305087291436,0.0018294619558562638
-0.0002463602591265,-2.65463969663877,0.2551547439794148,4.632793625070031e-05,-21.3133870665518,-56.41438497533432,7.820613245712593e-05,-2.6546334212398506,0.25512031259586365,-0.00012093507166355266,-21.313515979491058,-56.41378689112025,7.186277921417535e-05
0.2551525709286485,5.01992636191288e-05,-21.31337013399593,-56.41437291952005,-0.0002506105751847,-2.654622499761345,0.25513443771649236,6.438420928134292e-05,-21.313486707716947,-56.414629225153476,-0.00018368948440183885,-2.6546019137185795,7.172547106532441e-05
-0.0002531464621698,-2.6546127870883987,0.2551514236313912,5.234715519200578e-05,-21.313361294940705,-56.414366759275,-0.00048162076564040035,-2.65462421209304,0.2551655730276252,0.0001213370710502204,-21.313347780074764,-56.41460894676857,7.17465754351317e-05
-56.41437507691609,-0.0002497990165624,-2.654625709447074,0.2551530234550142,4.9375042339486464e-05,-21.31337364083352,-56.413998168573016,-0.00021197005844442174,-2.6545960864555127,0.25514818829105934,-1.9587407223298214e-05,-21.31328081276297,7.175675293663992e-05
-4.491027274713307,2.663119449497844,-0.1895990940067978,-24.163099938615456,-44.705679822279976,8.800891045885773,-4.491978373878894,2.6658567670863533,-0.19004117685554434,-24.158277638970958,-44.658876854209666,8.831798298369904,0.0007619773042565933
-2.807657539761114,-0.1583383221913411,-0.0002966423391428,-21.98872675091632,-51.11609361749682,0.0191295397833181,-2.8070305887922586,-0.1584315981299369,-0.00038818704433651874,-21.9903751373231,-51.07676912876195,0.007852281451050658,7.323093971107049e-05
-23.925405263813456,-44.8474021647525,9.996310087503645,-4.452719190227928,2.698343028794464,-0.1455929886959713,-23.911903529868994,-44.929016451947746,9.954803071783772,-4.452666530956492,2.699954903179055,-0.14534487475123825,0.00022742723905961178
2.7565269371234247,-1.871215056652324,0.7441986318930726,-0.0409322988198022,-17.89101181491561,-50.31418791853004,2.9271137879221705,-1.8675233317869129,0.7467785387255432,-0.03927539726364948,-17.89743126414794,-50.43802429094012,0.046652253822293495
-2.6546266259385187,0.255153136740453,4.917046091524895e-05,-21.31337451756447,-56.41437600805205,-0.0002494518165085,-2.6546264355129097,0.2551267288981762,1.1497979357955046e-05,-21.31339760591436,-56.41420254739933,-4.702409205492586e-05,7.175550749733268e-05
0.9465193689861792,0.104577452751564,-18.86980287148565,-43.10900033494271,2.293636814872541,-1.507566775227695,0.9414439714036007,0.12698185187616673,-19.047728324946547,-43.576066908062785,2.457869011731418,-1.5588972595114683,0.09650156101631663
-0.0171038353190943,-2.80699884531032,-0.1636621399598813,0.0002604794019753,-21.996823336358272,-50.99728584010862,-0.012486683430324774,-2.807211134238969,-0.16303875177891314,0.00014393192179795733,-21.99694152043594,-51.04114068252966,7.316258052609122e-05
-0.0170985457041184,-2.8069661827918897,-0.1636607019822574,0.0002672464304564,-21.99294035190847,-51.04096982463474,-0.014324265845061745,-2.8067388610024864,-0.16326242509694566,0.00034404187385916885,-21.99397965380922,-50.98958445288008,7.361425105640158e-05
-51.11609967100725,0.0191320503893255,-2.807667466599122,-0.1583386340621538,-0.0002986498480186,-21.98873812375214,-51.107538167445455,0.0158055799183785,-2.8074469031980698,-0.1587016827234038,-0.0003758563966584916,-21.982523645972833,7.325286188714493e-05
-4.426313269104418,-1.5362770391572018,-0.1612209130389984,-20.7249798510974,-48.210007179614045,-8.185835901353789,-4.4266924338837725,-1.5364921416836523,-0.16123630852933957,-20.726912980699126,-48.226194249407854,-8.23812201761757,0.00015668125116147642
-56.41436457902592,-0.0002538505689693,-2.654610000532205,0.2551510734716199,5.296153111755903e-05,-21.31335861189391,-56.414285758306505,-0.0005597468552878127,-2.654638110322594,0.25518438752988004,0.00026532411720836535,-21.31379284074501,7.174732230081211e-05
-22.945768391262387,-47.82682897528121,5.763205702932321,-3.7111011429185607,1.8692648674217536,-0.1323527177132875,-22.941747038168614,-47.95393090869038,5.666702401284056,-3.7211049986394755,1.8721725198686272,-0.14082703465055602,0.005559775475439015
0.2833796248400593,-0.018237097047499,-17.609316243271465,-44.85866479284714,-1.0437421452510307,-1.0553032435895746,0.45572793111773535,-0.3132302323008389,-19.07436584842435,-51.79450686668133,3.3790249732155644,-1.1885536322088228,6.798311182102174
-2.654578213746987,0.2551465165091012,6.575798337942857e-05,-21.31332861055195,-56.41435081815985,-0.0002655200036164,-2.654684219705814,0.2552414364654396,0.0005610869729935075,-21.313266250614106,-56.41521123559505,-0.0008880386303644627,7.189558946291548e-05
-2.807201023652252,-0.1624498673090446,7.543890352333345e-05,-21.988749223385167,-51.11610612141174,0.0191345746023724,-2.807553545198971,-0.16239563786450617,-8.61467442518915e-05,-21.98951454973667,-51.111847668886185,0.017748402060533408,7.501498539025782e-05
2.053866437895385,-1.9126536863022057,0.6083161304158167,0.0331373000272434,-19.52820501219468,-51.469430515455954,2.179498020534311,-1.9374754791909368,0.6306696012314603,-0.0073191606371096896,-19.46745409094484,-51.846828234110944,0.09062939756953509
-38.10798992999778,-4.256758962026294,-5.161841835429385,-0.6304818278177747,-0.1684374408173514,-25.7386819575602,-37.837923057882335,-4.025772207079626,-5.158710444095771,-0.6358152421197758,-0.1676849899961539,-25.71927844683472,0.0011232775498288313
0.0004472598263669,-21.313292313280968,-56.4145123361004,-0.000520790436034,-2.654441501652072,0.2551569991680653,0.0007324542420974467,-21.312637873270432,-56.41453535438632,-0.0012994203716516495,-2.654516835656068,0.2551474463980412,7.21500481747946e-05
1.157618137054386,-0.1113347874698044,-20.13157395167465,-55.32343376203342,2.3403009035752422,-2.686560604959757,1.1648753940131655,-0.028018221000365884,-20.32648729081302,-54.50184755403461,1.9866933410339698,-2.697271920114872,0.29492283256079216
-2.806955434626176,-0.1636602270850671,0.0002697480603851,-21.992927835308635,-51.04096133598026,-0.0026815645214725,-2.8065838982238347,-0.16314089039985902,0.0005152202229510294,-21.995780263116558,-50.99936613474165,-0.015878475503996015,7.40815927772794e-05
-56.41438774376678,-0.0002453055437805,-2.6546441434307093,0.2551552881909574,4.539294796829939e-05,-21.31339131867889,-56.413669733301504,0.00016932774451561272,-2.6545504740138313,0.2551085323593725,-0.0003346434350532945,-21.31271035851387,7.192749658341675e-05
7.735458126742339e-05,-21.9887377553113,-51.11609967100725,0.0191320503893255,-2.807667466599122,-0.1583386340621538,6.128860513854306e-05,-21.98882398807109,-51.109737805469194,0.017370875109918416,-2.8075737909407508,-0.15848521810676175,7.504382725781873e-05
10.423312804783617,-4.50405087030739,2.803708977184302,-0.1510102605383147,-24.02315787309432,-45.02152641024502,10.435822062614534,-4.503379707649671,2.803442902027129,-0.15026433208672785,-24.021219040492525,-44.986935151404396,0.0007389167209399014
-15.844376522942982,-41.351769116625725,6.799197849960313,-0.642077871914845,1.7634082153692854,0.094003598723282,-15.839471569647571,-41.39754788265418,6.813332511707813,-0.642232547226925,1.7638558241106637,0.09401491698291409,0.0002883495886069661
-2.806994286669965,-0.1636619404253633,0.0002613503071398,-21.99297258806391,-51.04099254814248,-0.0026806877469399,-2.8068387450330192,-0.1630911852096233,0.00014675554211862618,-21.995156857990196,-51.000079924173406,-0.015342071099439636,7.381578220728009e-05
0.0108639095695602,0.0012398431658298,-19.674955057677764,-48.232068519722574,-1.8646283594940245,-1.419143548791164,0.24892081408887634,-0.18614364106520043,-20.636647151518446,-53.21918329640903,1.0352782968147949,-1.600994524899079,7.358208368961534
-2.968342864403184,0.5687433257833514,-0.0443862116096382,-21.8479938307825,-47.301522586042665,0.335712788004221,-2.8963523047532362,0.544524004340019,-0.03700436144936248,-21.663960130512805,-47.41064633252972,0.733960844198009,0.02645787668530514
0.0589609074932698,-16.393821493796086,-26.33679630163187,-0.4504896560951588,-0.8352778958652418,0.2445920101803196,0.10520104736951907,-15.80129562554066,-24.77800097843283,-1.0173786124942126,-0.7812860407173048,0.22615291549936956,1.4400427281945045
-0.1037750325528805,-37.87924208178678,-77.87907093118649,2.110042031457356,-6.194054659189628,-0.7617018955315871,-0.10418766299684784,-37.827652206529166,-77.87424335498555,2.252391044581401,-6.185430497044683,-0.7597238896156391,0.05982329773534074
-0.596076298987828,-0.0040983861306103,-29.679001386388943,-64.2319179259642,1.0545279426758565,-4.542494903946401,-0.5986412281471356,-0.012579408698961458,-29.56773428114053,-63.95071565867852,1.0770448003299862,-4.533812260634193,0.04477027331220169
2.293636814872541,-1.507566775227695,0.755899754851752,0.0924036988539897,-19.57689728957041,-43.85245427157701,2.325014104941147,-1.4683055247310222,0.7670599461021084,0.09316705495638189,-19.60999276880557,-43.87387349999335,0.012715518309255717
-50.99724383112738,-0.0170970394075565,-2.8069578846983982,-0.1636603383748295,0.0002691651052427,-21.99677696800491,-51.01165155242779,-0.012481573430704884,-2.807228882722029,-0.16317012071067438,0.00035139578130838345,-21.98711920567439,7.333920428348868e-05
0.0632742229638909,-18.30990687207473,-46.81154611957373,5.059485496329659,-3.299496800252214,1.3187059209169611,0.04115961365596377,-18.00147855264322,-46.64524478888961,4.85324380394195,-3.2330170935462377,1.3194278457976338,0.7481368209505266
-2.654602574800545,0.2551501080316977,5.428273111537596e-05,-21.313351511853867,-56.4143597819796,-0.0002554014598186,-2.6546814229677693,0.2552070933629693,0.00038900552772247465,-21.313309958874015,-56.414897152455524,-0.0006102106417529285,7.178477512210087e-05
3.1507735637543366,-1.6836492056747416,0.8204787457186351,-0.0254933083136965,-17.79273074977135,-49.66601243144406,3.1415727107305003,-1.6768152468888928,0.820116355372928,-0.02720366391149831,-17.76378395253988,-49.211049755989734,0.06317549280823326
-0.1624490197159069,7.942182255534622e-05,-21.992959041330064,-51.0409828785772,-0.0026808961362476,-2.80718105435166,-0.16262364463818813,6.102595011725498e-05,-21.9928411382989,-51.04214775378932,-0.002626624525873922,-2.80713750936593,7.339114438903856e-05
5.821283840351282,-3.7638715126527424,1.4952243807647003,-0.0057739606776595,-23.87448622851633,-41.51997967058848,6.2751149391046965,-3.716437185092474,1.4624151777940284,0.021903124275624464,-24.111512603026625,-42.09471328105701,0.44438570953202
-0.000245726024233,-2.654642361276329,0.2551550702452265,4.576571943254045e-05,-21.31338962407265,-56.41438682559102,0.00013060951459920034,-2.6546342517813173,0.25511614266088145,-0.00014371858105732827,-21.313532538495565,-56.413710845517926,7.189501574228892e-05
-0.1636618370718112,0.0002617973992086,-21.99296998148904,-51.04099073159909,-0.0026806819828765,-2.8071906415395165,-0.16337889793840077,5.640147526264627e-05,-21.99486131905178,-50.99922541405249,-0.01548526062106248,-2.8065675985171765,7.380350763836326e-05
-0.0002526472951461,-2.654614651751708,0.2551516534552817,5.1898392180056825e-05,-21.31336305845905,-56.41436798402266,-0.00044085989793529734,-2.654624897366375,0.25516223692739004,0.00010376409363743733,-21.313359528998262,-56.414548557571834,7.174108154712051e-05
-0.1100334423961879,0.0094011627242386,-21.50367644156695,-45.027505471955,0.3749753171929984,-2.70342345620192,-0.00011763426982724923,0.029902870158139194,-21.674729327252862,-45.732478315607295,0.46951340148370946,-2.702260211321118,0.08156221977424732
-18.28252979317513,-47.26646637932007,4.014860868604561,-1.684546723475315,0.598954693708544,0.0221660696337229,-18.71640306884592,-48.4322498907577,3.9910839879962623,-1.7425139700239924,0.6378004598218467,0.07633568119763368,0.3007362232384369
-1.6836492056747416,0.8204787457186351,-0.0254933083136965,-17.79273074977135,-49.66601243144406,3.1566575599624374,-1.684706908552542,0.8177275117478722,-0.02588370185919331,-17.787321784157143,-49.63857892024225,3.1833897721389803,0.0022106666656955304
-49.88654512274742,0.455411730882587,-5.048321453375506,-0.3441435943482802,-0.0021037903547972,-32.238901032734425,-49.81617146797794,0.4842610203361346,-5.052834005815612,-0.3435526873039052,0.00017716687894164806,-32.28092786688899,0.030377922937822436
-2.8071600077037715,-0.1624481543419058,8.398049164638729e-05,-21.988701907974708,-51.11608044073972,0.0191235526543964,-2.8073442058121145,-0.16242454135544904,0.0002752044356384431,-21.99011114197492,-51.11129227964557,0.017316424928139895,7.49126067549107e-05
2.9826585696233745,-0.1683074858806482,-24.03336708222239,-45.69482204628214,11.259315394941536,-4.585872668183466,2.97996474299552,-0.16821701381553567,-24.03489737646575,-45.529077370617074,11.318434303553659,-4.583197121056742,0.000631088843539633
0.0428179754228517,-32.43992816455132,-68.60453587818095,1.317530767235885,-5.026000591486581,-0.5080250621254065,0.043145197826063963,-32.560564092602085,-68.8540332604232,1.3281657416657708,-5.052171413335472,-0.5108900386501247,0.1377575337277565
0.2551516534552817,5.1898392180056825e-05,-21.31336305845905,-56.41436798402266,-0.0002525247170074,-2.654615110282168,0.255152436792514,0.00019812086225101666,-21.313393697693755,-56.41468792516389,-0.00036554386315401644,-2.654584459736725,7.171282627522053e-05
0.145152661607207,-19.368768555850203,-33.602094129674,-1.208758841434579,-1.7330958653020208,-0.5367067739665329,0.15277312275657096,-19.346335540960354,-33.69791196634469,-1.0142294996912824,-1.737072840591111,-0.5357901489405776,0.05683173089568667
-26.35697876330766,-39.88688122018503,0.0721177942250216,-3.7499294912593766,-0.1977899693261524,0.0010974949919592,-26.165414193729703,-39.8221193338577,-0.3921239690407674,-3.7333643078449086,-0.19827227525632907,-0.0007315566700849541,0.09442442350408581
7.549750321329514e-05,-21.99298173829459,-51.04099934521653,-0.0026804631683887,-2.807201023652252,-0.1624498673090446,-2.6505822461331263e-06,-21.99252013289879,-51.04199320659973,-0.0024720123619772494,-2.8070765271581877,-0.16238295063340047,7.414072280792901e-05
-0.3457005334530756,1.6247366364249294,0.1386661575853385,-16.197002292878153,-40.26837590178261,5.182272315220571,-0.1488722863107057,1.630273381262242,0.13014172140616154,-16.162579219542522,-40.29336400337161,5.027873688721229,0.22320989653591167
-0.558456407363827,-1.4593524285112922,0.1727529808318819,-17.476082114245546,-37.53552312971137,-4.137516163931108,-0.5547566156205903,-1.4703123639319813,0.17386581496344888,-17.41835834043195,-37.81830915195678,-4.6503108135675575,0.04225224545604673
-18.026802906999468,-34.93062466176783,-2.6016813608733407,-0.9852063451413332,-1.049441858789241,0.1930013764788765,-17.901809593048142,-34.78372658642124,-2.769047575987152,-0.977770939069174,-1.0416438206512453,0.18266712406552799,0.06194826675321136
1.887694821529524,-5.878773637444574,-0.6918121295191837,-0.0971305638319782,-37.22094048531813,-76.75244595251255,1.8597638346523127,-5.864016487906298,-0.6905484077418436,-0.09748673722167922,-37.15326829004567,-76.54290484478406,0.017579988107206904
-4.296995832432439,-0.4606550439002105,-1.5886493533608137,0.2187444967031863,-17.437286798444248,-38.11070477451533,-4.290189436439476,-0.4482825015947256,-1.6052787357258467,0.2228813426134182,-17.536084451842214,-37.069075481100754,0.057187586969866096
-0.125426828888408,1.9911774347291449,0.103423503266465,-14.324246191699013,-39.15558217532403,8.346347493947544,-0.12295962964901719,1.989896493959435,0.10409753506966268,-14.318149341956996,-39.257746528704956,8.326029209617445,0.0002654514747521582
0.1699041536456914,-19.148295192336548,-45.3427445137982,-6.104323464422394,-0.7894795570380981,-1.9490548739601887,0.16946640147700842,-19.156103466578458,-44.998632311046094,-5.94833028484436,-0.7882487973931411,-1.956238388988453,0.0016835588527672237
-0.0958043832156271,-38.73266063032259,-79.37511637234475,2.1808128471354875,-6.354933970141686,-0.8133721613408268,-0.09498745384660418,-38.75378006822228,-79.41434997699096,2.175090949574326,-6.358987386959097,-0.813382373570815,0.002459203310144435
0.7612479973089806,0.0152549833927941,-18.482221336359995,-50.18110780598191,2.5725643326059977,-1.7350907209335664,0.7609706121656927,0.015380687612207566,-18.46506708863683,-50.05031688317831,2.5948907136407797,-1.7301857546615338,0.008525394338085138
-0.4361218387894778,0.0015667165387341,-25.441843525351302,-56.83287059745543,0.371798662220093,-3.794576905146098,-0.4506344747241542,-0.05565690817729774,-24.497570597110098,-55.61609467553899,0.567121586486337,-3.689854521912366,0.6457701520497554
-1.7614592907101343,-0.958511937330414,-0.0277362002907467,0.0194271797324266,-8.978105139359638,-37.38507414547773,-1.8727596884018567,0.271995504651386,0.7027738199167288,0.08239782073496826,-11.618566143031785,-45.83613940041687,8.617839664454811
-0.0194383707586374,-16.200838255700194,-37.47174632585282,0.7501854862377693,-1.5193703409865036,0.360041643410705,-0.0046955882680776995,-16.114577805710724,-37.63379362350679,1.1541987819800852,-1.5373063934921447,0.35724791297252523,0.1170672225776232
0.0690271841681776,-17.917081334846987,-51.49234718983906,5.475455392569609,-1.448382700382052,1.362639200962033,0.06711182149602735,-17.923274739464745,-51.54151158192599,5.487260206607971,-1.4447356159787823,1.3640200446306494,0.005870251177475698
0.2551591868161144,6.987424255128914e-05,-21.313376793781025,-56.41437627718204,-0.0002653958245795,-2.6546168544399995,0.2552252915131703,0.000681439385516569,-21.31308609700136,-56.41488030684923,-0.0009927777136908844,-2.654554655066022,7.190623114778212e-05
-0.014228996626041,-18.477709851362462,-51.58974120093431,2.454573710962378,-2.055567085594961,0.6423241585070482,-0.013597283277027472,-18.465671216636686,-51.616359332284446,2.428129174081505,-2.055184058930739,0.6416258734918898,0.02452041445497483
-51.11610461109225,0.0191340181718647,-2.807675279584367,-0.1583388859089822,-0.0003001510691142,-21.98874701620469,-51.10767234090599,0.01580017241940368,-2.8074073556235817,-0.15870259540770348,-0.0004322699774093053,-21.982596065798134,7.350813957058129e-05
-0.6400394977051878,-0.2158219841513706,-26.781178242744737,-34.883878053118856,-4.412471456704107,-5.563818268375578,-0.6495438608914981,-0.21674482292040764,-26.79820368257532,-34.935976053065815,-4.453579496414477,-5.5650027469140255,0.028290911254890975
-5.683078664988429,-0.6506300576835183,-0.0822716259072381,-36.39694190767483,-75.31183256035727,1.887694821529524,-5.718967197209537,-0.6490483546671868,-0.08656567239002833,-36.65965310224033,-76.0822373339206,1.7929677498141245,0.22373199279417716
-0.0002519148197628,-2.654617436323147,0.2551519995684652,5.125186525625215e-05,-21.3133657213368,-56.41436983232564,-0.00038089090230641887,-2.654625912395204,0.25515734198143036,7.78855205680884e-05,-21.313376968944794,-56.41445986641338,7.17369570739131e-05
-4.542494903946401,-0.5442219224302287,-0.001498846404911,-28.226810779824493,-61.62926380800216,0.9292886906872762,-4.503869954186058,-0.5368835261118718,0.005358962321736271,-28.335541148972084,-62.10675459644699,1.02310834935588,0.037707916076476784
-0.008618494881546,-21.86334926554856,-33.39175542069789,-0.0247179618461637,-2.7930106394169005,-0.0233972018846093,-0.013360039965846227,-21.611162022709323,-33.01315476454329,0.1165932523435913,-2.785828346404969,-0.03905921190198569,0.0209375377789402
-21.313390481148843,-56.41438743957406,-0.0002454081246502,-2.6546437074596154,0.2551552348947217,4.548389923449785e-05,-21.31410718958432,-56.413712316032615,0.0001626841985853389,-2.654558573385657,0.25513139801569196,-0.00044426268402730784,7.187571890793627e-05
-0.3741625731080369,-2.191439463940945,0.1974728903650854,-17.817213102518103,-47.17072066219464,-8.371526581209427,-0.4322226467733117,-2.0329642137786124,0.19647396815136453,-18.817792108787756,-32.480559617002655,-1.382184251685885,10.027070411469316
-21.992946670322628,-51.04097418692567,-0.0026811508094031,-2.807170298911082,-0.1624485841756707,8.165258250871796e-05,-21.993889894081804,-51.03632754221326,-0.0043217011843807995,-2.8071964857390412,-0.1626677643680523,0.00015390907947221422,7.290142702371234e-05
-32.238901032734425,-49.33233175348887,-0.0359736779737849,-4.913421546262231,-0.3311717258674279,-0.0010452250420551,-32.24653527215337,-49.16346861879068,0.2489945703511829,-4.914224985227872,-0.3361117774022482,0.0012927346838100817,0.004665342368872676
-51.116075560105024,0.0191211640164924,-2.8076284153107114,-0.1583374406801617,-0.0002900848799497,-21.98869288140625,-51.106696152477525,0.015830122138140723,-2.8076739618472857,-0.15870467605600425,-6.522234116346226e-05,-21.982034813481732,7.347946803432499e-05
0.0380033474494021,-27.04328906576586,-61.123558406334055,1.5089730338324423,-3.451527948478296,-0.1474124524054175,0.051451122361640955,-27.481301937331864,-62.78551594286182,1.424088848059455,-3.3775370466427432,-0.1182279066336207,6.6332560633640645
-27.73829886694072,-43.78750390859214,0.2406456185676514,-4.177519553399564,-0.0573263319934004,0.0763862564940383,-27.583838712186946,-42.77175441470774,1.7119425041265686,-4.159547317392857,-0.07439318007464024,0.0744475487099667,1.0239944569969228
0.0191300742418116,-2.8076598743578094,-0.1583383979009812,-0.0002971244900845,-21.9887294340006,-51.11609502819082,0.017100417688197922,-2.8077877580026325,-0.1586083034371768,-0.0003511225401618967,-21.98850447136283,-51.07033023866825,7.303919890117434e-05
-1.4593524285112922,0.1727529808318819,-17.476082114245546,-37.53552312971137,-4.137516163931108,-0.5908353444630909,-1.4550552315695313,0.17116713026018715,-17.51932872395878,-37.50572463859862,-4.003290089956863,-0.5906977168143897,0.020058100116762293
-2.654632965354544,0.2551539176409898,4.777418367365367e-05,-21.313380610229103,-56.41438033858726,-0.0002478751324238,-2.654612677572004,0.2551067277177026,-8.25756660560728e-05,-21.3134212638995,-56.41403097331204,9.229771967511624e-05,7.179730636747557e-05
0.255268412308366,-0.0015246429505443,-21.31276813345573,-56.41329108460521,0.001693207051201,-2.654565728654142,0.25535964574714853,0.000275008974085722,-21.313264779477322,-56.41620586360659,-0.0009501124950475059,-2.6541987533855718,7.219582309997825e-05
-39.2039860299985,6.891930408153735,-0.0603707193136505,1.8754685084592384,0.1430864611662403,-15.179553681741222,-39.063260513693876,6.916871897464262,-0.062051319942751704,1.866374450228534,0.1433711700848761,-15.170894961539489,0.015476681164108445
0.3424880170857164,0.0324136082740961,-21.068308172777137,-53.78958080458915,0.5077158751481983,-2.5518683579130985,0.30264847808723516,0.014587394531190512,-20.91466278504413,-53.55556873770547,0.36350822907934344,-2.5434210894436546,0.015758892683755025
-2.6546307049072846,0.2551536394536751,4.8268203361374e-05,-21.31337844353224,-56.414378793513,-0.000248431265919,-2.6546175548646715,0.25511380830812413,-4.926590918330476e-05,-21.31341279484036,-56.41409164975266,4.301805165596306e-05,7.178026874638384e-05
0.2551559876344801,4.4211990552286e-05,-21.31339684045201,-56.41439207954803,-0.0002438704697016,-2.654650323022303,0.2550714688183007,-0.00040867628194973804,-21.313822975493167,-56.41441847410897,0.0004606978091032943,-2.654665869944438,7.199510446892894e-05
-21.31336706317932,-56.4143707695005,-0.0002514354019983,-2.654619292822592,0.2551522299695064,5.082795807731783e-05,-21.31342384375239,-56.41402751582791,-0.00030495865939883515,-2.6545999692698388,0.25515737535533844,8.312820614264638e-05,7.171844914094912e-05
-35.89433835418456,-75.01287607706094,1.866050845826965,-5.690726224093528,-0.7647733567106013,-0.0203523619077248,-35.89130572294125,-74.9784814329617,1.9009561851158878,-5.689778746902929,-0.764668357621427,-0.020288149213739004,0.0020893486129184885
0.0651871906672372,-20.938127121620703,-44.99590891619633,0.5248036360268478,-2.285673391942416,0.1870243182625537,0.057418553022216656,-20.998210086523613,-45.01375943401945,0.5176021568040596,-2.277582770897425,0.17660385982799198,0.01024847259245715
0.0290221399095716,-21.35641023338453,-54.37282968678024,0.1728536062452997,-2.667366678160057,0.2310016720476845,0.0007433744995068992,-21.671899386936275,-54.83676331405877,-0.1868284966039937,-2.709628058049475,0.2295568615973025,0.008923525020412885
-33.690844731126106,-71.25826778118402,1.5722340241694777,-5.267157331423132,-0.6905071801019675,-0.0111881248024497,-33.70708174305145,-71.27179846169975,1.5884667197047975,-5.270621858209754,-0.6958469192927996,-0.012610559690561018,0.010321977410888198
-51.11608713969418,0.0191266900857639,-2.8076474343009745,-0.1583380100672612,-0.0002944813767808,-21.99679427284358,-51.10643753100885,0.016377245861804113,-2.8076037222735977,-0.15863491954223718,-0.00022030993341104477,-22.002636556913785,7.308309037651746e-05
-0.1624491128543768,7.894081023316078e-05,-21.99296171139854,-51.04098470313991,-0.0026808982211571,-2.807183383939148,-0.16262195438730487,4.694243307312718e-05,-21.992816475260042,-51.04213288566825,-0.002619628236061544,-2.807134456055792,7.341018687751351e-05
-2.6545919259625834,0.2551522066104936,8.830894757379029e-05,-21.31334140674216,-56.41436776684386,-0.0002816667933528,-2.6547068157506146,0.25525151505644317,0.0005876904760953039,-21.31327492236983,-56.415259195109684,-0.0009045724582392722,7.192239141912544e-05
-2.807178384230073,-0.1624489176698339,7.99120892238444e-05,-21.98872329319093,-51.11609168996053,0.0191287337788079,-2.8074446650061873,-0.16240907303267704,0.00010547799411142478,-21.989823811864426,-51.111560726925745,0.017526768904644996,7.462229675664751e-05
-17.476082114245546,-37.53552312971137,-4.137516163931108,-0.5908353444630909,-1.4022584154773197,0.1724404356862837,-17.482842691811072,-37.97535519448684,-4.541886717894613,-0.590521327020582,-1.3904950790262944,0.17220858663461058,0.0039415491789102685
-0.829035900862858,0.119514511340051,-0.0173042993952114,-11.033076673101998,-24.314119200793435,0.6211049902323686,0.5812478272302997,0.7748088408626472,-0.008166428084336985,-15.28404912710704,-43.661493637778165,6.252959457056932,37.137256999837355
-0.1636603231983897,0.0002692462655058,-21.99677657318997,-50.99724383112738,-0.0170970394075565,-2.8069578846983982,-0.163232892792621,0.0004099115876670112,-21.99510737698438,-51.02971320387951,-0.006993667169808759,-2.8074872148199574,7.329794224259352e-05
-0.000248994390858,-2.6546289016501308,0.2551534174254378,4.866534779005479e-05,-21.313376697663102,-56.41437755257622,-0.00013964949903311208,-2.654629906277478,0.2551377789141043,-2.641863238750375e-05,-21.313448722856265,-56.41410481365165,7.176818903670686e-05
-41.47454149581577,5.821283840351282,-3.7638715126527424,1.4952243807647003,-0.0057739606776595,-23.87448622851633,-41.332746660584235,5.789152142803687,-3.778592758493147,1.4960148759702747,0.01587158226794827,-23.755338777481484,0.5148959148987788
-1.4612104437601254,0.5085279001675275,0.0685932319910736,-19.63316191182732,-52.20220742362898,2.283371753596713,-1.055436924031369,0.5133005152700036,0.08978237741837347,-18.824241411184346,-51.26086676741761,2.8589941405910224,4.024144735273615
-0.1117775452042281,-22.47505249363164,-47.960774470275375,3.221856857253386,-3.3282825193741084,1.2198870431921396,-0.10631314269903669,-22.508011409234314,-47.598713371975464,3.0299958024697844,-3.3123509196389023,1.2118709402893728,0.011466779456020763
0.2553156836384078,-0.0012871886595506,-21.31212971548096,-56.41307617551366,0.0018276359012158,-2.65398430831952,0.25548505992969694,0.00041289915634479257,-21.31266230266192,-56.415760352385405,-0.001222283065544616,-2.6535542459641874,7.332013041744652e-05
-0.0057739606776595,-23.87448622851633,-41.51997967058848,6.627000595239658,-4.028596561349962,1.759034032821778,0.0668662897634249,-23.558772996676453,-42.92149557038101,5.285670471021149,-4.051029857535639,1.6460595909409221,3.108920471941707
0.2462049476355523,-2.881650410617886,0.2060891466025916,-0.0029089385868534,-21.033239034948576,-55.97053598704537,0.14774046375532635,-2.825455013125975,0.15323868714585842,-0.026216412316443893,-21.005057575364845,-55.41152891915408,0.03139509079586018
5.467238859474005e-05,-21.31334948768256,-56.414358532924034,-0.0002558617059049,-2.65460118539679,0.2551498770668445,0.00035944507726526354,-21.313207874256477,-56.414573420159286,-0.0007761211454635486,-2.654577921789496,0.25511397675222725,7.177603641278914e-05
4.3068183724863016e-05,-21.31340229837345,-56.41439610689256,-0.0002425804206229,-2.6546559970644075,0.255156732553312,-0.00039582932367920876,-21.31387341915979,-56.414010333188344,0.0006584424554603174,-2.6546164824044354,0.25517829614227594,7.206971537837965e-05
-0.0134451454206139,-21.3238906226049,-56.41387774626109,0.0953699383087678,-2.663382923182394,0.2882735752010191,-0.009469818101933924,-21.323213391937315,-56.41424793409533,0.09127021876338404,-2.6625067301933996,0.28814689667069615,0.00010404096972277806
2.0357157213749546,0.1112219722501581,-14.177336637763911,-38.89712782512896,8.388316522861121,0.0378826349674094,2.0406651791604418,0.1111679208206624,-14.178391097606891,-38.898029217587464,8.37767939618061,0.03860776852638992,0.000638078708425642
0.004568428805178,-21.31639650169853,-56.41671468968615,0.0168842316035784,-2.65589400019152,0.2636264754484025,-0.0004923597898596199,-21.311639639479836,-56.408286727644736,0.02310928000952117,-2.6571036119789824,0.2635025316271822,8.650386360526248e-05
-0.1583379194774211,-0.0002938031759516,-21.988711535375145,-51.11608541391245,0.0191259261183295,-2.8076447106217826,-0.15836705562037423,-0.00030210094223548367,-21.991004601854,-51.08533390941375,0.00928528616350377,-2.807313867636367,7.307474721213587e-05
-56.414358899251575,-0.0002556142025833,-2.6546018976963093,0.2551499921150201,5.429599277281493e-05,-21.313350893926387,-56.41443515094579,-0.0007454091028193943,-2.6546606269926087,0.25520366328601085,0.00041650317507446744,-21.314063208101288,7.179823578579565e-05
3.71605683265512,-1.966703784652104,1.0235226043850978,0.1308900981967172,-18.611735116656018,-50.33668246747956,3.7170089977420844,-1.9472318401889908,1.0166050023220343,0.1306340126387191,-18.507696940849677,-50.0968923266538,0.06279741317437154
-2.8549174396660706,0.006131307786958,0.0104176191695356,-20.999200665851816,-53.859156765428416,-0.027049946230453,-2.838677704681686,0.013939540909177595,0.005413677591604937,-20.931941876231463,-53.80131427224296,-0.007981012749951333,0.0014203676958063946
-0.0002434688402658,-2.654652064720677,0.2551562544819493,4.376744920023302e-05,-21.31339892843662,-56.4143936210174,0.00031687994487583637,-2.654637151843417,0.2551014286400459,-0.00022486506941277185,-21.3135927030944,-56.41344203436165,7.203963497798689e-05
-41.45980415052813,3.8088129001085695,-0.9851296727598567,1.1324194883890517,0.1162881171345647,-18.16101505606113,-40.95314379296542,3.7109070359401812,-0.9864256791051957,1.1003710791924277,0.10330162494943806,-18.25997635254862,0.04867975458370805
-42.46703081508701,-2.6513046066965984,-4.505987034365035,-0.5311272601598124,-0.1614360319985601,-24.053435359217705,-41.90827745756724,-2.180352875272092,-4.504546741929289,-0.5463065538214096,-0.15749397052476866,-23.97614550388994,0.02207117985967128
-25.0413666974117,-43.34563163677059,10.905586294385548,-4.951537911732146,3.0955786972167627,-0.2473475947729811,-25.057801350127136,-43.2766589722695,10.962545449584695,-4.954242665098175,3.095705404854847,-0.24752942986971327,0.002777848322728264
-0.2045271776188512,-24.32275126577885,-44.73878258455296,9.051672170834475,-4.491027274713307,2.663119449497844,-0.20326989288332697,-24.319750774772046,-44.88432185234706,8.976677643875519,-4.493208528774744,2.667571316454655,0.0005690907416979237
-51.11610653049328,0.019134729675777,-2.80767817809904,-0.1583389762455712,-0.0003006909017352,-21.996828720744613,-51.10701482850709,0.01635537829133682,-2.8074396107390385,-0.15863654685836082,-0.00045126150507712737,-22.00295524460671,7.373730352950154e-05
-21.99296998148904,-51.04099073159909,-0.0026806819828765,-2.8071906415395165,-0.1624494338037383,7.741781772200017e-05,-21.993541457475658,-51.0370050030906,-0.004121925609069876,-2.80712941319689,-0.16264876154400554,8.837513450998813e-05,7.298229022606868e-05
-35.72168952208866,-3.2938988657885866,-0.8850035699438896,-1.1134880735403028,0.1954338779013002,-18.026802906999468,-35.11844779235253,-2.9417443801357877,-0.8797592818097542,-1.1267113820838404,0.1978908137251949,-17.91707052268248,0.031970747115429084
-0.0002816667933528,-2.654583549481485,0.2551495877722485,8.235311655532754e-05,-21.31333383530295,-56.41436131469847,-0.0009737157888594083,-2.6546027433523705,0.2552059895479033,0.0003418372298256145,-21.31321106827272,-56.41534828467411,7.197656757424305e-05
-21.313383193494847,-56.41438218795225,-0.0002472185535129,-2.654636119617958,0.2551543053872419,4.709181083939072e-05,-21.313900863224262,-56.41380876277981,2.1672538423445076e-05,-2.654570982211226,0.2551391626448094,-0.00028508013838290935,7.180204622753557e-05
-4.19352141141729,-5.697915865877347,-0.7790681941978399,-0.2359256628218278,-26.58219575665513,-37.83981633978415,-3.9305552894797984,-5.6970692123503,-0.7839609001917864,-0.23567321269343466,-26.571362975545526,-38.00382268702151,0.0005669633051243502
-2.8071624288636463,-0.1624482512483502,8.342166791658504e-05,-21.99293794969997,-51.04096810216195,-0.0026813936880103,-2.8066640901743085,-0.16275733548900462,0.00019097926906397333,-21.992474072161713,-51.040870436423575,-0.0026022453530458733,7.378637074024048e-05
-35.29763097937699,-4.553461178187008,-5.727457865800033,-0.7363440297149518,-0.2513083427312422,-27.23207042620295,-34.8756096646448,-4.047867719711576,-5.7241648729244226,-0.7462823849649851,-0.24989798165871946,-27.21122795086967,0.0017609656679613047
-2.806968247117548,-0.1636607959727124,0.0002667814903475,-21.996788837489028,-50.997254590691455,-0.0170989168442815,-2.8078165427468775,-0.16324285317591603,0.00037479478032764746,-21.9952280846137,-51.032177788816625,-0.006468625681009144,7.304267845737307e-05
-0.0029089385868534,-21.033239034948576,-55.97053598704537,0.1379360645206455,-2.854118347891279,0.1746958330445158,-0.007950096885906532,-21.057252288839663,-55.95391596633999,0.22896876202867134,-2.8621554693154394,0.1803405367522828,0.0016965170000903848
-0.000249226124154,-2.6546279885786346,0.2551533047060822,4.886751937363568e-05,-21.313375823918985,-56.41437692513556,-0.00015848744078539312,-2.6546295983534947,0.2551392977411524,-1.826223933676374e-05,-21.31344302099933,-56.414132426143624,7.176298084371886e-05
-2.6545990462652664,0.2551496297621629,5.566879852457168e-05,-21.31334817177802,-56.41435809409016,-0.0002567302123242,-2.6546853021391144,0.25521528157787543,0.0004282941818019026,-21.313300900521426,-56.41496949506109,-0.000670716239255853,7.180547351621065e-05
-5.951750603699195,-0.8299918790597034,-0.2552884981984527,-27.195897433087268,-37.11505328148461,-4.097467633513185,-5.947231458470014,-0.8300248568792199,-0.26436757041420833,-27.186748534939397,-37.79238954442553,-4.835314078081865,0.04140850084193088
-1.9847576335624304,-0.8505803121882148,0.0854099795581136,-21.263195642679204,-48.24466213837746,-3.254866002347625,-1.9789386383673673,-0.8738942791386748,0.0864526558785883,-21.327333334015577,-46.87398460100985,-2.849509481970017,0.15876374500223872
-2.8069913492481025,-0.1636618087933624,0.0002619242178849,-21.99681495475519,-50.9972781248313,-0.0171027645617486,-2.8079633229026513,-0.1632136242578781,0.00016016099925764138,-21.99486397342298,-51.03261200340057,-0.006152355366793927,7.305420957121463e-05
-2.8076336746864747,-0.1583375968935257,-0.0002913442618548,-21.98869905443779,-51.116078917407705,0.0191228374278419,-2.8068557931183022,-0.15847476091812496,-0.00015374802478618221,-21.990787751365133,-51.07618871355953,0.007449089622241445,7.34979443907698e-05
-21.31336528491164,-56.41436952806638,-0.0002519148197628,-2.654617436323147,0.2551519995684652,5.125186525625215e-05,-21.31336954737344,-56.41405207126081,-0.00034218798464280553,-2.654603293280161,0.2551594698406916,0.00012505333688750397,7.17166272241095e-05
