Roblyat/algorithmic_payload_estimation/payload_estimation/data/result/effort/pipe_test_10_v0_effort_results.csv
Actual Effort Joint 1,Actual Effort Joint 2,Actual Effort Joint 3,Actual Effort Joint 4,Actual Effort Joint 5,Actual Effort Joint 6,Predicted Effort Joint 1,Predicted Effort Joint 2,Predicted Effort Joint 3,Predicted Effort Joint 4,Predicted Effort Joint 5,Predicted Effort Joint 6,Variance
-11.25490885564589,-11.303584338182043,-11.362006445846054,-11.410981808486325,-11.460080695162793,-11.509265396671724,-11.056761777635984,-11.105897204514804,-11.158727869972608,-11.218609374715015,-11.279536370913775,-11.320981780410875,8.615788106557469
0.1569453743918746,0.1357509549452398,0.1410322119346229,0.1358163051594629,0.1407739485238384,0.1568366614776755,0.14106500698799818,0.12190040130966295,0.12603302179259046,0.11918897328740474,0.12237903733326005,0.12352074687228365,125.23466680268923
-72.22141625345371,-72.14030129147875,-71.58573680246909,-71.2417603292508,-71.16318870527058,-70.32484823110501,-67.2833943059795,-67.52939661512777,-67.12825058317505,-66.49160972773882,-66.28098360820675,-66.03898877483171,65.84436970298292
-9.833008462114584,-10.025922194306712,-9.865614853549788,-10.048596221839857,-10.227627180119065,-10.632803128063262,-9.733446307540312,-9.905461966315329,-9.887514611309264,-10.081722455048194,-10.397100990580562,-10.78147846381604,0.30133630308521586
-0.074761894878903,-0.0682930628086985,-0.0602603123408162,-0.052016423292579,-0.0415084902467951,-0.0330384861695431,-9.91792416318965e-44,-1.1049690255008576e-43,-1.1629459415528433e-43,-1.1588434376572421e-43,-1.1128801539605789e-43,-1.029073679617935e-43,360.063545926531
-27.65222089247948,-27.54470497996613,-27.431325464592657,-27.331011041909832,-26.94303104741465,-27.132544833965685,-24.883036628118518,-25.02323240987504,-24.819966120903473,-24.811941593275638,-24.712714913815873,-24.45221044246275,98.73540536039313
-3.800118572135105,-3.774116887458959,-3.728820391608744,-3.701854498874882,-3.666174790915832,-3.618612238031881,-1.5679760129929006,-1.5492675266452451,-1.5362581091141905,-1.5209376174716789,-1.5071558370271203,-1.4905683607815108,327.1707103553827
18.642241351502943,18.642240839784705,18.568145577885105,18.56814492043383,18.56814426284042,18.64223874604473,18.642238528380403,18.64223773186677,18.568142434291076,18.568141803814797,18.56814123725053,18.64223571580078,1.8016319798619508e-09
-1.4349250274375354,-1.5058954569608574,-1.527165944885964,-1.511630966738713,-1.53443086762291,-1.5561420792154814,-0.0003064146777615971,-0.00031559895325546105,-0.0003185785692434939,-0.0003213977201582709,-0.00032147108945010497,-0.0003245302245682541,360.06353134574687
4.166667764759676,4.0974616237755335,4.013763301751274,3.911565978954211,3.795563252019954,3.659987037564561,4.0386879751578477e-16,3.955849726233196e-16,3.8693260481863494e-16,3.7745139190400153e-16,3.687643187650553e-16,3.6090593303973767e-16,360.063545926531
-57.15011369875685,-57.33647994759016,-57.544210671722446,-57.765432892714,-58.05177409705187,-58.29543262720288,-0.024483057821897025,-0.02457175515778078,-0.024666205982802617,-0.024788431035120462,-0.024892447924268767,-0.024990022737652568,360.0634803947861
9.88327972969586e-05,0.0005973308202341,0.000101373239501,-0.0008151801852085,0.0001547043678437,9.8055073850847e-05,-0.09915767297854927,-0.043369188432507144,0.006182085164709861,0.01876911720546559,0.055403244593435375,0.05938155997728245,48.13908773206058
8.02645725085519,7.987185771780476,7.955789746018722,7.925945290437826,7.892653912208615,7.861525255361285,4.066159047791035,4.052076363513918,4.037230609426318,4.023523894164399,4.000962249288519,3.988481429226718,285.9053612745556
-4.231207152399552,-4.097187819163408,-4.354994640420154,-5.020666411228016,-5.272562307013232,-5.521884000837565,-4.224241527262542,-4.08959097908215,-4.352355154037523,-5.009527525322335,-5.264145211460411,-5.510597729381928,0.005660152981400016
31.725233884765338,28.536562065025795,25.35416439507659,-12.593974326741064,-9.67681942000364,16.30211029253758,9.857918277419545e-93,1.018166778731211e-92,1.0518791484870994e-92,-6.999450840588259e-93,-7.4213906467278664e-93,1.1633028675177666e-92,360.063545926531
-30.72301324270127,-28.10141588965952,-25.226703015155746,31.725233884765338,28.536562065025795,25.35416439507659,0.0,0.0,0.0,0.0,0.0,0.0,360.063545926531
64.11710042031181,64.02977176733287,63.94083770238876,64.37033462750328,64.24929946263488,63.239393213786016,64.11358331719956,64.12887460499337,64.06221694587407,64.28425874700724,64.21090260535192,63.07389183533333,0.05115244413568945
-0.0349042325141884,-0.0310895322933231,-0.031089612903193,-0.0349045073824625,-0.0349045961388907,-0.0349046847049711,-0.03490433546539862,-0.031089746829820797,-0.031089903030078858,-0.03490483341738582,-0.034904916494269855,-0.03490496518497821,3.1127822793053485e-09
-0.6213555629085542,-0.6226932594567218,-0.621686952331418,-0.6205344769955451,-0.6194856480251408,-0.6180388388550758,-2.267785660595644e-07,-2.2651977172096415e-07,-2.270074386124357e-07,-2.2664058194391122e-07,-2.2622043891725333e-07,-2.2583808055046446e-07,360.06354592648313
2.4855499607568845,2.5551716268317746,2.6315950988333823,12.538233419581893,12.659594904806667,8.041173148631007,0.0019857776630147306,0.002060179745764109,0.008208771622478626,0.008280349793043103,0.0083513852611281,0.005791265172038403,360.06341048702296
8.431504261354638,8.40465711995483,8.377584981222542,8.349183397063657,8.312113819350861,8.282248047465417,8.530518676068677,8.50519802654645,8.476508878480903,8.440161274859674,8.410108279647282,8.381654186135561,36.771083417471665
-0.3289089153609149,-0.328909176294074,-0.3289094307799209,-0.3212358314221322,-0.3212360751405695,-0.3289101917704974,-0.32890864570345,-0.32890888258270934,-0.32890911430968117,-0.32123550206551954,-0.3212357446163878,-0.3289098690861465,7.785368153082628e-09
-9.156473503867888,-9.185411784916084,-9.217361632523,-9.247432057954349,-9.277760560775109,-9.31070577124678,-9.144067207618718,-9.17339598045146,-9.204841718541502,-9.235851474228184,-9.266939959401498,-9.29888049825604,0.0016478059455747015
1.5523288478184716,1.546617237535121,1.5347061012986196,1.4951165376000015,1.4213008910656917,1.3471953582592997,0.11649084018719726,0.11563274371543965,0.11323059334465709,0.10841136517079995,0.10360333614336911,0.0975972614053375,358.6662926143378
-6.221563526580889,-6.232610274269775,-6.226145610759798,-6.236591658846174,-6.246607425366333,-6.259835901195848,-4.359127948359864,-4.3534114850178405,-4.360829974082512,-4.3671129711308785,-4.37755508779039,-4.383958161187724,155.45805398030262
0.2299044591618796,0.2307498397418511,0.233577337716732,0.2370393665053817,0.2399946356316197,0.241565255412173,1.2537484397495253e-05,1.2702335198379795e-05,1.2769229358786213e-05,1.2942352669955338e-05,1.3130435788697708e-05,1.326923086018825e-05,360.0635450984319
2.882476387215273,2.8754783195441616,2.860112952385283,2.8446966518747656,2.816882639224457,2.80138697043355,0.8183434800900111,0.8140038589778341,0.8115870280800115,0.8070568480075964,0.8026945280768297,0.7951653494312683,336.2494627192289
-0.0442250677878112,-0.0442257223353647,0.0437355273747835,0.0437354251002531,-0.0442277305750072,-0.0442283786995853,-0.044276823406107724,-0.044225563295185566,0.04377426882274449,0.04379109828732908,-0.04416710324585438,-0.04417480528354645,2.666447754410284e-09
28.4208669164498,28.253524855096764,27.9809820524756,27.707648133068936,27.36901114792822,27.09200967106963,27.377175311696867,27.155940510095782,26.848629531942187,26.596943080789448,26.267799970399896,26.02861052478254,17.847635534074733
4.727203135298232,4.725359101809614,4.721724130076363,4.705895848413787,4.672909640711296,4.626740963633044,0.00027542544653545926,0.0002738849375424852,0.0002721088415570469,0.00027034425896877947,0.0002679061471851435,0.00026452829028113435,360.0635452699765
-21.425874020766823,-21.41042971117948,-21.407615234340096,-21.410526341624426,-21.408181267842945,-21.4001822081226,-21.400908296340546,-21.39740061572617,-21.460113940018587,-21.354734497923598,-21.407611340417404,-21.39018282093486,0.0032746129326508807
7.272213777583434,7.323319945216141,7.373933999076828,7.432173572331101,7.481735183628082,7.530800771508159,4.658721622674735,4.692436166151933,4.724152804558583,4.755641926647758,4.7871461857599105,4.823587818110963,254.74763318101262
-0.3611726410825038,-0.3611728480158655,-0.3767834633921839,-0.376783691498198,-0.3767839197289432,-0.3611736946627036,-0.3611731244313887,-0.3611733586453738,-0.3767839927040768,-0.3767842331981228,-0.37678447449707164,-0.3611742592461269,9.621694799381031e-09
-2.658430693150976,-2.438736711083464,-2.528822194736518,-2.465196336087591,-2.22589270348096,-2.157788427534788,-4.125313903380589e-65,-4.0776441539124565e-65,-3.9561713925532445e-65,-3.880716613798082e-65,-3.757723350990393e-65,-3.6798478180677912e-65,360.063545926531
-0.3289184426465118,-0.3289186985797864,-0.3212450161239235,-0.3212452698016654,-0.3289194884350677,-0.3289197448325085,-0.3289182485141282,-0.3289185047351566,-0.32124481663231563,-0.32124506137915887,-0.32891926930278714,-0.3289195174456836,7.218184519689486e-09
-9.86617518154932,-9.82811627005314,-9.790487395312852,-9.7515484801231,-9.689829140619633,-9.676652981535357,-2.386919550394599,-2.378333281100627,-2.373505431999173,-2.3599427899879037,-2.3503734362926894,-2.3528472095821895,339.97128591510443
-21.220731894253465,-21.32517871074106,-21.43665514671581,-21.546330899609217,-21.67647143925372,-21.80446936922193,-20.69420324588764,-20.780937464137576,-20.878968049430952,-20.995886061900816,-21.109129226330307,-21.26494523831323,9.55857388023052
19.818583884759253,19.71356961585242,19.73126526078988,19.74806506516755,19.76137902108415,19.77610683456873,16.16941949391026,16.380415473439783,16.239125014816437,16.575721852221708,16.39289943408172,16.385679538884276,193.56855213314137
21.12635575540453,21.242994753481128,21.48630733518063,21.611685015421823,21.714617205727155,21.68713168607272,0.1106418119859035,0.11105591940457238,0.11166906117497397,0.1129480939990134,0.1136071728156957,0.11414826135756238,360.05359614831355
65.6494997094296,65.59808362697655,66.59012047553601,66.52146887780852,64.58500656269463,64.53910554853954,62.689519154360234,61.98199058703584,64.61066696272654,65.8166645272663,62.98846402761096,63.351325730430645,14.698189798910201
23.36272238826321,23.57601720827429,23.788992156422506,24.77068627158911,24.979074424800416,24.89164345753024,23.80843275461609,23.359740156270757,23.907169060898447,24.353959529138756,24.255725549916402,25.155456407546563,22.226328866295752
2.7679399685722474,2.8816651249746643,3.0418478771239084,3.1418391394861165,3.228500720103288,3.2442071796572804,2.7601110751881532,2.906214999816328,3.0454945855150535,3.148908488542507,3.1623308354924546,3.191928790625576,1.2583786512727582
18.299943165843302,18.24946468235591,18.16977983114061,18.120314566244527,18.070183453640222,18.036252071497245,18.346804062015693,18.29138762566876,18.220393042502735,18.170083498570534,18.1194188304041,18.077672217616694,0.10968403600649282
15.75485291276408,15.684576462903722,15.578214611586937,15.50699454278819,15.435507622752937,15.381386455939236,15.685266520107604,15.597181286411999,15.523245592935346,15.486746425988303,15.36341337279522,15.317020074631916,1.513860891186064
-0.0704836017518526,-0.0704777251091601,-0.0744018197028763,-0.0743970774811536,-0.0704633763887764,-0.0704619004358784,-0.07047035588766448,-0.0704688281257404,-0.07439446105854586,-0.07439054881979246,-0.070457504800288,-0.07045693973486777,2.0546750903197908e-07
18.120314566244527,18.070183453640222,18.036252071497245,17.98234397595497,17.92778461520515,17.85869753492143,18.109612673964534,18.059745321899257,18.00313712418918,17.998122183638216,17.916995782740244,17.844106668939133,0.11425953720400031
51.21030480909254,51.21026605475448,51.2102937502626,51.52705823073846,51.52715205695174,51.21055609540772,51.21058566775173,51.210765001829714,51.210890574380755,51.52762966044247,51.5276252347976,51.21089364588261,4.0411785276620604e-08
0.0661472238370215,0.0841198290366984,0.0846705727793809,0.0669870909286357,0.0381209291977659,0.0040605560535988,-9.572925297503706e-42,-8.428696836538318e-42,-8.504338297236583e-42,-9.962633126490222e-42,-1.2223249789497502e-41,-1.4439915436251807e-41,360.063545926531
18.642228220726896,18.64222769890903,18.642227176709483,18.568128160902965,18.568127499611983,18.64222556416404,18.642207084951224,18.642206978751346,18.642206459029694,18.568107972605503,18.568108068342553,18.642207350523677,2.7968465572769776e-09
-0.0348866575828876,-0.0348867853597852,-0.0348869128575119,-0.0310739868908724,-0.0310741006190931,-0.0348873042523206,-0.034886798457591794,-0.03488691143866163,-0.034886999885202385,-0.031074064201675355,-0.031074215745320544,-0.03488752190605737,1.7142068016540281e-09
0.1504918360050083,0.1799247588770472,0.1807564475692017,0.1816275863091259,0.1662577540957289,0.1701011663232092,1.1972639677887424e-91,1.301320603926914e-91,1.3105390934501251e-91,1.320735602412665e-91,1.3024448303768325e-91,1.32672530849975e-91,360.063545926531
-10.130516192475412,-8.457734450244027,-12.144457802528445,-7.854090364586823,-7.602820368281399,-11.922021273615488,-1.1063863768280385e-137,-1.0921976157024826e-137,-1.1434531081372407e-137,-1.1309187371639139e-137,-1.1183479701108107e-137,-1.110970522959952e-137,360.063545926531
55.00630894051958,55.00631223887604,55.00631552674697,54.140862430610674,54.14085783887917,55.00632559849585,55.00630154153623,55.00630476271908,55.0063084854919,54.14085607114248,54.140852213604376,55.006320539076114,6.009920808384151e-09
-21.890108662729368,-21.470529489902468,-21.23965641829464,-21.338416751537903,-21.45016940389993,-21.01980845902497,-3.273295535821674e-05,-0.0001885057944118751,-0.00023463623939012912,-0.0002164035165583833,-0.0002170028612757946,-0.0002234252875238374,360.0630359348869
-0.0310919172126101,-0.0310919928898233,-0.0310920684118516,-0.0349072139695784,-0.0349072969497883,-0.0349073797529935,-0.03108777197485324,-0.031087638955796137,-0.03108757219160907,-0.03490264213178307,-0.034902774437796324,-0.034902949089882895,8.937470566553485e-09
7.655664750830091e-05,0.0001744536790873,0.0002363121334057,-0.0001988628476199,-0.0002043447875959,0.0002292943461783,6.37353997312573e-05,0.00015743380015820208,0.00021752327399138238,-0.00021461500510167042,-0.0002157905438735508,0.00022112107157146177,0.010767289558239381
18.568099824870803,18.642203428535502,18.64220288968244,18.64220235048473,18.56809710051243,18.56809643300704,18.568097997325822,18.64220161367848,18.642201126051077,18.642200682821567,18.56809556816006,18.568095047885436,1.9989354867278155e-09
20.519836295584195,20.43387959768044,20.1603361759485,21.225287903948743,21.45202093149793,21.67749674414751,18.737512170447083,20.492112009856896,21.48886340983196,19.806648414401657,21.064893310645413,21.077157827594558,15.891036939110544
0.0383427451708797,0.0335899840118439,0.0281587856445583,0.0235031656132747,0.017289565047184,0.0103018078790791,3.0194431320291344e-21,2.389353484622857e-21,1.5468343608536556e-21,7.361052539832922e-22,1.0745828617252942e-22,-1.2484492280476227e-22,360.063545926531
9.703951491996843,9.700109935296318,9.68434075860133,9.680781525263642,9.672234517817165,9.670040356142234,2.9180064387840927,2.9148409302895035,2.913977781708174,2.9115341818240927,2.9068232287432627,2.906675236013413,342.07624652630676
-0.0704742834217671,-0.0704746168425443,-0.0744074124300375,-0.0744080337267706,-0.0744086886149061,-0.0704767357473696,-0.07047412979591172,-0.07047446387878153,-0.07440725788183045,-0.07440786914958153,-0.07440850262355525,-0.0704765243572183,3.819289132326331e-09
2.5551716268317746,2.6315950988333823,12.538233419581893,12.659594904806667,8.041173148631007,8.20978170889899,0.002847129261881621,0.00899382621680632,0.011534664830899474,0.01163408428724088,0.009115761256603868,0.008195060532466499,360.0633900287587
6.382828788419744,6.439012000277779,6.496816711173283,6.553960117106357,6.619045230210945,6.675192433306743,5.501744425081473,5.552631194171745,5.601724388807112,5.656297270418441,5.704986824101386,5.754611521237252,162.55379283795685
18.56817218258045,18.56817153155241,18.642259781473623,18.642259285432853,18.568169523162226,18.5681688714628,18.568156370472934,18.56815593393094,18.642242787409486,18.642241380133783,18.568151742074406,18.568152157153236,2.394395151742457e-09
52.71825844120946,52.73730857187642,52.19366327292559,52.42731020111381,51.83942887168924,51.6635735119597,51.057122661253516,50.542272071663774,50.84125373826555,51.269928636437726,50.83632541333645,50.419782173736394,2.9356853051693093
0.0001330436722471,0.0001331249177061,0.0001332059674652,-0.0003287073662598,-0.0003286294561301,-0.0003285517335165,0.00013302020408634263,0.00013310057459925417,0.00013318095335890234,-0.00032872877779066556,-0.00032864415115074763,-0.0003285545179579352,1.2153706421561883e-07
29.604658849910283,28.667929906698724,28.24846219167617,27.994539335324056,27.889174072831374,27.943838718825624,0.4069829934741248,0.4007215275945511,0.3971056385938214,0.3952696360598085,0.3960416600173297,0.39730444711343044,359.9712101410456
4.7779496397655095,3.7047144743514657,2.626009224865277,1.51879819335372,0.6062471474358406,-0.1346891557287743,0.006334029285066123,0.00434208250159978,0.0023435005319346154,0.000721327600035836,-0.0005573537181367676,-0.0002935530327324554,359.9888042377226
-0.3289291915097656,-0.3289294515139438,-0.3212556681059954,-0.3212559257410172,-0.3289302537694852,-0.3289305141494041,-0.32892930131311005,-0.32892955336046725,-0.32125575641657633,-0.32125600164636126,-0.32893032136962574,-0.32893057734509057,4.3862453920440305e-09
-59.43458823857861,-59.69200128739757,-59.8459139778464,-59.95858678597098,-59.98404791486576,-59.745895754118905,-0.06979793350536863,-0.06900659099879083,-0.06826200861203732,-0.06750052504692407,-0.0667799145265133,-0.0661029767592746,360.0631053156723
-0.0003197084742337,-0.0003196522185241,-0.0003195960981653,0.0001427810872471,0.0001428388788253,-0.0003194239089486,-0.00031970515924450993,-0.0003196505679357031,-0.0003195958895465534,0.0001427801295417197,0.00014283734939546378,-0.0003194261010079913,1.6171648267874217e-08
-0.0047014144927046,-0.0054674853553664,-0.00628576656829,-0.0070611997013026,-0.0076492585657914,-0.007378893860798,-0.03520890252276703,-0.07138199744253702,0.0798214528253104,0.03682181970447308,-0.01920721241143883,0.011385379100977207,352.9118698000936
0.717541834714071,0.7158922451529706,0.7375436289944026,0.7828838707270493,0.8337070681409816,0.8966576315361908,0.17215930746850414,0.17468365826831517,0.1762037880821139,0.17805403489920577,0.17814305854957704,0.17741272114910658,358.2340586142335
-0.033222266579999,-0.0298802555849881,-0.0303515942982067,-0.0307756061124893,-0.0349311475656253,-0.0351450628564436,-0.03293688560370356,-0.02964851155411452,-0.030139040783979,-0.030559074482880533,-0.034701986325671896,-0.03490140508802142,1.593555416803686e-05
-13.614141771903244,-12.97135189537192,-7.720788722210737,0.2248686854920922,6.092535348837239,6.61082639658212,0.0,0.0,0.0,0.0,0.0,0.0,360.063545926531
0.0022702047547811,-0.0080220950965865,-0.0139068096617173,-0.017790170253957,-0.0177211408551766,-0.0120197815835429,1.575134317087396e-10,1.3326613020502888e-11,-9.228468836605713e-11,-1.5151435116338602e-10,-1.8828478659332053e-10,-1.8290475025456147e-10,360.06354592653094
10.510226785177908,10.787514526842225,11.075739160253129,11.351365821830292,11.637098508293407,11.91005598524258,10.545551097691636,10.979606577045002,11.219498227955016,11.383882396696475,11.774893905648684,11.893998871354256,0.4947817766813867
-27.48253824010369,-27.594580301570968,-27.730168731401093,-27.847836613354083,-27.96393861556632,-28.09385140399664,-24.164514963847914,-24.289515542037247,-24.39415136098265,-24.489207861277784,-24.57679353197812,-24.749835883827615,22.870430083961686
4.563558402736573,4.481968198954599,4.384338928544946,4.267056919326691,4.146444587107702,4.022743381298065,2.447124772246514e-12,2.422946102012608e-12,2.3898575438109368e-12,2.3471290513502235e-12,2.296001191190471e-12,2.2345814770489853e-12,360.063545926531
6.385583862570774,6.34457958492851,6.305543318635745,6.259676793957137,6.214034370953014,6.176206391472687,5.964715745904329,5.895980608939226,5.863864073281556,5.831659397112231,5.796142951624658,5.739115872234622,39.01158519331617
-1.100448011184059,-0.8589673262583486,-0.8033130004904779,-0.8888896421356347,-0.8196855586470346,-0.7504969775286471,-2.3407367996429926e-58,-3.0625681273830122e-58,-2.3824205178801556e-58,-8.348510321380755e-60,3.125350430130621e-58,6.787352381295982e-58,360.063545926531
0.1050783162880816,0.1034529223911633,0.1133990610795876,0.1053981643471975,0.1183412607429306,0.1116804365806494,9.044152464093693e-39,9.43024542836696e-39,9.48159639765309e-39,9.535270266244985e-39,9.760380024939991e-39,9.816014782595863e-39,360.063545926531
-14.600719758436872,-14.620785716408609,-14.583225264402,-14.40550910478744,-14.394415120290684,-14.392467842090824,-14.639834454761374,-14.614880953475557,-14.54552418017144,-14.497394018809235,-14.31176079612123,-14.329542386583302,123.24836472462958
-2.3532610532382656,-2.4358651139522087,-2.528286323024647,-2.6164223663239468,-2.709106600605649,-2.8181312722055685,-1.0799145875587514e-10,-1.1287357566124063e-10,-1.1778158814710445e-10,-1.221173601143814e-10,-1.2638861328377867e-10,-1.3120558857825386e-10,360.063545926531
-0.2588108618493345,-0.3046182165224002,-0.354594674583693,-0.3975810587887521,-0.4331233635773848,-0.4562136551191288,-1.7001668101011603e-31,-2.0448603508096e-31,-2.4067835045640745e-31,-2.801646675426389e-31,-3.1412813880404388e-31,-3.4221005519632226e-31,360.063545926531
0.0005976381861831,0.0001016801910157,0.0006014470594286,0.0001550100205845,9.835979004057792e-05,0.0001581165592986,-0.13439585001776777,-0.0917727058199489,-0.08524217491049058,-0.0456505024640137,0.007757449773635017,0.007961894170875894,44.616372144734875
64.24929946263488,63.239393213786016,63.16776171450094,63.09475209845923,63.361689748397815,63.26147567490487,63.870148831242574,63.105021226442545,62.94509833879363,63.13777699459297,62.918401291088685,62.79889623690423,0.15120386608246264
0.0001367849545206,-0.0003252585542949,-0.0003251889434586,-0.0003251195001121,0.0001370788188641,0.0001371503456335,0.00013678549506845883,-0.0003252582202915022,-0.00032518877864617934,-0.0003251195257034656,0.00013707867287660047,0.0001371501625864191,3.963614572813923e-09
-0.0003255445456123,-0.0003254742465589,0.0001367125455582,0.0001367849545206,-0.0003252585542949,-0.0003251889434586,-0.0003255435055358191,-0.00032547377028180335,0.00013671258909431216,0.00013678473755240894,-0.0003252589660001082,-0.000325189352327504,2.312370098326311e-09
51.52727316030181,51.210381307469,51.21037994057597,51.2103785741302,51.52727181283906,51.527271479196735,51.527116257697344,51.21036251168698,51.21046173013747,51.210528802126646,51.5274657830596,51.52748611010611,-2.9488862211734966e-09
18.263860009923537,18.263859838081604,18.101231086131936,18.10122995473224,18.26385929754456,18.263859118778832,18.26386906096741,18.263874172120268,18.101243688674003,18.101238910444863,18.263864620199456,18.263859124808732,6.503192054045149e-08
4.746264163325369,4.793532720144048,4.855561945034603,4.905857813737144,4.950128310647511,5.001085828836414,0.28804576610811805,0.27914030608220736,0.30062245132377025,0.2849177471099784,0.3011130769973124,0.3010190553177269,358.8020066105783
-0.3212527973535587,-0.3212530539687893,-0.321253310676263,-0.3289276118118249,-0.3289278712529297,-0.3289281307851934,-0.3212520564738952,-0.32125220095622353,-0.3212523884139955,-0.32892666910811386,-0.3289269796823646,-0.3289273270056583,2.455027836829971e-07
0.0091464452344294,0.0132774016503366,0.0134543643915489,0.0118893744324081,0.0087945720296902,0.0056957395251849,-1.2273524579450932e-06,4.8202678838742065e-06,7.657711090037003e-06,8.177509631441919e-06,7.64130284922667e-06,6.471139133104858e-06,360.06328214743087
0.029268478918072,0.0400862853805167,0.0509615035845959,0.0619039648435262,0.073711030784821,0.0847586340172013,0.003955106550933459,0.008320099222973465,0.012682422795894661,0.017117301255708924,0.021575371630226464,0.026059891337333115,293.1742494037113
-15.738328959100444,-15.736456550499014,-15.590700145182597,-15.444180127435033,-14.581259777090498,-14.412561654262522,-3.7285282260737516,-3.722005843377862,-3.6828269713035686,-3.6434654840444995,-3.3829955696918184,-3.3395981901488714,336.4394128904964
-3.1213812093944053,-3.072972867099757,-3.028427336879658,-2.986618821701525,-2.9539163035720524,-2.929463203863015,-8.224693736974693e-05,-8.093164809626146e-05,-7.957463789589154e-05,-7.834397670890972e-05,-7.721108254704578e-05,-7.614701754727654e-05,360.0635456761333
-19.73284434455289,-19.7674638360354,-19.80679731830272,-19.85909784853317,-19.91819494057656,-19.98643131259853,-19.472361656744962,-19.51090632275977,-19.547165510738118,-19.59393571221234,-19.664452344852805,-19.72491413222948,0.891382628011834
64.07323808045861,64.69216832242122,64.61633996647548,65.28198820304372,65.17766095307701,65.07121197539617,66.62779207119877,67.12556653470693,67.79053634622136,66.88745517492484,67.47013781931568,66.45341912009302,28.75152724151193
8.472094165147901,8.840126076914666,9.13540001743094,9.461785048959122,9.629940874928236,9.867495570450416,4.856060226640256,5.011367543415043,5.18567370316478,5.27685465790479,5.409705258957572,5.4866340123875625,250.1976967793613
48.22004669610793,48.05711458434588,48.94512755462272,48.813994457144126,47.29465418303022,43.64339889641823,28.98816756338249,26.919177318708876,24.476551547075815,25.058510313205602,26.197351622169435,24.9886608231007,189.623533692336
9.03397672629598,9.119575889012117,9.123178094737716,9.296511398915165,9.383125448882469,9.468127588616875,8.73606871822034,8.758975628414493,8.865862768611095,8.923110162967845,9.020487838116338,9.124799507551336,13.158154904169274
-0.361163105965208,-0.3767652687484766,-0.376760149298411,-0.3767558600976943,-0.3611452435979237,-0.3611437673660886,-0.3611540896954466,-0.3767599652719582,-0.3767572420772467,-0.37675451152381356,-0.3611444392993235,-0.3611424527937288,2.3325464806574303e-06
0.1617410427515549,0.3033053156835418,0.4064436760125712,0.4670841964156283,0.4954688081798825,0.5017392015791853,0.0,0.0,0.0,0.0,0.0,0.0,360.063545926531
18.642210535483965,18.56810726429441,18.568106598728768,18.64220888716824,18.642208351858887,18.642207816194585,18.642191308768815,18.568088631436694,18.56808803705644,18.642190163198393,18.642189640086144,18.64218945367611,3.4964753566158026e-09
0.0437330035078511,0.0437329073489638,0.0437328114394044,-0.0442443393725205,-0.04424494760893,0.043732517220681,0.04376480617793277,0.04374669538810849,0.04373411741107702,-0.044250472681596875,-0.044253721833229065,0.043724637012928724,1.9758570586703274e-09
0.6401862672946189,0.710829785163205,0.7931844706116811,0.8600895266315777,0.9252873921079812,0.990243675263154,0.3262885384350691,0.3641361652499892,0.39726731398315585,0.43152750491181113,0.46344903170832014,0.49463553663520027,310.07881069619714
18.642277133487788,18.56819324891112,18.56819260291153,18.56819195691216,18.6422751709506,18.64227468952346,18.642289816692937,18.56820610795694,18.568206380456104,18.568206706971978,18.64229070872534,18.642290419258643,3.253014993634962e-09
18.10126116140024,18.1012600161738,18.101258871477484,18.26386326364992,18.263863129029403,18.101255345429657,18.101262398806284,18.10126120809582,18.101260050163546,18.263864423065115,18.26386427196303,18.101256450854635,5.0483006915158614e-09
-48.05627588763655,-52.701460346163806,-58.24311776043768,-61.37623402818312,-61.40878539257138,-60.818417914392114,-3.2690834269612154e-05,-3.232616396252018e-05,-3.198105987034822e-05,-3.165687023752327e-05,-3.1353433009918574e-05,-3.109401613338112e-05,360.06354592643
27.102494545204923,26.346942078713763,25.40126461072376,24.155527716651537,22.808179124505905,21.22553586897628,0.15606707383760537,0.1525516825862172,0.14791444361563133,0.14226181782530262,0.13495308176956916,0.12705188041372045,360.05450889492784
-0.3278674174503175,-0.3280866904275617,-0.32080198197503,-0.3212002374823737,-0.3215370839327717,-0.3294440541435385,-0.32793512371335964,-0.3281317574164859,-0.32082153372175526,-0.32119941657583695,-0.32152146306407303,-0.329433773429173,0.0003549408071219758
-20.92512377295219,-21.033972296788303,-21.12283619287777,-21.220731894253465,-21.32517871074106,-21.43665514671581,-20.788648870404558,-20.88004950361976,-20.973211092172498,-21.074533254898768,-21.16795985780019,-21.294707908052338,7.649110293651497
8.97683754283722,8.719025680956241,8.495586923266506,8.08866569763376,7.882145932937139,7.878074695796725,9.142276918790358,8.965411446943904,8.75325277279741,8.32241020586483,8.069893145533793,8.095813853624506,1.0185013975083532
-50.88571939039056,-47.03471009982749,-46.64816997989251,-45.09529238418234,-44.7301308395479,-44.3670831990598,-18.712340716790706,-17.66270480386629,-17.566896135764473,-16.981917200180504,-16.859330761837555,-16.75772798972869,311.24538716602854
-26.5389849448696,-26.64960619680188,-26.73755610112349,-26.7946997857436,-26.82549331071802,-26.801674863791035,-0.045641258651188406,-0.045854933638872164,-0.04604510250884993,-0.04619612605366527,-0.046294087795071485,-0.04634658710207627,360.06247855456786
-0.0228971688874577,0.1377819056113131,-0.0989862801312803,-0.0118345441921326,-0.1000681136250808,-0.0220325234907549,-0.022900326119270176,0.13776690501254052,-0.09895981941372156,-0.011813530931249261,-0.10007004586077528,-0.02203264155832585,1.1933061897099207e-08
2.2346683960490954,2.4266779102522857,2.5239885114228047,2.603360512629892,2.674688606886612,2.717854865431302,2.2235812290256103,2.3480950475894407,2.5809249262755674,2.633808936155324,2.679560984650241,2.751390161744493,1.6719225623725518
2.2106649545782115,2.1289217460491545,2.030418534828712,1.923763222696224,1.820076032136548,1.7451252583821135,0.08370236498312666,0.08242711339901052,0.08016322429799504,0.0771195768365234,0.0733088044834393,0.06904422250237019,359.735902786142
-21.431943216089,-21.37861159931763,-21.32243218426691,-21.26919515316091,-21.212638056560795,-21.14642075635933,-0.14743434840493916,-0.14705604727134258,-0.1466901250282875,-0.14630462193211774,-0.14593935853178353,-0.14555125984437098,360.0465508079526
-0.0442418405473189,0.0437330035078511,0.0437329073489638,0.0437328114394044,-0.0442443393725205,-0.04424494760893,-0.04421965894289315,0.043742899782955647,0.043735037092119455,0.0437310931738466,-0.04424670431762934,-0.04424564936198294,1.6699826217803195e-09
-0.0441191449991854,-0.0441201654840473,0.0437552629119982,0.0437538723262213,0.0437523990842611,-0.0441285116059183,-0.04424987209495157,-0.04416990606114268,0.04375943308696151,0.04378646798431873,0.043791958363726735,-0.044097991893067956,1.6024526401736796e-09
-0.073501058642059,-0.0736995581929151,-0.0700376187792574,-0.0702925576738768,-0.0705056533414948,-0.0745874847453485,-0.07369359860604163,-0.07385203458397882,-0.07017244653252419,-0.07041939518239815,-0.07062496631988324,-0.07469371600018349,8.089913060585633e-06
18.642286792590284,18.56820636136957,18.56820572131472,18.568205075808752,18.642284872915763,18.64228439340848,18.642309274102445,18.568229051903472,18.568229825643357,18.568230653036153,18.642311636620434,18.642311367118964,4.628796260323098e-09
2.2964915447245327,2.1312347209445024,1.926248182269262,1.670376414626923,1.3996575491069758,1.1111796693015203,0.14988023651333773,0.13907238236997482,0.1246878202069816,0.10826654748321418,0.08928471412820967,0.0693256137286236,359.1469462263278
18.26386739035858,18.26386740386705,18.101364726010857,18.101363503869813,18.26386748358401,18.2638675254316,18.263865265224013,18.26386448392077,18.10136209623306,18.10136145955903,18.26386603415085,18.263866925788534,6.486893936045191e-09
-65.61192660159098,-65.01949542911471,-64.19704579404903,-63.19491305667324,-61.99346204658142,-60.71896633802093,-1.909470310757692e-06,-1.885502962539152e-06,-1.8579782555428465e-06,-1.8271443320697944e-06,-1.7964148108872014e-06,-1.766076928900532e-06,360.06354592653076
2.3927115454343206,1.7832511680773286,1.5143108311353823,1.5811665719972394,1.315737243251521,1.0499021691274228,2.380507102055864,1.8124842913626367,1.5454724217851528,1.597150011831979,1.3291114340674,1.109277055509847,1.9338324733063044
-0.1346891557287743,0.061807384296198,0.1491140454409623,0.1263769246455111,0.1971378121382761,0.2403083926091741,-0.6578812224076103,-0.3818068921419808,1.3331081718715723,1.406840838146536,0.32724612844406664,0.6130930640041896,276.1910602060332
0.2742838665842868,0.2687984853527247,0.2669692955274255,0.2623105298414068,0.257376090527637,0.2561982738915139,0.09316246172886636,0.09212941288933238,0.090532752403927,0.08958955771950236,0.0877830927032286,0.08686032399820312,330.23992769385995
18.568215810225144,18.64229273137209,18.642292177898497,18.642291616810223,18.568212858748627,18.568212153719525,18.56822545362229,18.642302503430983,18.642301695355854,18.642300601291936,18.568221092791646,18.568219608059735,3.754942382175897e-09
-0.3212912284859611,-0.3212914965390759,-0.3212917646566108,-0.3289664636692613,-0.3289667346430792,-0.3212925917636894,-0.32129126820291276,-0.32129153230562224,-0.3212918006320251,-0.3289665022821282,-0.32896677645112504,-0.3212926367777982,3.204072809995806e-09
-60.11380542084332,-59.828372267932586,-59.541100909547104,-60.32117394968518,-60.01900664858596,-58.64700882385727,-60.120168752280904,-59.83691169131542,-59.550344008700165,-60.316237746489755,-60.01541743603588,-58.622104045722715,0.4981591149541853
-0.32080198197503,-0.3212002374823737,-0.3215370839327717,-0.3294440541435385,-0.3295397851878682,-0.3218460818262456,-0.32102481582114706,-0.3213802868176572,-0.3216202495077596,-0.32943891254763,-0.32949303147688624,-0.3218134680610092,0.0023904112676771646
0.1155723441124365,0.117174350137755,0.1154663501465567,0.1127915332966228,0.1116727583411283,0.1110875022249442,0.11004311244245824,0.1086908016416733,0.11024236982123009,0.10928119659754842,0.10438187027372597,0.10481880698175895,42.23522539229041
-65.34581680045267,-64.05515202917185,-63.82820510982805,-64.67731896706955,-64.4474864168465,-64.21164693250128,-65.35277187173953,-64.0630581640944,-63.83758583255264,-64.69113318505379,-64.45039099795183,-64.20917837348568,0.454577039556207
-0.3212625036404505,-0.3212627635840256,-0.3289371620670565,-0.3289374247784684,-0.3212635656096571,-0.3212638258988072,-0.3212629025310889,-0.32126312401669566,-0.3289375359454425,-0.3289378195640893,-0.3212639704615867,-0.3212642382695776,1.8076005388423357e-09
3.481157603089758,3.5842244441132216,3.690769648707585,3.800064995524112,3.905032472658755,4.012959202482798,0.11371647621670503,0.11714478876531578,0.12061151730025066,0.1241985963924308,0.12787450975950204,0.13136909093008536,359.5360762960371
-0.3767756680506404,-0.3611669780568527,-0.361163105965208,-0.3767652687484766,-0.376760149298411,-0.3767558600976943,-0.37675648361130243,-0.3611489506293992,-0.36114760790945866,-0.3767536964095939,-0.37675195082135815,-0.3767508621236857,3.508857824100079e-06
-0.3212997027539016,-0.3212999727873374,-0.3289747572601466,-0.328975030169723,-0.3289753031400889,-0.3213010760507652,-0.3212992546323221,-0.3212995677076833,-0.3289743623936374,-0.3289746320406266,-0.32897489271272207,-0.3213006493751891,4.095150244057833e-09
-0.3611695056095264,-0.361169710036642,-0.376780000301592,-0.3767802264867285,-0.3767804527984273,-0.3611705465084176,-0.3611701247682504,-0.36117036336599995,-0.3767806767523325,-0.3767809179580581,-0.3767811594111663,-0.3611712639244615,9.206680998278272e-09
58.45579415384294,57.64018094107488,57.60879841968972,58.231831321136056,58.332034386566185,58.446658907687656,3.9900367134850256,3.9820011198479044,4.029450669306102,4.03581207343185,4.048441768804049,4.0165163253069975,357.9343466824055
25.1403625739772,24.86801767321004,24.42395351983572,24.15158378471751,24.0971591169704,23.82105197534628,24.99429565728408,24.75831409795408,24.540852699100885,24.12065149901768,23.89599765635719,23.835838413419722,9.376009230650917
0.0993379687682754,0.1101858712882498,0.1110375973396052,0.1041369714003518,0.1050783162880816,0.1034529223911633,1.8019360424390205e-40,1.7112086022906505e-40,1.8270967637646998e-40,1.8237523899517303e-40,1.8383716515822218e-40,1.7251792643688578e-40,360.063545926531
14.591133435708011,15.010319077694554,15.279597855562258,15.424698060963326,15.462756151505802,15.469106689992463,6.1015948808932,6.2516819039096285,6.349266609817927,6.39949910916828,6.420500232563577,6.4141148906963315,320.72107949737887
-0.059729656148333,-0.0805075947610573,-0.0923738383596661,-0.0978019403614138,-0.0980537817285419,-0.0942972008664358,-1.48099034101052e-10,-1.6992777227306293e-10,-1.7991312407879128e-10,-1.803764028380108e-10,-1.7346592436893405e-10,-1.6344590222112726e-10,360.063545926531
18.263865508990623,18.101278694084453,18.10127754043706,18.26386519705737,18.26386509208744,18.263864985259456,18.263857279976946,18.10127129823013,18.10127099188321,18.263859262548976,18.26385983851833,18.26386006382927,4.650283072652484e-09
-19.7674638360354,-19.80679731830272,-19.85909784853317,-19.91819494057656,-19.98643131259853,-20.065417869311684,-19.64639760282089,-19.694771250638325,-19.73917827902382,-19.796830180342063,-19.875859784797807,-19.945857520099356,0.3707940963911167
-59.98404791486576,-59.745895754118905,-59.55280098064542,-59.44461829458984,-59.39053154355416,-59.43813188391514,-29.24142639869001,-29.036185507769687,-28.8941408548626,-28.85843307894868,-28.90215828171381,-28.57842800134074,330.74149370810335
-0.1942925016461613,-0.2067027910668056,-0.216829732934945,-0.224739770153054,-0.2295334193319871,-0.2307264397973262,-6.141925444309326e-38,-6.442835372094791e-38,-6.677872637942041e-38,-6.820310172100281e-38,-6.855759343898256e-38,-6.815093059400091e-38,360.063545926531
-21.4103553822882,-21.40754086329924,-21.410452046070304,-21.408106934425906,-21.425562371114783,-21.40810144471889,-21.410355490143296,-21.407541296750647,-21.410455149474952,-21.408106648003248,-21.425562110105854,-21.40810132081633,1.762183756985115e-08
-0.0743941006802988,-0.0743962266231234,-0.0704677199509653,-0.0704698885479852,-0.0704716953519568,-0.0744043662902227,-0.07439774032536661,-0.074399055003596,-0.07047019798483234,-0.07047220731328707,-0.07047385473561008,-0.07440624276932795,9.589748797981257e-09
-2.775586249452975,-3.234041215662133,-3.678950363380566,-4.067077861424555,-4.394264883390107,-4.661039938340282,-3.56347596748935e-14,-3.85073089181204e-14,-4.08518701261456e-14,-4.2305833150602834e-14,-4.2945566411655224e-14,-4.279462155194315e-14,360.063545926531
54.27262247231298,54.35518238496263,54.19305618084608,54.03146191943917,53.7224986454248,53.55734455206148,54.27115818679408,54.236808485017264,53.957337189614464,53.802576076865535,53.61781412041637,53.30675931728774,0.11378721583432963
3.2647333366872413,3.353111027593984,3.3659785345490083,3.455548341203164,3.506585057078839,3.558372525264476,0.4998887458323236,0.5074599717710636,0.5066832761340037,0.5030137268463005,0.4978507884444724,0.48617626320996404,359.0538643109849
-1.6204057533414438,1.5821514672803616,1.8775145864589984,0.9393409217797724,1.262303710839389,1.5835930435633463,-0.5239848430536447,0.8933164403532294,0.5544119400165011,1.9315823523210107,2.2026351041296666,1.3999119464821173,202.52300876908473
9.314341071480444,9.289017872251051,9.190653117678467,8.996308541479612,8.720784752566932,8.379586125454937,2.888453705329815,2.8948641512555677,2.8698818196827185,2.8194296372569148,2.740318333124181,2.6363958591502494,331.4528416180412
0.0554208435799749,0.0636829278460087,0.0717371794332435,0.0802872717483267,0.0887661851849809,0.0975266627852125,0.016527420423891978,0.017212881343905334,0.017880997419216015,0.018583646020224474,0.019368609423109084,0.020052734424683107,356.56865866422646
-0.0441758150845372,-0.0441765880075611,-0.0441773590890039,0.0437431110323599,0.0437429902250283,0.0437428697418171,-0.044143951032310724,-0.044137845281511545,-0.04414705280214548,0.04375708010047674,0.043737638741731644,0.04371995269320905,6.858365678300571e-09
51.527227788195766,51.52722731695186,51.52722684463754,51.2102271414298,51.210225821548,51.21022450197352,51.527747021988034,51.527409156318754,51.52710113115609,51.209871562197804,51.20970533788204,51.209612883627415,3.5578161997210656e-08
1.0649785777239842,1.035629405379439,0.8691277677276934,0.5360488767400086,0.0506480789522905,-0.3606631212768155,6.473236636524561e-132,6.541820328295598e-132,6.361537817193298e-132,5.3387718943213317e-132,3.292775565788481e-132,3.111148331145172e-133,360.063545926531
58.895724700285726,59.096396919407184,59.00836361179737,59.15584254250183,59.28675692971077,59.9390813061872,57.21420483345771,58.26515746845364,58.04732231493103,58.54739793563317,58.99953905643559,59.19624915569523,2.1656761571658563
-0.1126741268375987,-0.1217042882411297,-0.1292655773150184,-0.1348794646647461,-0.1360432022723924,-0.1368430062369527,-8.937089398412155e-08,-9.492336284101973e-08,-9.904579953854224e-08,-9.990036570150759e-08,-1.00487685147095e-07,-1.0140091039241341e-07,360.0635459263368
-9.186639232371412,-9.15715892549229,-9.129661101957703,-9.076613564081493,-9.05054893292992,-9.025082029205723,-0.3320538375185187,-0.32944086109209536,-0.32742468462701524,-0.3241551807330403,-0.3220462889959812,-0.3206121830525035,359.80872393196046
0.0001779088157966,-0.0006069446400935,-0.0006066095319585,-0.0006062711789369,0.0001793781965005,0.0001797439334983,0.00017789296342485272,-0.0006069581576930716,-0.000606621557674103,-0.0006062833767241926,0.0001793658093234285,0.00017973311117103208,3.112959603716382e-08
-62.6785362115781,-62.15878054240167,-61.88056352932354,-61.59969509818365,-61.87907275798571,-61.61974833186996,-62.62065453598134,-62.287726152355816,-62.052427850597816,-61.691544043590326,-61.518397247960124,-61.57717059407472,25.38809360196135
7.674734385911657,7.747751695329972,7.743670038226873,7.852351313051589,8.127169482233583,8.227436248354765,6.939707909139193,7.050979151876775,7.1327928164222065,7.195495706797304,7.223126895846729,7.481056651593323,104.89075318976798
0.0002037555289543,0.0002040596105329,-0.0005825104283679,-0.0005822270950525,-0.0005819444434123,0.0002052936953528,0.00020375535758887509,0.00020405935880063453,-0.0005825106886518938,-0.0005822275041467151,-0.0005819449958224254,0.00020529300226002078,6.4730241418431535e-09
-2.4318750429369644,-2.431821519863977,-2.429801530318032,-2.431705803200015,-2.4297378492656803,-2.431927278390289,-2.431746682550854,-2.4317423103386724,-2.429703772440995,-2.4317417142522317,-2.4297386672432864,-2.431976330497223,6.230329156834006e-06
59.45768694048355,59.06274868013796,59.24796393916675,58.81634704348525,58.45579415384294,57.64018094107488,0.3939751879016476,0.38730734513030923,0.3847347231855469,0.38594102631531757,0.3831295489018271,0.38078109290744017,360.0482685196888
0.0837144821721111,0.2303362243048291,0.3883122388024527,0.4729129812136087,0.5271008868151466,0.5757572585767939,0.07526650199913781,0.09337600024375714,0.1140515881512345,0.1389969183177655,0.1467485284893585,0.161951173041663,258.0676171285765
5.391458300701697,6.539154216252847,6.827688726551208,5.05564248165189,5.384543778245689,6.680406242481691,3.9302986483258318,3.1870541459533097,3.4374865116082667,4.749544592628921,5.0667785975353965,4.898542483503679,248.31681960541323
2.7693247695454293,2.758384834440241,2.7525058846918826,2.7635813451035145,2.863753555986568,3.058761580296788,1.1468983598565305,1.1432158793886433,1.1434604066482634,1.1642206995025965,1.2090900408919003,1.289254558328026,328.9350013903936
0.0437319431688414,0.0437318495896779,-0.0442504553860946,-0.0442510489121548,-0.0442516410454974,0.0437314699340558,0.04375318140955642,0.04373938497155905,-0.04425162961706519,-0.044256612891331315,-0.04425795981660485,0.043727008160203695,1.8873518555040493e-09
-2.4318423510732154,-2.431705939498217,-2.431871176886516,-2.4316731408605587,-2.4317908645113646,-2.431894626641573,-2.431842179231091,-2.4317057856167694,-2.4318710106478645,-2.431672960912547,-2.4317906898000636,-2.431894419184147,2.2799136159693545e-08
-40.32733325420901,-39.84799366957797,-47.74770167119541,-37.33193385853098,-36.9451389324738,-44.00923366701696,-0.4186539932883577,-0.4149201062868907,-0.4111599960998182,-0.3993249702745572,-0.3960634275394481,-0.4463281649685727,360.03123774893214
-3.1317995033255395,-3.375623968309164,-3.675473000443236,-3.968867426916379,-4.248650950908984,-4.496126707820878,-1.4228821463760734e-13,-1.5492735449551778e-13,-1.6729442189384594e-13,-1.7908776691321758e-13,-1.8951928533697372e-13,-1.977100388628161e-13,360.063545926531
0.2666357869500521,0.2742417079188451,0.2770422354225836,0.279823082739193,0.2800458446543828,0.2827591704181431,9.539374373763703e-05,9.752844860341024e-05,9.874665491560114e-05,9.949474539306467e-05,9.980317400717945e-05,0.00010052630256808287,360.0635267164244
2.710377423364491,2.6968729374331906,2.674827931895749,2.663091834807596,2.6518139582383453,2.6452070008775586,1.330933565889881,1.3202372722102445,1.314109525904741,1.3083865726204225,1.3054201577137823,1.299882457866315,267.4266103615251
0.7924124918342746,0.7258844171382824,0.6532450854244026,0.5808249821322788,0.5046340580874102,0.4331625119819999,0.49355349505058854,0.45890202158132476,0.4230872973299778,0.3837076362220591,0.34384870474396406,0.3031700195319919,171.77474062791495
9.233924901819488,9.201652498228192,9.047469023989194,8.724103840457946,8.230581627403943,7.577022400789453,8.558999345412527,8.565556720312912,8.39952659427014,8.082340532268377,7.603027131560841,6.937245751901454,127.58575415202053
-2.239544242150413,-2.3903742537755366,-2.373381997424337,-2.329868310602216,-2.295079483877062,-2.2747838323014915,-5.3842204296922604e-42,-5.593781831197735e-42,-5.773314765914151e-42,-7.134152237412141e-42,-6.816256795076877e-42,-6.142678932838287e-42,360.063545926531
0.9846105407978436,0.9956563359190356,1.0072732261897386,1.0206070302154664,1.0321042633905155,1.043517231821686,0.07250444003027043,0.07339742785925835,0.0743441185330135,0.07534410969729624,0.076226316683099,0.07711179679585924,358.4406489339351
43.06585108291399,-30.72301324270127,-28.10141588965952,-25.226703015155746,31.725233884765338,28.536562065025795,4.54802544187435e-63,-3.5535205518907256e-63,-3.4929599662033677e-63,-3.3942518590181984e-63,4.181841920200777e-63,3.996921882079255e-63,360.063545926531
51.2104457525364,51.21044436248502,51.21044297294657,51.52728574364053,51.52728548113886,51.2104386918063,51.21071461960673,51.21039651893079,51.21017961204052,51.52688489295542,51.526799745857716,51.20991567708552,-1.4287045077406846e-08
0.2565509740486152,0.254112693017261,0.2457893983936123,0.2435937401670229,0.2413561468774243,0.2435055327531775,0.00012460670066920837,0.0001240237949116919,0.00011997310980293622,0.00011925305765568729,0.00011851268290794485,0.00012119592600491139,360.06347759546867
-0.0744550601488366,-0.0705137502486222,-0.0705140645783196,-0.0705143781775576,-0.0744566550966822,-0.0744570433631383,-0.07445586375251878,-0.07051449740538374,-0.07051482396491338,-0.07051514557679184,-0.07445738806563895,-0.07445769482001197,4.1689330017391614e-09
-0.6173816928557291,-0.6080973798270943,-0.6059295531066777,-0.6057248065298579,-0.6032705723906393,-0.6006829857049608,-0.007919864002772862,-0.007895712638212803,-0.007777319468489027,-0.007749265664843272,-0.007746556206548704,-0.007715273623119891,360.0050755175181
-8.959515343328324,-8.807610327251716,-8.793509718080708,-8.867673255731358,-8.97845783207874,-9.10904208220173,-0.0861107269517882,-0.08536463850876222,-0.08510412641932923,-0.08554381424318555,-0.08609625540449019,-0.08670651619246772,360.03383333631484
-24.003239067155143,-24.05943217881523,-24.114583074574305,-24.165106783048618,-24.2128853495242,-24.2539313982336,-23.943859804037004,-24.01406496890843,-24.07893946043029,-24.133410152459362,-24.178419798225463,-24.219089979472358,0.05889948724175412
61.36708288167854,61.27001471925631,61.402573042808754,61.25096817403098,61.69905055959706,62.12933584133817,58.02657699604265,59.117704495355554,59.411855336973304,60.22215605295146,59.68144013921678,59.73103268005994,3.844231015820165
18.568158258570747,18.64224960868329,18.64224910376187,18.642248598404027,18.568155585141103,18.568154930027426,18.568150969906128,18.642242827656446,18.64224249467952,18.6422421488096,18.568149437312968,18.568149204933434,1.9306096972571242e-09
7.302859752280973,7.115462650747211,6.991807260926766,7.065308250661005,7.25139175339697,7.480671741232045,6.540828838975486,6.375754670011242,6.310558853911173,6.303431622188626,6.4371866309038355,6.686348032475305,80.98715446392843
5.24139961363465,5.286908652681204,5.333320328202546,5.381493076822983,5.427590227486647,5.475520096982217,5.259560397047355,5.303740120174063,5.3526307620256395,5.394055960725204,5.447479952112401,5.495755870844248,0.03904929331989962
-0.3289441301734629,-0.3289443950759725,-0.3212704691320306,-0.3212707315647704,-0.321270994077496,-0.3289454775922918,-0.3289444871898013,-0.3289447550168916,-0.32127083164095893,-0.32127109810062393,-0.3212713661005182,-0.32894585637586715,1.6366155349090252e-09
17.500381285807396,17.33170343622578,17.206573607477235,17.078581562334517,16.967532362006693,16.891928963459712,17.948027959032288,17.746337370590407,17.576981367001547,17.40192466425101,17.282542274984625,17.19385273726124,26.002299649940575
-2.528822194736518,-2.465196336087591,-2.22589270348096,-2.157788427534788,-2.089834961064964,-2.206515927143732,-1.8517880279331504e-30,-1.6954810333385524e-30,-1.3143332994723952e-30,-1.1927895233031093e-30,-1.0708304701149788e-30,-1.0663366645922874e-30,360.063545926531
-0.044274552597232,-0.0442750882577387,0.0437278047274158,0.0437277212691305,-0.044276731794005,-0.0442772622132506,-0.04426647431682795,-0.04425782314501703,0.043756063329055905,0.04375934484414756,-0.044241955038160086,-0.04424329265020788,2.72175640096185e-09
11.075739160253129,11.351365821830292,11.637098508293407,11.91005598524258,12.181755145373945,12.463498397478098,11.078176358334074,11.381490714754854,11.653784205545412,11.904589514695587,12.20170307394459,12.454730199200702,0.012081056948070736
2.403450679584708,2.2789280743670286,2.1644701162582325,2.103343262198873,2.105381521608438,2.1484594783950306,1.2486354604876904,1.189024212747677,1.1274781097601192,1.0709221496722048,1.040739633699782,1.041796681543162,271.9080747546035
62.35940982173668,62.21845248599931,62.07666416801164,61.88331746960736,61.78420480207138,61.63486099248307,62.40362175631316,62.31464507257351,62.15853532243705,61.998107242974356,61.850411761823125,61.69238811065412,0.011542316241084618
-11.317526090806304,-11.278322405249313,-11.223498880018994,-11.169364765691672,-11.10941602257937,-11.05764309376884,-9.481076271364714,-9.43659170902066,-9.40329536736482,-9.361600819841215,-9.318953514057114,-9.28560567668876,103.29852933348893
-0.4488763937814857,-0.4421091093233119,-0.4355196017220113,-0.4288409958346681,-0.4184219583564144,-0.4117039280826278,-0.006387327455529883,-0.0062921263233632245,-0.006195636941985107,-0.006045108399222361,-0.005948049436933836,-0.005860008949326572,359.98839665337005
19.09764411314792,19.74471051370534,19.56483547901985,19.13358682086197,18.6742523032848,18.29730717700004,0.00016796043129056894,0.00016624436828053635,0.0001629039323051403,0.00016096645128279197,0.0001600048103414979,0.00015811728109598329,360.063545882271
-21.40817574707065,-21.400603951636462,-21.4104372103317,-20.696039618955204,-18.525054552395247,-15.621878507933785,-2.7934328809698988e-12,-2.806421808699429e-12,-2.8211194821219993e-12,-2.764518547039852e-12,-2.5488520836931524e-12,-2.2729229330600738e-12,360.063545926531
18.104592835739755,18.10413768062076,18.265736779497768,18.264908175179592,18.101731563854337,18.101133981567948,18.104834786019637,18.104365934890666,18.26597241529089,18.26522298535201,18.102162000710905,18.10163529750207,0.000274313239551985
-23.427838948699595,-23.319689763985178,-23.24771858902399,-23.13905602550343,-23.06879955359655,-22.959577082184577,-22.65025941376551,-22.63382462521443,-22.511156673050195,-22.361480679307107,-22.385232425734085,-22.26855397432702,43.78538688073966
-0.0003325673651648,-0.0003324801660755,0.000129478250879,0.0001295680831663,0.000129657699128,-0.0003321262754638,-0.00033256750192478535,-0.0003324803311102187,0.00012947812685437654,0.0001295679632107305,0.00012965763064576308,-0.00033212638441249,2.2304587317478865e-09
54.896520874839446,54.85787855274323,54.56096769669959,54.27262247231298,54.35518238496263,54.19305618084608,55.48202259217487,55.357608964657175,55.42248684513652,54.64374396529729,54.49132849024227,54.46385401633938,0.349052111854385
-2.431901845556998,-2.4318750429369644,-2.431821519863977,-2.429801530318032,-2.431705803200015,-2.4297378492656803,-2.431901822670234,-2.4318751223434183,-2.4318215243543775,-2.429801508629688,-2.4317058010997368,-2.429737851523161,2.3245982275358357e-08
-0.0100295794377847,0.0250946082701975,0.0783095020606789,0.142460163683903,0.1907373998299748,0.2132235637610569,-1.4194953505205061e-130,-1.969357282073816e-130,-2.0318177591006453e-130,-1.7024612999149388e-130,-4.160170220362857e-130,-8.206839913017774e-130,360.063545926531
-2.219329651189489,-2.3838543253021536,-2.239212346705405,-1.740354912923225,-1.813492533884178,-1.6608085663752843,-0.23510304012240196,-0.24231826941865606,-0.18797560413365008,-0.1405553566347359,-0.13659247269479316,-0.13805853751978944,353.47995871157025
51.52723483578661,51.52723438173185,51.52723392652065,51.210247314540425,51.21024598910404,51.52723251581953,51.5271212849766,51.52727919770405,51.52740368060768,51.21049584634602,51.210535511374474,51.527534844353795,-3.0516591224738375e-09
7.061478347108708,7.024300792118895,6.985317185090204,6.947646657070443,6.908150873153061,6.869990121527915,7.066989499675713,7.022673235689167,6.991821798977892,6.950229454858495,6.907845303899902,6.876694905973012,0.6284114438732697
-9.41018700521762,-9.543046962669376,-9.677097740573712,-9.838339122575446,-10.073053649549394,-10.430047955450425,4.244427644040497,4.24150687308466,4.084007949326005,4.085279277968326,4.24921386441544,4.196301460767202,289.0537923763532
0.0311065211780773,0.0341315132399464,0.03718704786245,0.0401677658619903,0.0425018507958939,0.0446477254475179,0.008179805425997163,0.008946022966445175,0.009564136334122963,0.01008078932788322,0.010731639274946676,0.011257391009714545,337.300525692319
-0.3685362094915911,-0.5905843796029839,-1.2881002049856003,-2.084655890557983,-2.621967106646267,-2.6594654738699406,-2.240951587633047e-12,-2.350703372997593e-12,-2.471992140700747e-12,-2.582064121388541e-12,-2.6945783827689513e-12,-2.786588227132099e-12,360.063545926531
-0.519485390549654,-0.5264005184420334,-0.5324773469990992,-0.5374091070835295,-0.5446274018073476,-0.54902613735112,-4.242909062081647e-15,-4.285800840597989e-15,-4.32356256461358e-15,-4.363486643531669e-15,-4.403013474480978e-15,-4.439935074353774e-15,360.063545926531
-5.488930521356812,-5.51304707502341,-5.542118373223849,-5.5658047448891415,-5.590512790419835,-5.613686357296407,-4.894091306129231,-4.91848522330368,-4.9397565794907035,-4.964191175725953,-4.984783939502278,-5.005957820045508,156.7104664960369
-46.43247250171622,-44.44807354671173,-46.44480328024495,-52.34441180398582,-59.68119479014127,-65.43965667773294,-5.0514970797494386e-39,-5.278424224396306e-39,-5.948911218402947e-39,-6.782732233863023e-39,-7.43717799676007e-39,-7.603306032535553e-39,360.063545926531
-60.37441426729824,-59.762400389614,-59.18956282298353,-58.69982769397137,-58.65864646882659,-58.69031515058335,-15.214336394211841,-15.126711159741262,-15.030503285652912,-15.005888652039403,-15.023241093109846,-15.086833617440561,345.26700591886913
28.20885824740711,28.349367364605644,28.461875531265747,28.45770206975736,28.34414740121625,28.07745390822438,30.129293819958427,30.254162862817246,30.355686557084525,30.35572872559225,30.263043595756848,29.989575496334965,20.92267474537173
-54.77008345298833,-54.73098580032628,-54.76650344633566,-55.15059580392741,-54.76531641747804,-55.146705186669,-54.770087234378764,-54.73099052819771,-54.76650917986274,-55.15059377014387,-54.765318159567485,-55.14670593813855,2.0286941263140135e-08
18.64002038546648,18.56627439337099,18.566796910418613,18.56739236670457,18.6420457210045,18.64248429991319,18.63597292918712,18.56212206411874,18.56222783314297,18.56234551682428,18.636596682772506,18.636862336672493,0.00020352311018115036
0.0001382200246998,0.0001382888027317,-0.0003238092964101,-0.0003237431729704,0.0001384998272906,0.0001385679313804,0.00013822181220568552,0.00013829070219717465,-0.00032380769757356376,-0.0003237420102606414,0.000138500448976564,0.00013856817676557998,4.034043568782464e-09
3.800064995524112,3.905032472658755,4.012959202482798,4.108289615684966,4.1973940144093085,4.283095131154174,0.021549781270795727,0.02214654504172987,0.022673290213974174,0.023165451670896172,0.023638760963151456,0.02409545829538641,360.05227289358874
-45.18620789000988,-45.57865778702354,-46.01583666473434,-46.40055783453964,-46.81196794391027,-47.21454804396676,-45.22556046349625,-45.64318855584935,-46.04736874613687,-46.484226747591876,-46.84344052969692,-47.26038940743854,0.5425694826945826
54.99362315117983,54.12550850200625,54.12621705912937,54.99535666358637,55.00020204217842,55.00489578623599,54.99646516135863,54.12456359139469,54.12059613430756,54.98330466274638,54.984762563195545,54.9865400796989,0.0010818152709728664
-0.0452205864774005,0.0416974768105211,0.0413924592658226,0.0415588060721621,-0.045774921137274,-0.0451443535246544,-0.03905618202406913,0.04686488234438002,0.04492242028936744,0.043332163942977786,-0.045652471482753754,-0.04625750379636884,2.0127570479492652e-07
-5.849793202446424,-5.829267045058333,-5.807511117470149,-5.786140817266031,-5.765509702008556,-5.743908303035707,-4.672308910450269,-4.654652357164284,-4.637207842318907,-4.6211689331295505,-4.60409357115055,-4.588647023589557,60.41036195384195
0.1149223795154432,-0.1144656068479322,-0.114466538359943,0.1149325136428495,0.1149346416264453,0.1149359070995292,0.11489483364857733,-0.11449556658044457,-0.11449417704716325,0.11491224367637187,0.11492127145174891,0.11492912692483515,4.1135675117687344e-09
18.568036274372204,18.64215109591701,18.642150528002293,18.56803418451627,18.56803350651604,18.568032828427004,18.56804280196957,18.642158188551548,18.642158636372187,18.568042556173168,18.56804189972172,18.568040699334233,5.9152196725620444e-09
18.573039520779385,18.64614253027009,18.644642774824057,18.56890659723489,18.567498630084337,18.56650734566895,18.580435106152436,18.652151193862665,18.651368319784524,18.576989622684778,18.576896174577996,18.576969957750407,0.0008078175975268194
51.52727672074214,51.52727640944432,51.21039523094628,51.21039385924735,51.21039248800058,51.52727512276312,51.52704169135541,51.52728867949918,51.210578776896,51.21068584918976,51.21075247041881,51.52766475081444,-9.246284379668113e-09
0.0437229255516534,0.0437228539934697,-0.04430777892586,-0.0443082348154066,0.0437226344937089,0.0437225636686933,0.04380893177585676,0.04375514970161021,-0.044309579534456134,-0.044327142648398876,0.043700290378183126,0.04370750021189451,1.8417634335776813e-09
8.986710183888603,8.317558412836846,7.562130336726851,6.599383484371666,5.394686897511357,4.271249608285838,0.04619073057452486,0.04373871192067857,0.04046311473050047,0.03678075607154249,0.03207639747954052,0.026201922250471767,360.0546753421605
15.300473915865837,11.902358445937583,18.14444335770472,18.288393872958498,16.57526218968964,16.272384935620785,0.02358382092715669,0.02691480348129953,0.02540079871933351,0.0216620183598657,0.022096030692053643,0.024756002303469374,360.0631312992491
2.0471450082431395,2.1183387277153707,2.184247416005724,2.244177387554895,2.305663003651637,2.3537877076398384,0.02667775537151978,0.027509498926582915,0.02826413953162705,0.029041649008321395,0.029649115194394678,0.030188623573121652,360.0044495077544
-0.3289722584686475,-0.3289725308098786,-0.3212983310226732,-0.3212986007466827,-0.3289733709228344,-0.3289736435189711,-0.3289719546537526,-0.3289722399058519,-0.32129805987551663,-0.3212983459552561,-0.3289731244894938,-0.32897340028375766,5.459335453298364e-09
-21.9116771936342,-21.74526022500513,-21.618224591354863,-21.530265869629048,-21.402645213376697,-21.273398337375205,-22.04581929370288,-21.879258202813773,-21.750332420033164,-21.66491843639428,-21.532902298451475,-21.402646388284175,0.29363282554872083
8.083799594352158,8.132858849406286,8.174543813168523,8.21568122326605,8.258379543680789,8.298528261831835,7.862669549980329,7.903444944720559,7.953231950520905,7.9942393245363625,8.032498886965074,8.072150323246461,46.924350049329384
0.6426256117254496,0.6554161310855581,0.6684966228483693,0.6812988571275123,0.694093853333569,0.7076665901489062,0.5053347842026189,0.5157845744431188,0.5258685666046193,0.5362554306791055,0.5463007298013075,0.5563728718651468,145.567797155616
-0.0704790201216501,-0.0704793772242642,-0.0744130768865498,-0.0744135253752439,-0.0744139813580578,-0.0704808359054688,-0.07047901100304443,-0.07047936911112629,-0.07441305923566688,-0.07441349134023767,-0.07441392701002769,-0.07048076443606988,3.535981532724064e-09
-1.357392296259222,-0.515552211100108,-0.0869726664980113,0.1389448375519611,0.3260828205380219,0.5006846185004884,2.0367068143548444e-21,2.5333150109865643e-21,3.038276130079528e-21,3.4919959846136734e-21,3.932373580485886e-21,4.308805292203479e-21,360.063545926531
4.409707343116988,4.308177437364351,4.216302473592116,4.14226340557735,4.09265322872885,4.071145282158327,0.6214523037251029,0.6071931271969268,0.5948457232185635,0.5849048154836981,0.5782028469242235,0.575235203840497,356.4939718694594
-0.0003218010648792,-0.0003217397738905,0.0001405681401465,0.0001406312622841,-0.0003215517202032,-0.0003214910291681,-0.0003218005507328314,-0.00032173936521395774,0.00014056839622966777,0.00014063139561093507,-0.0003215516732579804,-0.00032149105776690945,3.298262355048165e-09
55.358288673730776,55.06057267503172,54.896520874839446,54.85787855274323,54.56096769669959,54.27262247231298,55.405984795876066,55.34651112413758,55.20771702969341,54.97806152300382,54.888097563789415,54.400028639635366,0.2439045320786957
62.33536460694167,63.04315108357,63.7108410318196,63.98255494705389,64.48042118081746,64.86907410247701,47.2858950222942,48.05544345770113,48.319548129734756,48.89734893030542,49.25858709870758,49.35863176895623,244.28825873665753
-0.4562136551191288,-0.4674147214156884,-0.4675035910160747,-0.4593148028066978,-0.4482995983441898,-0.4395052083950101,-4.530332261450015e-22,-4.531193613904808e-22,-4.451825272028971e-22,-4.345062404159027e-22,-4.259824377453597e-22,-4.194477589908971e-22,360.063545926531
0.1614747168713819,0.1678157209268273,0.1726687549129732,0.1772968389734444,0.1817972856010271,0.1872793233348287,0.08067889901273362,0.08516372280344339,0.0866906872109092,0.08895813367235378,0.09092532054981026,0.09301744435515572,328.1047227788179
0.1050139354088463,0.1058557296109712,0.0993379687682754,0.1101858712882498,0.1110375973396052,0.1041369714003518,1.3406421219925874e-12,1.3479427360497478e-12,1.3555732141705275e-12,1.387575744556817e-12,1.3954849931512271e-12,1.325222330015287e-12,360.063545926531
7.064715457470362,7.117783455064329,7.171483963676395,7.223590415465825,7.272213777583434,7.323319945216141,5.708588725652348,5.754173307963946,5.797126039527242,5.837413324636209,5.878970086892784,5.9197710473550895,174.8384988166152
-0.3767709137033915,-0.3767711345203396,-0.3611621449696042,-0.3611623430982049,-0.3767718162136994,-0.376772037549762,-0.37677109601827397,-0.37677131394684693,-0.36116232745462185,-0.361162528013665,-0.3767720024816299,-0.3767722267048157,3.390689754115839e-09
0.1149345828777548,0.1149350688762429,-0.1145217387166482,-0.1145253796166608,-0.1145290423717093,0.1149373076883157,0.11493294918909669,0.11496636248193681,-0.11447193170897663,-0.11446903884643689,-0.11447625691653229,0.11498055484844372,4.155233737793707e-09
-6.356182354913129,-6.357817267959534,-6.351034500776224,-6.353357485678864,-6.353888841193842,-6.354214464343695,-3.811702915006695,-3.808789166762587,-3.811029324811884,-3.8115108807510256,-3.8111603202147464,-3.8112670708714793,268.48160491388404
-0.1149345051758669,0.1149696152479931,0.1149698474037049,-0.1149434586252835,-0.1149463481355969,-0.1149492306631143,-0.11498288973234594,0.11491407337598503,0.11491597455460578,-0.11498531088000163,-0.11497610429069027,-0.11496615665964782,6.285725076696791e-09
-0.3212898668983933,-0.3212901346151302,-0.3289648166775573,-0.3289650872477226,-0.3289653578828362,-0.3212912284859611,-0.32128979016124504,-0.3212900661092135,-0.32896475029338035,-0.3289650196202274,-0.3289652858802583,-0.3212911509835976,3.138361817792712e-09
66.14578962945578,66.11573172982979,66.07920080450214,65.11028629932942,66.00644200698395,67.09730757757119,47.022340759316904,48.53046709714094,50.26820024726376,56.34137425330714,51.47628675593898,53.04350315392425,109.55399861777722
0.0281587856445583,0.0235031656132747,0.017289565047184,0.0103018078790791,0.0044865040904321,0.0003693051623548,6.400749792094067e-25,5.065048870693699e-25,3.279030257443799e-25,1.560407254662686e-25,2.2777285972434237e-26,-2.646709701057189e-26,360.063545926531
-55.1466583123723,-54.47977519584765,-54.76526292391008,-54.47675749523912,-54.7328830236311,-55.1505528455109,-54.94589193701427,-54.52476122033306,-55.37657680986344,-54.838758961570676,-55.1550873373002,-54.71200536477966,0.3410370036575412
-20.592053612441067,-20.399266849086324,-20.26247077949845,-20.12532942797401,-20.021632675558152,-19.87965716260276,-20.440897633412952,-20.2565670146667,-20.12629211563598,-19.98938555875934,-19.874985718656568,-19.733807309610576,0.8423299086440263
-0.0704931233555945,-0.0744302515245761,-0.0744307021181715,-0.074431151668839,-0.0704945978849829,-0.0704949568662061,-0.07049386817379855,-0.07443100183445495,-0.07443148556922097,-0.07443195130326785,-0.07049537605780642,-0.07049568013462704,3.845721322096607e-09
2.5483951170158896,2.54928662120696,2.5260275705767348,2.527956952040169,2.530760934853071,2.5397920253087944,0.32319139434220656,0.3204681559857045,0.32070338873895576,0.32091857350102954,0.32202237986950516,0.3226006909779578,354.7794356608835
0.1106442669833009,0.1113281221386656,0.1080628585640241,0.1058380340461006,0.1013915967702594,0.0941794929652745,0.1335204566082891,0.1288724179786723,0.13062165820248314,0.12733420068971382,0.12565364748877175,0.12164499171430995,279.1979151301777
1.5193892383028609,1.4741934510849994,1.4149376829419318,1.3604185703256195,1.2946417064832727,1.2684728753826566,0.08894017222126316,0.08729074793101264,0.08458205451102553,0.08128014441891045,0.07744976723598701,0.07269387274626998,359.66000422761687
29.17384098031618,29.341731065264103,29.43620829124772,29.42058987158689,29.274351100593915,29.101072580830323,1.700453918838675,1.7088109824808153,1.7111216283648583,1.7068328994793174,1.6995129869378929,1.6875030954118428,359.35736778094537
-0.1559800070347931,-0.1460334047145826,-0.1364864837165608,-0.1268636635745322,-0.1165073610339569,-0.1067117834967914,-0.15329143956053562,-0.1439613728763416,-0.13419729876272307,-0.12438239821662499,-0.11484381390460037,-0.10476706940886342,58.933827682917276
-13.18713066121592,-13.279080876713753,-13.930888318822868,-14.019196758556442,-13.902658042647786,-14.023539004869056,-13.20816608111518,-13.330180316589882,-13.87957382433912,-14.076910631263303,-13.998055393633152,-13.987460239663356,0.44436371535827246
0.2260515212595115,0.2230235002059285,0.2187878699267176,0.2160824850626863,0.2134463277162365,0.2102689016825208,-0.21012794597087692,-0.31496478584231247,-0.5536578073459288,-0.38018958104505896,-0.4309404267554774,-0.4390535353097217,329.23035127020415
55.00646660363471,55.00646938944536,55.00647216601155,54.14063436439682,54.14063015544704,55.00648066894728,55.00649205982336,55.00649622677156,55.00649882612197,54.14065900008427,54.140652963134926,55.006501564290375,2.0677910298064772e-08
-0.166286557179953,-0.161036281981513,-0.1603707998722028,-0.1636386992485832,-0.1707477319788479,-0.1796840928721257,-0.002252811092511538,-0.002117885378111478,-0.002002247170537144,-0.0019235300942350728,-0.0018749903248602286,-0.001857875915163181,360.0252120161421
-2.9539163035720524,-2.929463203863015,-2.913156275337596,-2.9010764365250417,-2.88943331638408,-2.878585882765371,-2.238857900736078e-05,-2.2295751180662248e-05,-2.2206264090719566e-05,-2.212288825696019e-05,-2.201267912168476e-05,-2.1897044555883025e-05,360.0635459052641
7.610164915021098,7.224828298712832,6.967259652123616,6.811254304433424,6.717976276050723,6.6675262944081055,3.306397813533631e-05,-0.006904310024783152,-0.013749329888392114,-0.01902090016330284,-0.023261584780386757,-0.026721466344854457,360.0148850760622
-0.0744111567703935,-0.0744116619553499,-0.0704790201216501,-0.0704793772242642,-0.0744130768865498,-0.0744135253752439,-0.07441189429664519,-0.0744123742551892,-0.07047971607971704,-0.07048006746481406,-0.07441377305076458,-0.07441424048738554,2.6336491017275978e-09
-0.3212696604543763,-0.3289441301734629,-0.3289443950759725,-0.3212704691320306,-0.3212707315647704,-0.321270994077496,-0.32126995084308874,-0.3289444353458748,-0.3289447143806683,-0.32127079142446746,-0.32127104903611325,-0.3212713028078724,1.7206869514041602e-09
0.0083341930707872,0.0035235676044379,-0.0002613771094004,-0.004232820319835,-0.0079984835487056,-0.0127824796468835,-0.276860452410451,-0.31568237278065125,-0.25552683337358406,-0.25842878858204776,-0.23091210772714232,-0.1423370785709689,237.3634544183677
-0.0349081306455905,-0.0349082116805821,-0.0310931279006214,-0.0310932010932899,-0.0349084604605864,-0.0349085407981227,-0.034903689433122054,-0.034903868872788735,-0.031088732022908516,-0.031088752308278345,-0.03490403373143636,-0.034904219006421044,6.597624915986045e-09
-0.3289497985632131,-0.3289500651364552,-0.3212760845285045,-0.3212763486000347,-0.3289508875500392,-0.328951154433698,-0.32894999517338874,-0.3289502550242105,-0.32127626480451,-0.32127652154667885,-0.3289510578097179,-0.32895132436806307,2.6233035994949307e-09
0.0001356615181677,-0.0003263411657643,-0.0003262689497441,0.0001358920051946,0.0001359663904677,0.0001360405965717,0.0001356616384593501,-0.0003263410920757437,-0.000326268919210726,0.00013589198650576506,0.00013596635904022936,0.00013604055477733912,3.820653374378991e-09
-14.023539004869056,-14.155786971817864,-13.964304843202836,-14.101448317760346,-14.229699368588328,-14.886649257217002,-14.375982209350866,-14.5009745316396,-14.31263770259782,-14.305460214272138,-14.658003219026995,-15.021279948614703,1.198063671548064
8.604538854950121,8.636021816563119,8.67062140997736,8.704610599570112,8.74001092827325,8.774622414507816,8.474115859484893,8.508403491496589,8.541024219765308,8.575142728479914,8.607500536757847,8.641665599771608,45.92720898477021
0.0001848309011363,0.0001851807474751,0.0001855298897731,-0.0005998159438478,-0.0005994906237041,0.0001866011474876,0.00018483801899549235,0.00018518823229385362,0.00018553868535775564,-0.0005998073869335485,-0.0005994803989963771,0.00018661160208210958,7.821065820127216e-09
0.1209094889137461,-0.092214086956729,-0.2690986240207143,-0.3111772849754146,-0.1590789334450064,0.1628447418727908,-4.55091506607319e-06,-2.9569356613843637e-06,-3.1227150634141037e-06,-4.993574054524139e-06,-7.896866724636652e-06,-1.0167012082770063e-05,360.06354591911037
-0.0310822798060545,-0.0348963944402163,-0.0348965007711338,-0.0348966068697751,-0.0310826700458508,-0.0310827650980002,-0.031082266534212977,-0.034896355209639296,-0.03489628675743006,-0.034896310564363375,-0.03108245416660793,-0.031082785571925342,2.046683958570894e-09
-2.986618821701525,-2.9539163035720524,-2.929463203863015,-2.913156275337596,-2.9010764365250417,-2.88943331638408,-1.337903147809165e-09,-1.3324984703188863e-09,-1.3270743552336712e-09,-1.3219605236744878e-09,-1.315244388538977e-09,-1.30820836227813e-09,360.063545926531
9.11482431429154,9.26799711067474,9.390075337038224,9.479307867301651,9.54595695382562,9.58953854555614,9.266542622948366,9.469152218317657,9.489926142466388,9.576633349522917,9.604081848161984,9.766012911437308,1.8421739134817952
66.95326661492517,64.88425896359618,64.84529245861825,65.69936822948621,65.6494997094296,65.59808362697655,64.80275794334614,61.94244714539103,61.88093921034371,62.23049372817289,63.45206753423319,62.587977599457176,35.81227772147415
0.6166854953741041,0.629469411830677,0.6426256117254496,0.6554161310855581,0.6684966228483693,0.6812988571275123,0.5663046905745915,0.5785199576253564,0.5902351332964005,0.6021434134626631,0.6139578974677332,0.625688680310017,123.17544802804518
1.0391659198413703,1.0175612661078113,0.9675039703754024,0.8930237885463183,0.7854429630303912,0.6395987791290477,0.030902404696525387,0.030101807199553226,0.02870172582179038,0.026496611374165653,0.02352456219253459,0.019865467663369978,359.9625729615589
-16.818563629013035,-18.00305320840024,-19.15634951880988,-20.051652683694204,-20.87111341453083,-21.41048032406737,2.040486580691191e-05,2.010028815543197e-05,1.993874212672289e-05,1.9626132653584875e-05,1.9484170594827464e-05,1.9786739885583814e-05,360.0635354665829
51.52728244162705,51.21042322818975,51.21042184643933,51.52728156775258,51.52728128118476,51.52728099305046,51.527163217775524,51.21045202109963,51.21053206920624,51.52743714675307,51.52746606618166,51.52747845835984,-2.0280228356284067e-09
9.48453728672903,9.460074802595486,9.445978934124838,9.452588410245596,9.438445112940634,9.424022617219608,1.2379803867253045,1.2356403654841173,1.2338323380579908,1.2327373187987376,1.23211800609625,1.2297737755016318,358.4017546013347
0.9217250636151124,0.9481820852605964,0.9694918248803712,0.9834027282177884,1.0016785092540024,1.0028618266181712,0.24092334303537485,0.2544584714233928,0.2693620415816653,0.28934639697535086,0.309216659778359,0.32842104320427534,294.91726757647035
0.1241893813772749,0.1293143076594178,0.1351902395203224,0.1377215823907929,0.144750828036668,0.1586800801585627,0.09677455503319901,0.0953536824283436,0.09101689660711593,0.08667781995813198,0.08208852259239037,0.07489184315360908,344.78409706538906
-0.3611803138139864,-0.3611805264275824,-0.37679188692227,-0.3767921193901133,-0.376792351971192,-0.3685362094915911,-0.3621631887640433,-0.3629402171286529,-0.37861711380764973,-0.3781060574374351,-0.37705818231233934,-0.36015611860511854,1.6496590721399482
0.0437226344937089,0.0437225636686933,0.0437224930360855,-0.0443100851175598,-0.044310535475567,0.0437222762378981,0.04380237078294158,0.04375221161171794,0.0437205012422055,-0.04432740691117942,-0.0443304346408695,0.043709144461899996,2.1064263917936034e-09
0.281434810288881,0.2777935262640895,0.2742838665842868,0.2687984853527247,0.2669692955274255,0.2623105298414068,0.1847283822751038,0.1824419000368816,0.1797800476602647,0.17774987422061242,0.17491936804417546,0.17180970635867382,260.1447700119017
28.39799785321527,28.620113000151434,28.841595760264536,28.684043279296457,28.91842596287125,29.77739835613428,27.865906756698852,27.992002585209157,27.935047212481784,28.095423546700847,28.57010795548793,28.573427335663812,42.096502149281186
-11.659627127126454,-11.70430071010306,-11.76291743385264,-11.812659494469228,-11.862469808652143,-11.91262749348676,-11.555130378706963,-11.593953702143153,-11.64856174612305,-11.691953975035176,-11.748687340890683,-11.803603801158715,2.129454813577334
-0.0003215517202032,-0.0003214910291681,-0.0003214304841813,0.0001408874370358,0.0001409497901024,0.0001410119929748,-0.0003213926058149852,-0.0003213169592397591,-0.0003212550975346673,0.00014103839580958955,0.00014105039211043113,0.0001410393141616506,2.4510203868984093e-06
29.34963808623,28.980888661197085,28.70219812125333,28.4208669164498,28.253524855096764,27.9809820524756,30.132213373091446,29.839839303480343,29.56343506528548,29.3681361125199,29.097968551642815,28.805267272291154,4.067746524748977
0.301525908161738,0.3013984420607996,0.3038971324273326,0.3030682909962933,0.3054150237993261,0.3077269155313036,4.74897154249447e-09,4.794982883925505e-09,4.840646045838755e-09,4.840641022141712e-09,4.883995015722463e-09,5.025479508752414e-09,360.0635459265309
-55.15058671547317,-54.73097649440536,-55.1466960931828,-54.47982343426521,-54.76530737905768,-54.47680583652701,-54.53914650807343,-54.981776189792754,-55.35851894491053,-54.64153971524718,-55.33001248744616,-54.795479241652515,0.14754169758172367
-54.66880373027437,-54.87270078696268,-55.11372959453807,-55.274125152415465,-55.484623133078834,-55.68199243764057,-22.922731377052173,-23.041157066321546,-23.097442186537663,-23.18830010538277,-23.273046694936287,-23.357115492411538,247.4729835776375
-2.2676032158628345,-2.268968513386772,-2.2694993229590508,-2.269599720517648,-2.2687618599123147,-2.26548860842569,-2.2429302096946395e-05,-2.2442240555505236e-05,-2.2475725469369065e-05,-2.2532313265153442e-05,-2.262977770290047e-05,-2.2768477532962493e-05,360.06354588781073
21.403196068103306,21.23550530718019,21.21189426934233,21.14408316681114,21.047579399363343,21.12635575540453,0.005146768395989503,0.005134009708629654,0.005112767455699592,0.005092999241191323,0.005104899374128361,0.0051227089181517735,360.06353167003505
13.59584688890522,13.421433420396838,13.348623169957454,13.384334150200766,13.316361067089296,13.24871449573609,14.564630009137199,14.35169233029156,14.239840349672662,14.30324745179657,14.26953119515473,14.164984004839372,25.83107390171532
-5.771069948868344,-5.787185475584559,-5.81354667676617,-5.846746538597891,-5.85351387105323,-5.887675605902983,-0.9727458561352531,-0.9702695911337812,-0.9576487164909879,-0.9400829170707857,-0.9148418747014228,-0.891623784499458,359.91493985190255
65.33918307890161,65.41157308660901,65.51743007165973,65.5674343456614,65.69850142481573,65.68604403287638,65.43381774972963,65.26121589756107,65.40713672330932,65.21179700159736,65.59924926624967,65.51666755974537,0.015444950880160204
0.0420558531244557,0.0224311459637087,-0.001502301188691,-0.0268768767237074,-0.0478722895579313,-0.0641538858471377,1.4198720767211281e-05,1.4769667052517515e-05,1.5048245547857792e-05,1.4985330423973975e-05,1.4650935549805039e-05,1.4086295569945037e-05,360.0635459252217
5.614861519240883,5.660473060607165,5.707877180079785,5.753279675298416,5.798576698188143,5.845646739070294,5.61522169992269,5.660088406591759,5.707816704839595,5.753499534574991,5.798708530246378,5.845132229912246,4.341136766752999e-06
51.5272996164695,51.52729946141088,51.52729930864233,51.21053299653842,51.21053157183732,51.52729884948508,51.52706650830805,51.52734090620652,51.5275404099375,51.21090150997043,51.21097451262176,51.52777086570859,-1.2453276384957179e-08
18.54507461593737,18.5467933042884,18.55412692128789,18.63545927186181,18.64097796635816,18.570895289994183,18.586583851923933,18.582560769864358,18.58639921390568,18.667257612578396,18.673121847321454,18.602906978521787,0.027452399781546146
54.140834618672464,55.006341987776345,55.00634518052075,55.00634836302069,54.14081611158765,54.140811598833146,54.140828622097615,55.006336272183034,55.00633963117434,55.00634288057336,54.14081065444043,54.14080605370691,2.045603933612539e-09
-43.68673916826629,-43.50280241971432,-42.97874678380671,-42.6364690031029,-42.29916577037776,-41.9340486457573,-26.650169832185316,-26.472258242470026,-26.20067355033191,-26.264286368029605,-25.874100116605604,-25.447728589837194,245.94361557908306
-0.2369960914887413,-0.2437503487516742,-0.2495880357739446,-0.2519429378817635,-0.2491113420432745,-0.2398300159909441,-3.961636278339542e-40,-4.056575342597141e-40,-4.172156818409168e-40,-4.272024259585132e-40,-4.312261382422197e-40,-4.26371724914047e-40,360.063545926531
51.52728856438162,51.52728832013136,51.52728807419904,51.2104528268338,51.21045143408674,51.21045004185647,51.5277217105031,51.52726457407698,51.52692708186805,51.20987255126238,51.20973574183881,51.209674797952175,-2.736114510223041e-08
-12.711456174179103,-12.65671523855466,-12.487536787190146,-12.2667072051255,-12.014693676272987,-11.785383412531004,-0.7697664777949572,-0.763015306286118,-0.7572115434149865,-0.7514063851144193,-0.7462088619159222,-0.741143781618118,358.3537883856873
-64.06454089114285,-63.80490747686802,-63.961471566713584,-63.70827645107915,-63.45383301343211,-62.9438585113614,-63.266099937922895,-63.28798470837626,-63.234939926386325,-62.74424505433303,-62.2502812127496,-62.12560535223192,37.8180920760506
0.0437642142369026,-0.0441175523186999,-0.0441273914759312,0.0437364363685858,0.0437355792561263,0.0437376203476306,0.043714468367397785,-0.044120024191215634,-0.044104412430897355,0.04376820451579988,0.04376340378075838,0.0437527890317142,2.1192161610372852e-09
0.0001410119929748,-0.0003211847670933,-0.0003211249590576,0.0001412028434437,0.0001412644367692,0.000141325881688,0.00014101179473913206,-0.0003211845325177265,-0.0003211244977125993,0.00014120347378887566,0.00014126488927934666,0.00014132605153227562,2.7504293312478068e-08
0.8966576315361908,0.9555877095036804,1.0140396525917892,1.0426420681016475,1.0391659198413703,1.0175612661078113,0.15319136912292075,0.16442452444950095,0.174894381866097,0.18522322547000777,0.19010476238167084,0.18914896845002835,348.1621403073792
-0.0442903246199316,-0.044290822408519,0.0437253486463546,0.0437252711769034,0.0437251939194239,-0.0442928426724435,-0.04422383941709995,-0.044265995267778635,0.04372258088551462,0.04370799195021391,0.04370448738336563,-0.044308665208518505,1.497235471862324e-09
0.1389038629766462,-0.0228973518036881,0.1377819723883122,-0.0989864629943461,-0.0105016544188552,-0.1000683005438424,0.13994833477772772,-0.016375176317524165,0.14208861207589507,-0.0953107273671776,-0.009143547977146227,-0.10074152430752292,1.6684917028290447e-07
0.0001149735934901,-0.0003457204485827,-0.0003446910911007,-0.0003436199837692,0.0001188705808793,0.0001195923482871,0.00011532201597130864,-0.00034542187639807764,-0.0003444947285267119,-0.0003435213173159646,0.00011884584246169005,0.00011950381851633107,1.4191042091907395e-05
-0.0118351711365858,-0.1000690325106304,-0.0220335078163077,0.1389039678415877,-0.0228979779715274,-0.0111568103559425,-0.011828640766907483,-0.100068541651126,-0.022029373329132795,0.13890184019692242,-0.022900602674781112,-0.011161671194713563,1.1913337230754506e-08
18.64218349791008,18.64218294701066,18.64218239579264,18.56807260139728,18.568071929490102,18.642180694244228,18.642179597198265,18.64217912129243,18.642178555513965,18.568068854190642,18.56806831085123,18.642177273068228,3.3692029417864535e-09
-0.2015745448796103,-0.1757340331171178,-0.1475941413174082,-0.1178864233473909,-0.0918336802873258,-0.0697618824810587,-3.5358540259722987e-12,-3.1802677448233305e-12,-2.7725786384577882e-12,-2.3286119149465886e-12,-1.859909394552462e-12,-1.4488718874724344e-12,360.063545926531
1.0324924791498913,1.088698008612342,1.1446640339903764,1.2023408122630463,1.2573503577229168,1.3213147343528695,1.0829571319113604,1.1839979203633,1.2198676123241534,1.1697105232835168,1.329639207389755,1.4002581656420479,21.636988460740817
2.718094110327081,-2.301039768753613,15.048767940645558,-2.705089102471762,19.26043256802764,4.4639828993040105,2.1464191964248085e-33,2.1989198142790466e-33,2.2627138359101423e-33,2.3334564061415406e-33,2.4061681873971308e-33,2.4785352320346385e-33,360.063545926531
18.263863794705507,18.10126116140024,18.1012600161738,18.101258871477484,18.26386326364992,18.263863129029403,18.263863522792235,18.101260629166063,18.10125929662172,18.101258052065532,18.263862492012777,18.26386243869274,4.17376469234233e-09
9.693323369188768,9.703359335349097,9.672682652354212,9.679548617932667,9.731675962587529,9.7399912576855,0.002873479775519643,0.0028849475458469524,0.0028796266045644945,0.0028824906680839416,0.0028955512186470095,0.002898693733723906,360.0635138289034
18.64222556416404,18.64222504040076,18.642224516255222,18.56812479789234,18.56812413588793,18.56812347374507,18.64223147724988,18.642230854718946,18.642230125595233,18.568130200947053,18.568129243692965,18.56812830879062,5.0275528436316665e-09
55.00437794748986,54.13969125418551,54.13977930621736,55.00469865574311,55.00515485878408,55.00560777363459,55.00515286677728,54.14033889374696,54.140113482571905,55.00446924637072,55.004531774902716,55.004596148151904,6.732013028168541e-06
2.757477313563311,2.821412078325415,2.8800688294314867,2.9291659576216293,2.976034220589089,3.019219173141768,0.04057292636326158,0.0414164316672452,0.04212246613704934,0.04279644871560326,0.04341746395855284,0.043970385418445834,359.98908665687634
-1.2517334559839313,-1.140034784793292,-1.4084448545482908,-1.676554361088391,-2.3575610218796967,-2.626163828979452,-1.112380528787078,-1.0774954309185993,-1.363180755245855,-1.6157087308951592,-2.270541008712163,-2.568460701043156,0.2124818472233099
0.0002009336796193,-0.0005854300603413,-0.0005851397022352,0.0002018898174045,0.0002021983925191,0.0002025062244212,0.0002009064121892834,-0.0005854562967968491,-0.0005851659284008548,0.00020186542691824627,0.0002021747982672295,0.00020248330405792103,1.945640207016487e-08
0.0001314337988615,-0.0003304149608394,-0.0003303329414546,-0.0003302511194483,0.0001317800946885,0.000131864383368,0.00013143412137939237,-0.000330414818601632,-0.00033033289044892555,-0.0003302512303515748,0.00013177992688911955,0.00013186418126676092,4.281880875015587e-09
16.097370107655447,16.008061939631006,15.9357997086726,15.897335613977578,15.796121756253813,15.75485291276408,16.257190590012087,16.175770757537308,16.110227802991357,16.033259708975056,15.961170026458499,15.902385961337856,2.6986856455323873
-21.410452046070304,-21.408106934425906,-21.425562371114783,-21.40810144471889,-21.40052972142253,-21.41036297980964,-21.41045740522737,-21.408113443380202,-21.425563630422612,-21.40810385209647,-21.40053294469386,-21.410361155576794,2.12455486788088e-08
67.00327833897221,66.95326661492517,64.88425896359618,64.84529245861825,65.69936822948621,65.6494997094296,61.72501489496946,62.94068395343634,61.39367283181983,61.98760150829915,61.518348697356075,61.76256197126103,19.44048232717123
-21.408122118442783,-21.400123111403275,-21.41047041317159,-21.40054488238348,-21.42558073319317,-21.40756363547739,-21.40779075519391,-21.399719194931308,-21.408121403041363,-21.400531495099358,-21.425251811812146,-21.406184266398018,9.9814932610646e-07
8.457438208529968,8.43135728254689,8.431504261354638,8.40465711995483,8.377584981222542,8.349183397063657,3.0998964846906385,3.100520379702478,3.0907058422349594,3.081180950120806,3.070792180633969,3.0569309751921483,307.1901247269634
63.71123289466261,63.64823510382167,64.11710042031181,64.02977176733287,63.94083770238876,64.37033462750328,63.6886029046198,63.94574290127696,64.79093588717842,64.54182278789392,64.3647765201286,64.65111525854147,0.23375011739981602
-13.347391034637385,-13.259356629571185,-13.09893845826712,-12.004059548650416,-12.809070030694388,-12.776826375127165,-5.462494437033516e-10,-5.414801955868202e-10,-5.365296344380426e-10,-5.089244506516256e-10,-5.01714132108352e-10,-4.913055809030259e-10,360.063545926531
-0.0310946574007071,0.0001046373826767,-0.0008119199894093,0.0001579544010704,0.0001012954546136,0.0001610464287925,4.331170402037602e-82,4.031496812917058e-82,1.81115587523346e-82,2.4218314452251444e-82,3.129882153974633e-82,2.326133360353418e-82,360.063545926531
-21.74526022500513,-21.618224591354863,-21.530265869629048,-21.402645213376697,-21.273398337375205,-21.085408802057906,-20.650858585667887,-20.538769912319413,-20.444300940747702,-20.349627664206356,-20.22047935623489,-20.057110477911166,7.2686180539313705
21.635479954887707,21.55492052758642,20.73635392958659,18.219458538156584,15.214757308220356,13.043077913594832,1.2544763945849502e-22,1.2068365773435792e-22,1.060355598573664e-22,8.854847721694886e-23,7.590950444190376e-23,7.512887305859522e-23,360.063545926531
-21.41042220269109,-21.400171542264825,-21.41051883633853,-21.408173758206885,-21.425629130491032,-21.40816824039788,-21.410410498423783,-21.400167644256964,-21.410519346947932,-21.40816461258171,-21.42563098169039,-21.408162926909714,6.653412157068606e-08
51.95629695472276,51.8059617359175,51.65642756122136,50.953790465412126,50.78023074680192,50.606959729745554,50.98595350484743,50.886925841628454,51.726013069581995,50.8802117436212,50.19733510121978,50.11697775762218,5.944040641258689
2.4121525787609257,2.415536001100381,2.4593943232850988,2.461867664202849,2.253332639720216,1.8983443456800724,4.0556727845614375e-10,4.052062162468464e-10,4.057745042590282e-10,4.131220173155102e-10,4.1350921072807786e-10,3.7846363537304224e-10,360.063545926531
-0.3611674368266716,-0.3611676395356747,-0.3767777080831556,-0.3767779329516113,-0.3611682656286782,-0.3611684690323592,-0.361167759252794,-0.3611679665277734,-0.37677803008136834,-0.3767782488971534,-0.36116857549041015,-0.3611687705983968,3.661548644987589e-09
8.08866569763376,7.882145932937139,7.878074695796725,7.674570087508246,7.468638380859959,7.023993349477385,8.335486611792764,8.107650304350656,8.074268662328883,7.868967080213935,7.677148332604665,7.2311191623507405,0.2116023882447078
-3.2297261590880817,-2.899013852490937,-2.9230145876665383,-2.676086904226187,-2.395613014815757,-2.219329651189489,-2.0868435570272337,-1.9745447444141844,-1.830197871874452,-1.7548092756156213,-1.576476612490818,-1.5665959777480798,288.21414805104445
-2.143467981045845,-1.8814051055665464,-1.8142478848419392,-1.747363732588379,-1.886764614974353,-1.8239085545471327,-4.650559407371157e-93,-4.385033366268519e-93,-3.433553596516436e-93,-3.2135866844436508e-93,-3.5495870101500066e-93,-3.276368302191346e-93,360.063545926531
-0.1636386992485832,-0.1707477319788479,-0.1796840928721257,-0.189671797031699,-0.1970622694070062,-0.200912396106111,-0.021864355376606845,-0.022998931029964222,-0.024329844090954556,-0.025341618480582254,-0.025903596272052912,-0.025973767647909998,352.54578420281416
-0.0118343185196775,0.1377816869970495,-0.0220321612393858,-0.0105012637296424,-0.1000676298930114,-0.0111559708850786,-0.011833116674097255,0.13778201438253745,-0.022034696768969297,-0.010504964040592313,-0.10006788780810894,-0.011159539906657301,6.447046699423764e-09
-0.0044795355468366,-0.0041888057668071,-0.0042289558018591,-0.0047014144927046,-0.0054674853553664,-0.00628576656829,0.0014314018939934634,0.001511987804263703,0.0013435590732832955,0.0013072141844783038,0.0014229613764672406,0.0013595365341948088,360.0623236851673
-0.0003340141977877,-0.00033392351765,-0.0003338330554299,0.0001280811251957,0.0001281743222663,0.000128267295055,-0.0003340300402734364,-0.0003339407827924745,-0.00033385038164635006,0.00012806626915692898,0.000128164446256962,0.0001282646229920914,2.967338133278764e-08
-20.03979201823948,-19.757041095126684,-19.620270213643,-19.572920074938487,-19.439835551060884,-19.306087073450247,-20.823609194656193,-20.60395191970494,-20.382274012625018,-20.24128620326066,-20.20593894050503,-20.075181774790586,91.22492693224278
-4.3591415430972855,-4.290830720567863,-4.208170049202477,-4.140003646392827,-4.0718872277831375,-4.043665006810215,-2.5179256788276936,-2.484128863770684,-2.441382275978505,-2.4050215063905016,-2.370825829389412,-2.3533174630900144,259.61111800960333
-23.896640142961267,-23.388351644345303,-22.86907073656217,-22.356537259348706,-21.890108662729368,-21.470529489902468,-5.930504905598161e-30,-5.808449878217472e-30,-5.684902456897037e-30,-5.558683159643151e-30,-5.434103930283169e-30,-5.320731208887071e-30,360.063545926531
-5.203282119610749,-5.109302044015866,-5.067556537927307,-5.0007549174705135,-4.912456790937256,-4.844636590921734,-1.170126642766966,-1.1589776186876017,-1.1450658708722656,-1.1201735999077296,-1.121663450566138,-1.1025633143068507,323.6691178638018
-2.4318587439724406,-2.431722324671379,-2.4297852312171235,-2.4316895185161305,-2.4297215569413777,-2.43191099900091,-2.4318586538651,-2.4317222259297244,-2.429785179550051,-2.4316894321481457,-2.4297214778329916,-2.431910896708477,3.625755453943503e-08
-0.0003226906977583,0.0001395864241447,0.000139651911002,-0.0003224956064297,-0.0003224326441694,-0.0003223698334052,-0.0003226908382192306,0.00013958627331156492,0.0001396518135612368,-0.0003224956032021886,-0.00032243264640574587,-0.0003223697719219598,3.841060161750021e-09
54.12009139113552,53.74754903105773,54.477322533669415,54.371352203007135,53.08945907329268,48.45333802054327,43.610803470015526,44.664361915085465,43.608089132234454,42.1731332289055,40.07191562093794,38.58750718086958,51.19560767922051
-45.83114773944988,-45.80593527468953,-45.14808569298454,-45.191598440457895,-46.42485170848822,-46.458917693407216,-44.48410203055925,-44.35193980547756,-43.9192839387372,-43.92470083889171,-44.893508079177174,-44.6087713482544,99.4681341915226
10.55688486270966,10.555931380744514,10.640038413016578,10.611619485236591,10.397329617785164,10.265608874400508,10.543244000691082,10.67204712590246,10.6819359670544,10.666398646478441,10.578874016621047,10.426247249567776,4.114329680382164
-4.638515886532276,-4.604485900153154,-4.57983658349174,-4.53861705537509,-4.512218313642447,-4.478820292418302,-4.114774730857334,-4.088714564179549,-4.055613629692811,-4.03327189784282,-4.000571991490643,-3.968481569610097,134.3288183303853
0.1678157209268273,0.1726687549129732,0.1772968389734444,0.1817972856010271,0.1872793233348287,0.1929519306278959,0.09765265858446703,0.12150091411940622,0.12039777671610463,0.1245805699399597,0.13036889928751688,0.12527377194500622,281.38861913640454
19.22578002842982,19.282778928734995,19.24884501460032,19.154930820816222,19.12144644198246,19.08729955932713,18.831793560161316,18.89073131211289,18.842428041236943,18.792598895693565,18.691116078619416,18.652463853770712,3.931692151556129
-0.3289593298260522,-0.3289595990040441,-0.3212855258538546,-0.3212857924777405,-0.3212860591703616,-0.3289606988720341,-0.32895951592399797,-0.3289597888606295,-0.3212857152157085,-0.32128598017789045,-0.321286245688043,-0.3289608850896002,2.0404311824962053e-09
66.4224314515458,67.35649735459819,66.42240355441285,66.41611542546671,66.4139736569336,66.40364515546538,55.87012881840141,59.68159323394181,58.03393560291967,60.70046557470072,57.15968289180927,57.90396333505949,64.85958440249196
0.6721077295629025,0.5454462642976532,0.2641009482285903,-0.0306602622495642,-0.3218635038950636,-0.5674326661369797,1.5611743671222005e-14,1.4540692469797374e-14,1.1800439331033023e-14,5.713683655145453e-15,-6.63317738237137e-16,-6.963344375065188e-15,360.063545926531
0.3043095990124329,0.301189650382429,0.2981215753421491,0.2948500936493035,0.2916373179051713,0.288354272558332,0.2984589780927282,0.2954298595785289,0.2924070665612717,0.2892476290271932,0.2859582088592697,0.2826280971001561,33.05736338051529
-0.1147669249494732,-0.1147702409707368,0.1149564944715386,0.1149567590994809,0.1149570230780532,-0.114783698438221,-0.11479713255539536,-0.11478125699795783,0.11495979584287852,0.11497442447580397,0.11498163390206173,-0.11475556250661612,4.302969783412947e-09
2.638079700067899,2.6755900105855672,2.7005246437568684,2.725402953466852,2.737993372969246,2.760572953578232,0.19100981736484382,0.1926676919450387,0.1951112556385738,0.19686314217200374,0.19866230366045387,0.199582149329153,358.5791749823016
-44.3670831990598,-49.25998985151711,-48.98050275487676,-44.24287752427403,-43.8461224964397,-43.44886722686047,-14.640391902387446,-15.899239301571859,-15.85148791862214,-15.76463909713611,-14.53600660560374,-14.443891617468926,326.38002762231025
0.1884943742048269,0.1929616311011697,0.1949386318190654,0.1970235474022652,0.2006218190884272,0.2029981705870362,0.003571191704716738,0.0036372865683598843,0.003723083380896112,0.0037613741965917893,0.0038020858008514656,0.003871316457454279,359.9324654560649
0.7641831893491376,0.6195521309453629,0.4551582911222315,0.3123848284936351,0.1754322041339962,0.0544318756649361,-2.788157524623074,-2.8991469184183813,-2.9767784003053634,-3.0718230032323106,-3.1558452499740497,-3.160378483142779,245.25177635914883
27.954084736442244,27.688520085146656,27.28687281025024,26.881803339937925,26.417507571696373,25.90760651349114,4.8917045362915824e-15,4.820746841248064e-15,4.749184691928203e-15,4.667159983615309e-15,4.5770787881565575e-15,4.47860455149635e-15,360.063545926531
-8.80603045021078,-8.76368210635873,-8.713021078886374,-8.66140032525889,-8.596542555998678,-8.543759002399964,-8.670622937587245,-8.587511736849038,-8.50497860887464,-8.45723296608799,-8.388182169671031,-8.343604257499294,8.437386479238606
-0.0004547702017757,-0.0007096364657048,-0.0003792794706271,-0.0003907807439186,-0.0003191769537326,-0.0006541189290398,-0.00040923139724746704,-0.0006606832912119387,-0.0003422151587728628,-0.00036193753173163756,-0.0003034933463323952,-0.0006439576229688715,0.23652255244039935
-0.0310832451637887,-0.0310833389928954,-0.0348975687029402,-0.0348976724696061,-0.0310836270474227,-0.031083720065909,-0.03108434600289911,-0.03108443843666464,-0.034898588026408106,-0.03489864576840773,-0.031084603280760348,-0.0310847798245959,1.5355479361745085e-09
0.0669870909286357,0.0381209291977659,0.0040605560535988,-0.0315595708991362,-0.059729656148333,-0.0805075947610573,4.415198716528821e-20,4.702970849798329e-21,-3.6552565705133846e-20,-6.91794000591175e-20,-9.324458677542946e-20,-1.0698817188966152e-19,360.063545926531
0.0002034507132407,0.0002037555289543,0.0002040596105329,-0.0005825104283679,-0.0005822270950525,-0.0005819444434123,0.0002427737016290621,0.00024245431431069164,0.00023878238183527856,-0.0005570284203315623,-0.0005735587398589814,-0.0005940543544937782,0.13874424296793933
8.395020649712846,8.654119519390617,8.879084250736183,9.11482431429154,9.26799711067474,9.390075337038224,8.610636402077477,8.88955214836927,9.045691198336783,9.221270534082421,9.37789239316551,9.559295852764134,0.7778626706195635
-2.4297215569413777,-2.43191099900091,-2.4317878898214644,-2.431863517788228,-2.4317270963329154,-2.4318923281559064,-2.4275551149416392,-2.4288136553951194,-2.4272591926319182,-2.4265281743772142,-2.4272794331057987,-2.4267237984218286,0.006015097379625159
-21.063935519146685,-20.827038241603635,-20.699159197972453,-20.57028853519937,-20.50050130535996,-20.372617276334644,-22.004685930214162,-21.833456427406464,-21.64063474571379,-21.48008910102966,-21.434153656325844,-21.298873659832665,49.557009009816035
0.1358156667915424,0.1407733088796054,0.1410316582466986,0.1408145757278763,0.1412212895231172,0.1357505029843074,0.12800673618686864,0.12951431137435687,0.1225164970213719,0.12605407964780468,0.13102818796381932,0.14930696463712956,132.15684222993096
-6.084483731445545,-6.069075158969362,-6.051049547570998,-6.034937515064463,-6.019940905358889,-6.002846689467488,-6.129174519536284,-6.1119363421695665,-6.09544720741755,-6.079475265106,-6.062739701074563,-6.046927113048281,23.431829658794108
9.59326655205059,9.656105708770372,9.827338663238551,9.920977135622312,10.157002841799182,10.22574382029772,9.333775823053983,9.374686173755784,9.47343196418186,9.74585888769661,9.82351152939404,10.115716759598525,7.19889919508254
