Roblyat/algorithmic_payload_estimation/payload_estimation/data/result/effort/pipeline_0_effort_k_results.csv
Actual Effort Joint 1,Actual Effort Joint 2,Actual Effort Joint 3,Actual Effort Joint 4,Actual Effort Joint 5,Actual Effort Joint 6,Predicted Effort Joint 1,Predicted Effort Joint 2,Predicted Effort Joint 3,Predicted Effort Joint 4,Predicted Effort Joint 5,Predicted Effort Joint 6,Variance
0.0191322153564682,-2.807668111589198,-0.1583386545024209,-0.0002987763928185,-21.996817528501648,-50.99728047751315,0.019154168120053328,-2.8075530473113304,-0.15831790926922196,-0.0002910786450343039,-21.99619768058028,-51.033613462830544,0.00010381526445422865
0.0599620239669451,-2.515114762642751,0.0257949503547599,0.0354732898442861,-21.704323618065978,-46.392690262869245,0.07057427930249105,-2.6821306460940377,0.0421829351865739,0.17542966175710006,-20.845941646755364,-48.97543768443575,12.257136636782407
4.6804109629846665e-05,-21.31338492164595,-56.414383429505726,-0.0002467832716606,-2.6546379199523025,0.2551545263130565,-3.195442923242808e-05,-21.31346762478597,-56.41455673402379,-0.0001680657510405581,-2.654661269155895,0.25515491632003773,9.926911423173338e-05
0.0048241787798665,-21.31183328915774,-56.41582526963628,0.003055642619173,-2.6519241023570927,0.2574470840062554,0.004123994188830693,-21.311793395526365,-56.41486908326624,0.003693476566695608,-2.6521046185073374,0.2573905556148759,0.0001351429931747269
-0.0004654194248364,-2.654398028892037,0.2551315944348996,0.0002367319033218,-21.313161822971807,-56.4143474500986,-0.000521188500840708,-2.6543895748166904,0.2551501454880736,0.000266090348304715,-21.313274545873128,-56.414048806909705,0.00010129256088640873
3.090994455347668,-0.2387695733088716,-24.82450927586569,-44.436681107080574,10.24173141361089,-4.814181464223712,2.9974495054273014,-0.21592954973195666,-24.690905162347903,-44.395338313528555,10.613392050468192,-4.768796747487803,8.97511891752268
0.755019390073731,-2.927112996634605,0.3108747666677767,-16.19494175084477,-39.65991838933823,-7.526909531821378,0.4175218677260606,-1.9013104897315183,0.1973308243959631,-10.971796105619177,-27.285243303674513,-5.163903247469287,130.31872212563124
-0.0002433709690146,-2.654652494896287,0.2551563068303634,4.368063918613089e-05,-21.313399360209925,-56.41439393099432,-0.00020255381127753935,-2.654664085453902,0.25514767787365855,-7.054399304706749e-06,-21.313466231558436,-56.414639946917305,0.00010010697613603484
-56.41435355662082,-0.0002529985885374,-2.654599382297428,0.2551497220009095,5.251963975808965e-05,-21.313348371067107,-56.41384444199957,-0.00028095831748942146,-2.654571948176951,0.2551541147883256,8.881134817784186e-05,-21.313256180639655,9.951149246654937e-05
-0.0002567302123242,-2.6545996869497137,0.2551496795440651,5.509097798904321e-05,-21.31334877419596,-56.41435825161888,-0.00028888608346733236,-2.654589515531171,0.25515780148376166,9.124543448280065e-05,-21.313309922136682,-56.41415184172365,9.946997829666985e-05
0.0191301607228923,-2.807660201238553,-0.1583384081279758,-0.0002971915182935,-21.98872980919918,-51.11609523349088,0.019163492170264362,-2.8077338576233615,-0.1583528911101837,-0.00030012616595342934,-21.988916800833977,-51.08899537596153,0.00010215172233239615
-2.806973687033711,-0.1636610357109534,0.0002655814752493,-21.996795030278147,-50.99726009315312,-0.0170998427582144,-2.807049040384385,-0.16366519456283868,0.000263168429455618,-21.996354502604163,-51.00290448174928,-0.015247165943037544,0.0001023046118023693
7.379870452973078,-0.5268304927752296,1.7436839592455244,0.0860233839410749,-15.275084579381396,-40.63048790318369,7.547779412522221,-0.5095418773790512,1.7683414944403133,0.08853727022643493,-15.375295877717637,-41.055775422636316,1.1065515281327138
-50.99728349938822,-0.0171035784816029,-2.806996890665355,-0.163662051504633,0.0002608503164525,-21.992975535458392,-50.99737768564091,-0.016908950800370803,-2.8069538438265056,-0.1636399200213816,0.00026386718482740434,-21.99678749524128,0.00010293555630079468
-0.0026809056255249,-2.8071830574480603,-0.1624491128543768,7.894081023316078e-05,-21.99296171139854,-51.04098470313991,-0.0027821386488540156,-2.80716974595191,-0.16246591275716327,7.547580452893499e-05,-21.992814342047495,-51.04756558588997,0.00010426383070859161
-18.212880714040992,-49.92550882527399,4.689257739179277,-1.683660863855677,1.23371332211073,0.1019069251468961,-17.52229623810309,-48.03326490558445,4.544295130754754,-1.6176623093120095,1.1922415340945376,0.09935580021960827,13.116862098133682
1.4725931624040018,0.1327722156743518,-16.79939591150406,-40.8317176447249,4.509258856175596,-0.7513217813865926,1.216806472504068,0.11253755845479337,-13.626035443670203,-33.760536497133934,3.7540597285179285,-0.5808023024982926,58.84635031368566
-26.84264249354544,-59.19238584186937,0.7305590407469682,-4.041653927324507,-0.4361218387894778,0.0015667165387341,-13.959523607228682,-29.847717536966258,0.34839384881440516,-2.089047464246173,-0.21722300497915642,9.189198259906828e-05,134.26287488367782
5.746837013667146,-1.3940836190275765,1.4206618605977603,0.0690271841681776,-17.917081334846987,-51.49234718983906,4.484097402840027,-1.2433440994819993,1.1216364851106686,0.06965465011082395,-14.899246115679194,-42.27398776427156,80.8810103953904
-33.46187848970527,-70.32417872929004,1.456455971480881,-5.244658956497046,-0.5583716788759047,-0.0261926683403018,-22.356780637004388,-47.09228488937135,0.8812933549770767,-3.4742138438222936,-0.3575688848639131,0.0007684467370203096,110.8130536626068
4.229553661823882e-05,-21.31340604482382,-56.41439887795661,-0.0002417190968903,-2.6546598874172664,0.2551572043705956,-0.00012131505081924843,-21.313612070481668,-56.414811722015656,-8.317402352986392e-05,-2.654713017683889,0.255158672852545,0.00010078651914278895
0.0191205180008975,-2.8076262872985707,-0.1583373751393083,-0.0002895665190331,-21.996770105252747,-50.99723822992967,0.018826674137130794,-2.8075140793459923,-0.15834537065264698,-0.0002941200239163777,-21.996562578031444,-51.035275157366414,0.00010556993081132974
7.543106296775122,-4.232783129181672,2.022423571590856,-0.1033129264936296,-24.299479143010625,-41.66431350476815,7.787200781417134,-4.388497260941,2.089873735448851,-0.10684120292517651,-25.25197429720009,-43.24330781526073,13.169742356876101
-54.51061269997512,-1.0160156150013564,-3.011972257991097,-0.3162545118988982,-0.0172335205739884,-21.1529871917634,-53.44739773636013,-0.677444034869211,-2.9690836605688062,-0.30347301545440075,-0.04336599352562587,-20.674861309439166,6.079184978556585
4.567024234081559e-05,-21.31339004352123,-56.41438712978584,-0.0002455116731486,-2.6546432530665225,0.2551551794763401,-5.453822359413607e-05,-21.31350346803538,-56.41462100303761,-0.00014659412227047142,-2.6546742127309244,0.2551558890537535,9.955555464267932e-05
-2.806976055626213,-0.1636611370616882,0.0002650702521035,-21.99679771439285,-50.99726250303243,-0.0171002837820084,-2.8070491924077743,-0.16366456015649788,0.00026305277054916587,-21.996336121908143,-51.002948346221274,-0.015229965802973311,0.00010230789612984596
-1.871215056652324,0.7441986318930726,-0.0409322988198022,-17.89101181491561,-50.31418791853004,2.919239723218212,-1.9620709439769042,0.7817865029176732,-0.04121894478512513,-18.809412195810857,-52.89809961520211,3.0375963577453615,3.987664256249447
-0.7275484848597343,1.963039352639248,0.0478742422175522,-15.006607004859848,-40.93214550264125,8.336627410166578,-0.725591842900237,1.962938746281562,0.048137124603669396,-15.00129041261313,-40.91311653123689,8.30640256061084,0.011707247147912145
0.8164531490167538,0.1253336267411702,-0.0068308305416411,-16.24761080809919,-33.96814427044652,1.5149206215789874,-1.1878159245961548,0.14445111478131523,-0.036704161728067675,-10.453470513120976,-17.686067441452906,0.24455753054695606,136.70282819314485
-0.0666865804574039,-21.99888853474664,-47.905626517002034,0.8990500188839987,-2.968342864403184,0.5687433257833514,-0.10248209326653068,-22.673524131035606,-49.06259496366283,1.0814528594141848,-3.076976599875934,0.5302472352594378,15.01349524892703
-51.040996855503856,-0.0026805780964448,-2.807198126189065,-0.1624497421211682,7.59793603306497e-05,-21.99297883030889,-51.03992942231935,-0.0028993103993570912,-2.8071476556184507,-0.1624713693110209,9.059150516321779e-05,-21.99270636943038,0.00010519356573178343
-0.0712252770499962,-0.006435042301803,-22.2217321395478,-33.69135340786667,0.0328681009624143,-2.943468310149936,-0.061000732068041685,-0.013165248861653822,-22.27982268622356,-31.91548647138734,-0.6251861947675934,-2.8787504609916823,4.5059366095002265
-21.313385766387395,-56.414384037690304,-0.0002465716519502,-2.6546387998167744,0.2551546342051074,4.651845128929089e-05,-21.313444745233937,-56.41455122282082,-0.00019380922958589508,-2.6546399215389442,0.2551528245651298,-9.876029366751027e-06,9.934015730715588e-05
-0.0233972018846093,-0.0104716980534917,-21.803946874346902,-33.624444182260035,0.055054067609677,-2.70344382254757,-0.014635431197474347,0.005782230596608429,-21.882423119416217,-33.96807011412602,-0.1356024490710297,-2.724228352332119,3.0228533534407536
-3.564529545381893,-0.3201790699591862,0.0013117927801711,-23.032055441350337,-52.635939650246726,0.0220052264858634,-3.667185061248766,-0.357384374994993,-0.007032184446572387,-22.835873689547498,-57.535501954593315,1.6540142850283104,24.465100884789877
-0.1636617248740632,0.0002623161844159,-21.99296699794055,-51.04098849682107,-0.0026807946528424,-2.807188016193496,-0.16363490540835812,0.00025491673051192265,-21.99351178052467,-51.03242077558389,-0.005431032346677966,-2.8071040030475842,0.00010585979120657144
-21.988699456181727,-51.11607912387639,0.0191229385903964,-2.8076343605194607,-0.1583376173786988,-0.0002915060003706,-21.988912197648233,-51.115552200286515,0.018902010443696327,-2.8076541470130962,-0.15836073477473178,-0.000289819965814786,0.00010203507750526556
-0.432002115059728,1.8022724461940696,0.0883048458669293,-15.01574517294336,-40.26602806074456,7.851995758564557,-0.34802476764785617,1.8976683345858545,0.10036430142285772,-15.22275009909644,-40.93990015612872,7.811173181696132,1.0716114512128756
0.360041643410705,-0.0262976242274833,-15.46802786908752,-38.27069520787124,0.4109955987117525,-1.0958432678678995,0.45035117764087396,-0.0383963480151408,-14.383950273993996,-51.80980647032629,4.558906949871471,-1.3990331830453044,55.39836012787387
0.0013117927801711,-23.032055441350337,-52.635939650246726,0.0220052264858634,-3.34699436900032,-0.2687960734071093,-0.0832518505525286,-15.870629135143531,-34.39231220933334,-0.34563706555468343,-2.360278028001403,0.026132283266736778,98.91361588587876
-2.8076525101339374,-0.1583381661563435,-0.0002955817510648,-21.98872095586792,-51.11609048324969,0.0191281827536654,-2.807598906337674,-0.1583254894792745,-0.00030912476620414964,-21.989279951394565,-51.110318264663874,0.01723049746169636,0.00010335205542043228
7.787327526624901e-05,-21.992967734983896,-51.04098902866214,-0.002680780413217,-2.8071886633449323,-0.1624493469759744,8.241055252256047e-05,-21.99284900272255,-51.041013757107066,-0.0026384420029899047,-2.8071727895951426,-0.16244365311470688,0.00010299686343438667
-37.83981633978415,-3.511137567858116,-5.565824666363048,-0.759640034702759,-0.2259442957817487,-26.34318004786758,-38.22061058384606,-3.7893903746345163,-5.590278723763761,-0.7569272091630774,-0.22689849030862017,-26.46399994785008,0.3860805946909823
0.0002704242040568,-21.992924550249985,-51.04095906366043,-0.0026816950571442,-2.807151289133037,-0.1624477860066147,0.0002704558289678971,-21.993228803159695,-51.039703942866254,-0.0030846670479149907,-2.8071720712461,-0.16250234055218016,0.00010981335148750519
0.255154029133263,4.7577428107366847e-05,-21.31338146067115,-56.4143809465756,-0.0002476582062844,-2.65463431395276,0.2551498813962212,1.0245428256894229e-05,-21.313384219110276,-56.414648662652326,-0.00014042230395716615,-2.6546455857211413,9.905865744196022e-05
-2.859727136622445,-4.748889549239025,-0.6118616137165638,-0.1790455982412866,-24.400660381326382,-42.46703081508701,-2.5570892511723753,-4.36379937899647,-0.574454216479676,-0.15826099788365453,-22.788306959929198,-40.35964460023935,77.67843747425428
5.475455392569609,-1.448382700382052,1.362639200962033,0.0683721760262707,-18.22004560272263,-52.18239241820272,4.134146977860874,-1.25436586488022,1.0423947886466542,0.06763271172580414,-14.746046420757917,-41.691893596497835,80.5942985907165
-0.0008689662345551,-2.8139049943744667,0.0351484867497566,0.0127728423172993,-20.91515664239198,-53.814738588778894,-0.19576823184161185,-2.8498428573837202,0.04511049928175481,0.007036305704410495,-20.61987078313018,-54.29357632219762,3.096433285877625
-22.166245355590583,-46.59677985964194,-7.672757921085352,-4.851091880486081,-1.5108155859154957,-0.2011041355297629,-22.267289561505777,-46.8254898356779,-7.78108073054409,-4.868204183628649,-1.518106462696096,-0.2015365446735493,0.12559863388313083
-20.753861166401496,-52.162046689534726,-4.705407743840176,-3.650365148742813,-1.0495872270269675,-0.0892428138173294,-17.34016978935031,-43.248101780656086,-2.988084119600361,-2.977497794276991,-0.8364609030653701,-0.08005744140654143,92.99199185915155
0.010808597324423,-20.82844201294557,-56.4266233259911,1.2618900707222394,-2.3956537989382047,0.5147824513904533,-0.3379690223337093,-20.953348625877425,-58.45869597211913,2.4102612502097145,-2.4912559142551913,0.5227173784634047,24.62184696982584
-37.19191268974092,-4.002572414829148,-0.6290203902311441,-1.3577244691081178,0.1771430286318136,-17.576355118992083,-36.37761855508508,-3.6185568197451525,-0.6280045919736431,-1.350448896908139,0.1739868035312681,-17.34586166352316,0.5266654982522442
-0.0002478751324238,-2.654633427587009,0.2551539746272042,4.767366161598529e-05,-21.31338103559273,-56.414380642581605,-0.00023194119376057643,-2.654639352878462,0.2551511473106842,2.685104547595074e-05,-21.31340853939878,-56.41448900583782,9.89967679191203e-05
-2.654396153863251,0.2551172438301059,0.0001274668185193,-21.31315895818964,-56.414291544225584,-0.0003097504537191,-2.654379537485056,0.2551306898840693,0.00015572428344512446,-21.313174666188843,-56.413448856148534,-0.0006068913885428628,0.0001006252841210106
-50.99724905585192,-0.0170979622931145,-2.806963091314564,-0.1636605684461742,0.0002679513468636,-21.996782943869185,-50.99802030267574,-0.0170765166703859,-2.8070221952717986,-0.16365645104284,0.00026187142880473857,-21.993648971990297,0.00010324772867585567
-0.1583375313290651,-0.0002908442150294,-21.99677617799936,-50.99724348749547,-0.0170969779670907,-2.8069575414536856,-0.15840130589038637,-0.0002711627384428539,-21.99627194433083,-51.00442796217976,-0.014761253456526902,-2.807028920928019,0.0001065718175271421
-48.232068519722574,-1.8646283594940245,-1.419143548791164,-0.3560076928249096,0.0296688988202307,-20.946452907272764,-26.27013731696094,-1.1360829816937952,-0.9327233312845553,-0.2559816187535685,0.029355783293165107,-11.398735431384717,163.19878383311485
-0.017101170349862,-2.806981747262482,-0.1636613873713146,0.0002638678216894,-21.99295828990653,-51.04098234494954,-0.0170314778864622,-2.8070548439020513,-0.1636655849105395,0.0002606537912228646,-21.993433208785518,-51.001436650927644,0.00010331023915620322
4.699697970247857e-05,-21.31338405913273,-56.4143828016467,-0.0002470039660075,-2.6546370203779106,0.2551544158069034,-2.8109645882068435e-05,-21.31346154899711,-56.41454579435049,-0.00017171959325423813,-2.6546590709886004,0.25515474859474807,9.922668957239226e-05
-42.95714646023166,10.78182986126479,-4.920837434347738,3.02439010136673,-0.2438811908442138,-25.0413666974117,-42.78599491331404,10.80040543676914,-4.9238822502968205,3.019984759144914,-0.2450678954010341,-25.036830142603026,0.7329988415958172
-2.654605739533239,0.2551505609652201,5.417078485792113e-05,-21.31335456215477,-56.41436220452016,-0.0002550215742782,-2.6545951285087312,0.25515530839389555,7.597266437642247e-05,-21.313321918923975,-56.41396097224606,-0.0003684103385239723,9.901942590483018e-05
-2.80768011603622,-0.158339041590771,-0.0003010464058937,-18.55062209338856,-43.60170423433228,-0.3227007037130832,-2.5122147517889033,-0.07388767116821526,0.006551154623650746,-19.017336630822456,-89.11687993707528,11.81750628108557,2.4678326826993686
2.212543158782741,-6.281068278863713,-0.836902343562722,-0.0508010036343345,-38.20339220556035,-78.77798564285183,2.2509768741984795,-6.26776828574328,-0.8386062323200529,-0.047152578556255875,-38.10597087090164,-78.59352164883882,0.25017025008446747
-56.41439114124275,-0.0002441767672249,-2.654648991096985,0.2551558799511729,4.4392110818200175e-05,-21.31339599164785,-56.41470046532277,-0.0002071709858455506,-2.654659880152991,0.2551489411897876,-1.7243963725377398e-05,-21.313446069959355,9.992770287846257e-05
-51.11610148847578,0.019132798723225,-2.807670403672057,-0.1583387301380567,-0.0002992221332654,-21.988741473151325,-51.116518706584884,0.019110431274498296,-2.807682571883788,-0.15833988754255302,-0.00029018489968279937,-21.990373327502766,0.00010459941174355195
-4.559143970785674,-0.3409187889987616,-1.711027082565094,0.2865053202645733,-17.39506945055335,-38.55841293303981,-4.5460201123629265,-0.4006974320616301,-1.6559820207573699,0.2573278377736721,-17.40993315013915,-38.05125779117553,8.489623012227357
11.259315394941536,-4.585872668183466,3.038198698160318,-0.1780267262777063,-24.003848142115903,-46.00469456764422,11.231962229134439,-4.569610018795679,3.0219636780672756,-0.17650912681476927,-23.937749056935353,-45.859532513612564,0.15569037611015965
-51.11609341207197,0.0191294520769191,-2.807657539761114,-0.1583383221913411,-0.0002966423391428,-21.98872675091632,-51.11635339053964,0.019028619813298064,-2.8076859540690293,-0.15834866224054167,-0.0002910377594176339,-21.990490753950326,0.00010320479106150274
-21.313350893926387,-56.41435934336074,-0.0002554639774223,-2.654602574800545,0.2551501080316977,5.428273111537596e-05,-21.31328564822934,-56.41417126234796,-0.00030696090408355303,-2.6545982484657316,0.2551523119850003,0.0001057673792956848,9.92286182695942e-05
-0.4232665409211967,0.109011077142611,-20.088795782169385,-33.408875312984016,-0.6253278129096864,-2.1163398242090325,-0.3979277050773453,0.11888786278976893,-19.825162538567056,-32.65891276927778,-0.8602499243302191,-2.080389446980192,11.789562441450387
-21.313376995769914,-56.41433643011804,-0.0002031013667052,-2.6546400414154667,0.2551565830728727,1.8699908899277217e-05,-21.31324004080693,-56.41394351910412,-0.00032438523044220346,-2.654632783163308,0.25516052119093047,0.00013679911830877245,0.00010029330158710296
-0.0264020304850364,-35.89433835418456,-75.01287607706094,1.866050845826965,-5.690726224093528,-0.7647733567106013,-0.03130374690006072,-37.55996046951221,-78.40715774306612,2.0284064967512365,-5.964397955726264,-0.8002579859028821,15.328013532815449
-41.64330384045967,-0.2541538718668269,-2.7713634821763566,0.1037761571894622,0.0026478679238729,-21.8062805633911,-42.7041265687144,0.14588133376270207,-2.878952738019251,0.03146452612485007,0.02916244681336977,-22.49295272154677,12.080070451617475
-0.002680577156549,-2.8071955358703624,-0.1624496381809891,7.646987555736461e-05,-21.992975897315883,-51.04099504327763,-0.002821631653660006,-2.807163292076325,-0.16247653563775089,7.230571954863763e-05,-21.99272262147406,-51.04683212778764,0.00010510639777004586
-0.1768038095780306,-0.0053397995832527,-21.206165832917872,-54.412890263643305,-0.1279902198411571,-2.836295073343595,-0.10348929316266897,0.16366893892563894,-21.00334571664939,-53.758874549876055,-0.5783630956584602,-2.805259111666601,0.6317632357676092
0.0191243576492113,-2.807639221351585,-0.1583377633213011,-0.0002926360920017,-21.98870553738824,-51.11608227067224,0.019000630190362244,-2.8077154880544413,-0.15836646680870103,-0.0003014631622733077,-21.98910056987188,-51.089824108581524,0.00010229601656584678
-2.654645920469466,0.2551555052993405,4.502383547295715e-05,-21.31339302531861,-56.41438929023508,-0.0002447878942692,-2.6546573390851904,0.25514586442987763,5.526505901798373e-07,-21.31342845979816,-56.4148775791582,-9.618761669116793e-05,9.958729251190094e-05
-2.807151635524507,-0.1624478004670842,8.596863127226936e-05,-21.992925362220102,-51.0409596049071,-0.0026816764880693,-2.807205059574599,-0.16244059967145574,7.515105016864254e-05,-21.993082996444173,-51.0421537139955,-0.002368997932990169,0.00010558159601879639
-0.2336048531533561,-24.996514802757936,-42.95714646023166,10.78182986126479,-4.920837434347738,3.02439010136673,-0.21357725405072348,-25.523288914402144,-46.11413998390036,11.097318056490519,-4.997971880537491,3.1732750380425725,11.78651191295839
-56.4143883719432,-0.0002450932859714,-2.6546450326582347,0.2551553970009191,4.520790393729504e-05,-21.313392171568378,-56.41464485231836,-0.0002116782214898194,-2.654653605292765,0.2551493013509969,-1.0187017835505685e-05,-21.313434235020168,9.965972202673116e-05
-22.412303355076205,-44.72500264789677,-8.028208976028045,-5.0364642067657,-1.4652721935465935,-0.2261917957070569,-22.973588359437713,-46.007805560753695,-8.358978796209897,-5.163259929865248,-1.5134142592303874,-0.2334064570851826,0.729288236926921
-1.590462871307088,-0.2483131849684186,-0.0071412217997783,-15.037994827787186,-40.93486767995986,-0.4394521520515198,-1.0154158159349507,0.06159632900923029,-0.13942358298990598,-13.027762996448644,-39.146376868301445,1.058719071013229,97.7800675962691
0.8788102931302156,0.0364696209369281,-17.974512427519016,-45.74143634911483,4.96852426001107,-1.7570604482692451,0.8001790971598428,0.04722535538436381,-14.38122006557048,-36.652096273385695,3.955886700198517,-1.323497192908502,58.42963414588732
-2.807657867995956,-0.1583383324205704,-0.0002967105307229,-21.99680605300572,-50.99727000293099,-0.0171014538755133,-2.8077145425580454,-0.15837400956026215,-0.00027481336081791596,-21.99590739531368,-51.00537452499884,-0.014391535395589017,0.00010556397015358458
-17.917081334846987,-51.49234718983906,5.475455392569609,-1.448382700382052,1.362639200962033,0.0683721760262707,-18.05303081273708,-51.971290326868356,5.551755556941382,-1.4517281049470707,1.3797557096050295,0.06587047287257387,3.501158288297491
-1.3596260338753745,-0.8811580868454376,-0.083721931826873,-0.0370633279118552,-9.941610472903273,-34.89106710229104,-0.2833666735273077,-1.1589031305221873,-0.02813219901848374,-0.00021004831066995244,-5.679430589273384,-28.10244760161254,146.59228339613398
1.9624926602291053,0.1427017876884568,-14.76072095193583,-39.2039860299985,6.891930408153735,-0.0603707193136505,1.9936629987790493,0.14057306579229922,-14.726194487806701,-38.6972323446486,6.816985316133331,-0.068867945630954,2.950442977575877
4.33283335137249e-05,-21.313401028047306,-56.41439516828334,-0.0002428770553792,-2.6546546770947987,0.2551565721934077,-0.00010094775097968522,-21.31357852447718,-56.41475344024548,-0.00010250754985463573,-2.6547010962397053,0.25515783919070145,0.00010034929334944068
-0.1636612582353491,0.000264497387007,-21.99680076296597,-50.99726522846121,-0.0171006866068027,-2.806979073238292,-0.16365762850251997,0.0002646714077059187,-21.996556213634392,-51.00178872269316,-0.015685424099501688,-2.8070270394144927,0.00010181899063064962
-20.67126719359085,-48.23263515909928,-0.6108587072088797,-2.7054187737853903,-0.1368509348901073,-0.0069946418951236,-20.711945634017525,-47.99531556517786,-0.46761651930410153,-2.659862701206876,-0.17668411440007503,0.015693344121814334,3.0227689149889176
0.2795948054967052,-16.208577064384105,-41.41594108126476,-8.264575231722368,0.755019390073731,-2.927112996634605,0.25848181789460944,-15.82581882738068,-40.89549452944726,-8.164678047524532,0.6995916769929004,-2.840028551414322,68.26393835601266
-4.344737432743315,-1.269117987161451,-0.1320239793292093,-21.167540554659524,-47.35966564531937,-7.503841770068372,-4.3435438731901215,-1.2680937080145203,-0.1323292784015545,-21.137700936454422,-47.33538526270709,-7.349888397714208,0.022199121388128393
0.2551518264372627,5.157085664778441e-05,-21.313364392816588,-56.4143688997989,-0.000252160710242,-2.654616503924773,0.2551540490472419,5.73419476950221e-05,-21.313356912132576,-56.41435898796772,-0.0002603820339572849,-2.654614239920079,9.875799537604949e-05
-41.351769116625725,6.799197849960313,-0.642077871914845,1.7634082153692854,0.094003598723282,-15.976517507965134,-41.18727474825488,6.808910611189063,-0.6342085690990693,1.7622909508609683,0.09460318895943631,-15.947559988005082,0.03314395892181375
-0.0026807980473166,-2.807185380409168,-0.1624492140870558,7.846712555281159e-05,-21.99296435908243,-51.04098667619648,-0.002789713938909699,-2.8071686227432338,-0.16246795575501238,7.486923507826759e-05,-21.992797334922216,-51.047427948360564,0.00010435375705407283
-2.6546594622248785,0.2551571528369808,4.229553661823882e-05,-21.31340604482382,-56.41439887795661,-0.0002417190968903,-2.6546755834580154,0.25514322730562355,-2.1478360849869205e-05,-21.31346254364348,-56.41512878062713,-2.1182699128985405e-05,0.00010059289314932799
-56.41450306337599,0.0002268154124405,-2.655193430210756,0.2553596243447922,6.71393006407819e-05,-21.31391059683006,-56.412409815388855,-7.229422294585675e-05,-2.6550731568817554,0.2553531156581528,0.0003672250087447537,-21.313341156976094,0.00010228065969096393
-16.019726188404437,-41.6978364241991,6.762602966054306,-0.7078615423756801,1.6507040429457,0.0870598979795579,-16.06924225672732,-41.72191759056567,6.762197496365821,-0.709817803983335,1.6530017684477363,0.08760172129398953,0.026318975701601008
-0.0170989168442815,-2.806968583470087,-0.1636608108060399,0.0002667062744017,-21.99678922115464,-50.99725493023753,-0.017036835649491877,-2.806941704445194,-0.16364111811586213,0.0002717928429305516,-21.99667624137328,-51.02213417216262,0.00010190294287491711
-34.57650773969801,0.0380159319061226,-3.082257640061836,-0.0712252770499962,-0.006435042301803,-22.2217321395478,-33.84954473270568,0.06666172980149554,-2.84659440116382,-0.07263378814984378,-0.0036009455867613838,-21.459488759624378,17.76460777376502
-1.5663758414997453,-0.8169479224100705,-0.3990093210552476,0.0332154026517607,-14.894755186784964,-31.810945911613885,-1.363704061245791,-0.7659543844016099,-0.15375969475452456,0.03858300160346584,-15.945745302979972,-34.24750107320142,56.447489162350024
-75.01287607706094,1.866050845826965,-5.690726224093528,-0.7647733567106013,-0.0203523619077248,-34.85047612623034,-72.51752236616954,1.8910255290568774,-5.482425426211228,-0.7331864783524733,-0.022741506518475754,-33.930527393698746,35.9211089375338
-0.3300966415230293,1.8653477390640485,0.0920945112775591,-14.745089755500588,-39.99104502041025,8.04370489247519,-0.2311442640710461,1.964280126151893,0.10531483690729092,-14.93266447005972,-40.407279330819314,8.042316648170539,1.2908916666549162
-2.8071679116642367,-0.1624484802501778,8.218158905720664e-05,-21.98871114456051,-51.116085207917656,0.0191258310669024,-2.807159506124137,-0.16243535689122268,8.885474818498551e-05,-21.988945858215857,-51.1140589926963,0.01841308296070565,0.00010492332680365949
0.0191320503893255,-2.807667466599122,-0.1583386340621538,-0.0002986498480186,-21.98873812375214,-51.11609987598852,0.019216430013784702,-2.8077387449651496,-0.15834840371216075,-0.0002997530672814719,-21.988853405473492,-51.088709837174974,0.00010274814531095659
0.7775453771590605,0.1322976842554787,-19.536365281787443,-51.56829789536685,3.1468977184464744,-2.091949150427512,0.37336175967384283,0.07634401995809399,-10.702312580098683,-27.77787281998226,1.5766983008038824,-1.1924752240065213,167.27632909083783
-21.988705141197173,-51.116082064431765,0.0191243576492113,-2.807639221351585,-0.1583377633213011,-0.0002926360920017,-21.988870212506527,-51.11562875716925,0.018942227830848424,-2.8076540341965597,-0.158357187640064,-0.0002911561923042427,0.00010137072351477842
-0.9764470760192556,1.7421239466253036,0.0368872341562554,-15.486445434277506,-41.70626071944446,7.960638014332564,-0.962536951754438,1.7508560336971393,0.037363340771501705,-15.386121220997877,-41.55319102817596,7.934173812685737,0.8652430663203193
-51.04096160610869,-0.0026815553100957,-2.807154441695651,-0.1624479218944613,8.529262415428183e-05,-21.99292864089416,-51.04114475445385,-0.0026798414550057714,-2.8071820679524535,-0.16243777153371752,8.395968820451571e-05,-21.99319779133748,0.00010445850117145242
-0.0429272760874801,-33.648751498871086,-51.722958950829394,0.0652973063640821,-5.373063192921267,-0.2817483294194235,-0.0439692188076273,-33.85339752341113,-51.70610494456884,0.47478600505060353,-5.405406407952107,-0.2930461198506977,0.14751856321939436
-1.3568863038636587,0.107269145399155,-20.531959869265588,-47.84074354602671,-4.737979069140319,-1.5370505368432157,-1.3553649040660132,0.10600469562863116,-20.459265233841624,-47.33574279377913,-4.612987156180466,-1.5360543239969786,1.1193992738535614
-0.0170988589590582,-2.806968247117548,-0.1636607959727124,0.0002667814903475,-21.996788837489028,-50.997254590691455,-0.017038098800071566,-2.8069415241006936,-0.16364113612443276,0.00027181681186050355,-21.996679021411637,-51.02215005476319,0.00010192750133507148
-2.654604124556533,0.2551503659719421,5.4421399579526686e-05,-21.31335299724258,-56.414360994308,-0.0002553703242554,-2.6545921721890977,0.2551558526069755,7.973443200626207e-05,-21.3133168377974,-56.41391177377591,-0.0003827561104117194,9.910114002474516e-05
1.6584688630669018,-2.358275592102222,0.4734863116197807,0.016839899177299,-19.146016479159663,-52.98652307842341,1.1048432314465149,-1.4542851404530388,0.30959941052821865,0.014913584048929906,-12.206757135540172,-33.308734014991664,126.55892161550997
-1.4642360006032598,-2.12140310119748,-0.0996831355779077,0.0199058672902502,-17.018170292068437,-34.92792014999762,-1.2578502547622321,-2.2033699997824314,-0.2003823200425856,0.032373249466293164,-16.87961273329924,-34.205211511021844,21.801444098423104
-6.714280557369142,-4.308562556574649,-1.212663560238446,-0.1328049694204254,-21.37154465667616,-47.52441237691348,-6.761428063332934,-4.308052853442383,-1.2105961342862976,-0.13289888811575498,-21.34892635045809,-47.51427809141674,0.005891581517831187
-2.806968583470087,-0.1636608108060399,0.0002667062744017,-21.99678922115464,-50.99725493023753,-0.0170989746410265,-2.8070485617494114,-0.16366663038198226,0.0002633537186511603,-21.996393958893805,-51.00280433125954,-0.015285379167380597,0.0001024386076283598
-2.806974020022832,-0.163661050375058,0.0002655091565293,-21.99294941555119,-51.04097602079913,-0.0026811484202401,-2.8068920034911997,-0.1636259747096105,0.0002667996267291528,-21.9937306957454,-51.03289182905246,-0.005412928875102807,0.00010435702955811835
-0.1583381763896023,-0.000295652500857,-21.996800389343928,-50.99726489257125,-0.0171006319931298,-2.8069787432936266,-0.1583848160364525,-0.000286881117062876,-21.996138692087584,-51.00454097374313,-0.014667972069219104,-2.8070353245357182,0.0001049318237579108
-0.4455035977685644,0.0428179754228517,-32.43992816455132,-68.60453587818095,1.317530767235885,-5.026000591486581,-0.34320859626411976,0.017878708379949693,-22.645613846408786,-47.430163064684,0.9719432097598152,-3.520915511755535,95.26408821764956
-56.41436972125833,-0.0002483971256059,-2.6546294328813103,0.2551591868161144,6.987424255128914e-05,-21.313376793781025,-56.41365475386692,-0.000295165998977609,-2.6545904996710448,0.25516376041287003,0.00012663657125244754,-21.313235513511017,0.00010003742758778104
-1.378197850613295,-0.1737445930314475,-21.858958191661547,-47.8024823312114,-6.645968319515637,-4.473651335402941,-1.383052048061825,-0.1743440340109872,-21.78461315304894,-47.66142128373669,-6.618376424708543,-4.459067269626295,0.042691893359973906
0.0002644276859321,-21.992955227503685,-51.04098010012671,-0.0026810285187179,-2.8071777252011927,-0.1624488901443632,0.00025980889927268436,-21.993018537087096,-51.03940722027073,-0.003114127495791763,-2.8071614274168724,-0.16250844479739612,0.00010671147632189318
-34.875700153110024,-1.3596260338753745,-0.8811580868454376,-0.083721931826873,-0.0370633279118552,-9.941610472903273,-21.680802593311995,0.040013251321720844,-1.103557838027434,0.07200469397667142,-0.032053009657807774,-8.986537953063866,167.18628836351806
-50.997270671183685,-0.0171015599759379,-2.80698440767107,-0.163661507171418,0.0002633183469589,-21.992961338069183,-50.99739260826345,-0.01693878773266988,-2.8069592957816667,-0.16364200685899277,0.000262849844169466,-21.99691088680447,0.0001020645405861295
-21.313330151385166,-56.41434816047024,-0.0002598746338597,-2.654583388542942,0.2551462365599343,5.255000404865994e-05,-21.313242622053963,-56.41408945195121,-0.0003381613312285481,-2.6545784000103794,0.2551498222973123,0.00013254127088657697,9.982526026584752e-05
-17.974512427519016,-45.74143634911483,4.96852426001107,-1.7570604482692451,1.0117720005069135,0.0382283756742172,-17.672737243106493,-45.30168729624844,4.760552999244637,-1.7313383290500122,1.0024427485693268,0.037511603311873684,10.416852935176282
-33.69135340786667,0.0328681009624143,-2.943468310149936,-0.0447058273948419,-0.008618494881546,-21.86334926554856,-32.784989959428685,-0.07617876780858523,-2.811224812184804,-0.06298783582457901,-0.014916598828954575,-21.135517703595724,5.326318199149542
8.005110552706542e-05,-21.99295560596293,-51.04098036729897,-0.0026810208208887,-2.807178054810938,-0.1624489039111612,8.117491347547912e-05,-21.992931256175552,-51.041158749882015,-0.002622055576466664,-2.807178711549682,-0.16244034024543907,0.00010255159330250977
-42.51780824858386,9.68032478678881,-4.732656563718879,2.738696981676521,-0.2145805683970209,-24.86418390710288,-42.60614384285165,9.392503551267481,-4.708307464376777,2.7294948123119376,-0.21570284664911948,-24.7733503663134,1.9312070115575766
-4.8922571395733705,3.090994455347668,-0.2387695733088716,-24.82450927586569,-44.436681107080574,10.24173141361089,-4.835044515534003,3.061403201062639,-0.23948071817104857,-24.475087511863173,-43.700419029026904,10.05231638296964,0.3332003711393571
1.9804495202086512,-0.1107630037333533,-17.182891324524025,-47.24353574896547,6.992313916289389,-2.9854933664694414,1.5767110585324926,-0.011078370731861282,-16.50079757074128,-43.711464232994715,6.37706305792946,-3.073731384660375,42.97822069069909
-21.21996567828075,-56.30000422009402,0.65902958549911,-2.848307569389679,0.2308255546072196,-0.0255202809095793,-19.691507638662245,-53.006238526773814,0.026973802713797568,-2.734301488945867,0.22157691571160854,0.1286222483828965,6.485021587517396
0.0002698306623872,-21.99677374591273,-50.99724138701663,-0.0170966429153887,-2.806955434626176,-0.1636602270850671,0.0002739285182542517,-21.997081655598322,-50.99890244376729,-0.016804902008971112,-2.8070165232280715,-0.16362089748355402,0.00010644437435468249
8.334394193379894e-05,-21.988705141197173,-51.116082064431765,0.0191243576492113,-2.807639221351585,-0.1583377633213011,8.115386708595906e-05,-21.988853088951828,-51.115985594748054,0.019054472936204547,-2.8076607640504108,-0.1583409811628087,0.00010469002637757045
0.2551241181971385,-5.456338755456485e-05,-21.31327741544373,-56.41426568902381,-0.0001756005831471,-2.6545719500918388,0.25514116967037026,2.30649084187462e-05,-21.313315099628653,-56.413925157834456,-0.0003859525468214997,-2.6545569328316105,0.00010034247543609568
-8.223184913283063,-4.426313269104418,-1.5362770391572018,-0.1612209130389984,-20.7249798510974,-48.210007179614045,-8.303389482756026,-4.4389117805245455,-1.5385594004208754,-0.16139562918134628,-20.763600745717746,-48.30705650404835,0.026445126705341923
0.4137366663335622,0.0480582270681519,0.0139751868375911,-14.9702142204455,-49.23718393907288,1.0638748535171485,-0.2329472953956631,0.11743456854560161,0.010000434334237487,-8.812838337786234,-25.292246490161045,1.0761423669649144,165.759738622252
-40.64215525324183,-0.6151893407165625,-2.620135796339872,0.0715436634921694,0.018168477559014,-19.34399682396419,-40.137413550347674,-0.6862252993296352,-2.6794021346765504,-0.028357333446429323,-0.01698093696659697,-17.694290532700734,23.42453099266004
-51.040999080752144,-0.0026804696471268,-2.8072007068897213,-0.1624498540847328,7.549750321329514e-05,-21.99298173829459,-51.039862665318196,-0.0029101829350111075,-2.8071455436185317,-0.1624730707395372,9.098851037947497e-05,-21.992675929379857,0.00010564850589554667
-33.713199872519766,0.0928484867579122,-2.700603797819293,-0.0105282512891243,-0.0093643647033853,-21.85809262400508,-33.78202417462148,0.06492724838170716,-2.6642463172339603,-0.0012893572782530782,-0.009125411135288308,-21.69128671288513,0.30711014311174434
-21.313185267085835,-56.41426244277297,-0.0002451313532903,-2.654472410929453,0.2551159090614658,-2.432868046388866e-05,-21.313207810887775,-56.41423023368043,-0.00034011209925211006,-2.6544810643914474,0.25512527949882724,8.17872264633479e-05,0.00010054232771659814
-2.285673391942416,0.1870243182625537,0.0507070672367924,-21.489519612602408,-45.84544871608154,0.0599620239669451,-2.5495576405369995,-0.12560821790012788,0.014076448951598763,-20.56742146460897,-46.873321786629276,1.4087292981776045,7.660895292129625
0.2551564679358559,4.3414291392323385e-05,-21.31340061552801,-56.41439486390701,-0.000242973735614,-2.6546542484050217,0.2551457569915314,-3.807814346146188e-05,-21.31341902642498,-56.41493507521591,-2.277407838846557e-05,-2.6546787461312533,0.0001002550169476443
-18.120968018592865,-50.41754684969391,5.435549501787762,-2.831601500299771,1.6594466325491397,-0.1335938291762798,-15.45450599634902,-42.1928184861478,4.3860149606454835,-2.49650582524604,1.2923704016922102,-0.07238994970280714,105.99072968536493
0.1106216734306648,0.0203167653440584,-19.484866817269616,-44.329629322590336,0.9853315571109852,-2.2013423761177378,0.048504779205838844,-0.13721458878023896,-18.327612364338563,-45.65403064194834,1.9280043826906876,-2.20354628656645,46.728314647821264
-2.654648558513313,0.255155827208098,4.448064155712002e-05,-21.31339555964897,-56.41439114124275,-0.0002441767672249,-2.6546609988300816,0.2551453293499719,-3.869907573061937e-06,-21.313435163507165,-56.41492875282893,-8.092375628621085e-05,9.975619849621112e-05
-1.1134880735403028,0.1954338779013002,-18.026802906999468,-34.93062466176783,-2.6016813608733407,-0.9852063451413332,-1.0588763440383748,0.17935414052263726,-17.435977243005755,-33.86739623434249,-2.555361802506545,-0.9789582417320002,27.23646503926193
-34.4786341141758,-72.04112522983864,1.602619895793244,-5.462538501512379,-0.6053738878418076,-0.0573513408862582,-12.847578166216712,-26.621819184641044,0.5662329659674871,-2.022111742979847,-0.21695752551667263,-0.014303197348332287,193.5790845468199
-0.1624493199511822,7.793776595566043e-05,-21.992967366614327,-51.040988762740646,-0.0026807875123599,-2.8071883398596658,-0.16246717572802538,8.185540002614289e-05,-21.99278928854011,-51.04178184453485,-0.0023777613205311354,-2.8071783262038252,0.00010276513967420656
-44.73878258455296,9.051672170834475,-4.491027274713307,2.663119449497844,-0.1895990940067978,-24.163099938615456,-45.10979421619271,9.004809712205244,-4.517887292442106,2.6809325470577305,-0.19067670041184492,-24.307010874607684,0.06111460022919056
8.532383036091584,-0.4744169564756528,2.14094704443166,0.0716572479709623,-14.7161605663659,-40.288896543167375,8.504031764130028,-0.4763366763599417,2.1400672264020755,0.07145879447840357,-14.709030147262556,-40.2757818029719,0.0022917933731906167
0.0715436634921694,0.018168477559014,-19.34399682396419,-38.171217780601474,-1.4642360006032598,-2.12140310119748,-0.12253332102820735,0.0029232361686695185,-18.788851974563443,-44.246478976347134,1.28732466620977,-2.1621674794357375,37.753222561727966
7.616749635118055,-0.9764470760192556,1.7421239466253036,0.0368872341562554,-15.486445434277506,-41.70626071944446,7.673029976635606,-0.970623639301976,1.7515705255534204,0.03824808422251785,-15.513413115726223,-41.826513864751895,0.1307191572217635
0.0352750678269066,-19.925691721120323,-52.01834139897305,1.4034787016588126,-2.1538277864956874,0.4782771400957025,-0.017157154414276343,-14.376856156973428,-38.28833075974069,1.32236942970583,-1.5847015689136814,0.31654766599906325,150.1098920213703
7.793776595566043e-05,-21.992967366614327,-51.040988762740646,-0.0026807875123599,-2.8071883398596658,-0.162449333467601,8.23737379960221e-05,-21.9928515188667,-51.041018216656084,-0.002637959239564225,-2.807172973003617,-0.1624435526806849,0.00010297262940804545
5.125186525625215e-05,-21.3133657213368,-56.41436983232564,-0.0002517969884726,-2.6546178918596954,0.2551520561881727,5.721187517337967e-05,-21.313329160401736,-56.41430329949617,-0.0002529383277760644,-2.654610803035439,0.25515096097237233,9.875495348575428e-05
8.398049164638729e-05,-21.988701907974708,-51.11608044073972,0.0191235526543964,-2.807636455236416,-0.1583376772811021,8.123393718051375e-05,-21.988874515046405,-51.11601942617017,0.0190550345819247,-2.8076621920685056,-0.1583399767868343,0.00010509278482283194
-0.2261917957070569,-22.38958263272832,-45.05376981701403,-8.116240850266065,-5.050400493200433,-1.507333997135031,-0.22354815545885715,-22.79067546284631,-46.760324244258626,-8.207914825256161,-5.109381117254554,-1.5749330500070333,5.92870948751724
-0.3366225715994476,-0.0085070460727951,-33.20856170988758,-50.54140726390165,0.481759834912327,-5.159121743080881,-0.3281291145914267,-0.007186383925722906,-33.08425471795087,-49.982510162111524,0.9307067395621971,-5.132624016337534,0.5143909897611553
0.0104176191695356,-20.999200665851816,-53.859156765428416,-0.027049946230453,-2.837909460218199,0.0217727800816911,0.05122287149151816,-21.00518407240361,-53.81165086600049,-0.04338647128042794,-2.8209773958383266,0.016127763462208122,0.05229246439083278
-56.414389594488526,-0.0002446868147399,-2.654646789004661,0.2551556113353537,4.4844369710186e-05,-21.31339387598177,-56.41466967142105,-0.0002096581405339748,-2.6546563996213024,0.2551491411046243,-1.3336612568082273e-05,-21.31343952951056,9.977479445120922e-05
-1.4290163578287514,-0.18342737574932,-21.93811861269486,-47.590525594761125,-6.8770450041594025,-4.563606937242176,-1.4320613182834168,-0.18379581817800458,-21.855274562016923,-47.42371407181997,-6.836426805139401,-4.546457846713481,0.035873954260184124
-51.469430515455954,1.735699261554302,-2.027059695013161,0.5448762236272481,0.0352750678269066,-19.925691721120323,-46.74239633769311,1.4525808981350998,-1.8380173629210246,0.4547673033468456,0.03664153180972954,-17.653861272419213,92.69773233618824
-56.41438373360804,-0.0002466773382707,-2.654638360042889,0.2551545802857742,4.661212410595764e-05,-21.313385766387395,-56.414548368722535,-0.00021969638953578396,-2.6546428390090995,0.25514990547787875,2.049446749197159e-06,-21.31341340952008,9.928076900843267e-05
0.9171213849815628,0.0383173364269497,-19.948420424713007,-55.2509279544478,2.609262395022653,-2.0803685686671747,0.49176044172501887,-0.0016923086268882948,-11.3827924732195,-30.89415266795757,1.0912396672721947,-1.2355580475023198,146.74266398923746
-14.925038488539416,-36.51536195155232,0.1630387916582645,-0.7379598989611894,0.3287642413804412,0.0485020420296706,-14.704245524854883,-35.054896545591646,0.7480500675134811,-1.1614263536943277,0.03975981560168407,0.11654144092052121,86.52468647955132
0.9772431015234476,-2.1238974834805715,0.0328263558874158,0.005927165385807,-17.49248382880574,-29.714272754767222,0.5595774234310511,-1.8205196766747136,0.0666384463388141,0.053987274711853495,-18.733153770730027,-33.44384179326062,32.10421804483491
-5.0364642067657,-1.4652721935465935,-0.2261917957070569,-22.38958263272832,-45.05376981701403,-8.116240850266065,-5.052202107388922,-1.4711893660471311,-0.22646657512709178,-22.46370018768883,-45.2437028027727,-8.151623647080896,0.07523600113555227
3.1566575599624374,-1.6520597468674452,0.8238092826585645,-0.0152503360705032,-17.876324895551107,-49.62316047919401,3.1481685640499952,-1.6826267080587187,0.8207911868192823,-0.020773106363771547,-17.932234082521788,-49.89257613784893,9.619003485832396
-0.5392684414723616,1.4725931624040018,0.1327722156743518,-16.79939591150406,-40.8317176447249,4.509258856175596,-0.7033185932237618,1.1131291798983152,0.08652419253310113,-14.097562583613815,-34.64209160731414,3.8483394037263716,59.324964615025465
-0.0026811589676323,-2.807169964605574,-0.1624485702123647,8.172621864978836e-05,-21.992946670322628,-51.04097418692567,-0.0027361662770317707,-2.80717532672611,-0.1624536433316095,7.899229212426917e-05,-21.992909871937627,-51.048353783233324,0.00010442045805968051
-0.0002501415248042,-2.6546243415343214,0.2551528545960655,4.968151138479683e-05,-21.31337232985311,-56.41437446368717,-0.00024680198004034537,-2.6546266108778696,0.2551529325588362,4.39051269012225e-05,-21.313381236054056,-56.41440563344804,9.879432673352754e-05
-29.995881655030377,-47.16097024522255,-0.0547032958727092,-4.67464631649934,-0.1303977519748211,-0.0275459510776232,-28.31120667496114,-44.3850399055806,0.13357708125497383,-4.417300479270615,-0.12342822626694168,-0.028370410698902622,14.46147683957952
-51.04100088908564,-0.002680479040138,-2.807202959398047,-0.1624499439057848,7.508350160106655e-05,-21.99298427976393,-51.03980428957129,-0.002919654465927124,-2.8071436880773604,-0.1624745516508881,9.132403602762906e-05,-21.992649246165456,0.00010607300723273953
-0.3740561182980134,0.001822960673374,-24.18012489036226,-54.62710530284244,0.1866862309957034,-3.564529545381893,-0.14292048129646928,0.1429698866595217,-9.023576014541419,-28.00359084247725,1.820317628689338,-1.377092479461389,184.57027045950878
-2.283669009171847,-1.7997182685376898,-0.675622980624903,0.0599818353502974,-21.256062941707427,-48.71573873931826,-2.347694964740907,-1.6251522273294579,-0.6111645705689209,0.055574195278549704,-18.188050794152065,-40.825311687290196,37.229917134858596
-23.83710433208689,-46.76510907925546,10.512505331735532,-4.45034058030654,2.9547931785771384,-0.1910168846272883,-23.24720301165762,-45.46264556198903,10.24189430754308,-4.336752025163079,2.8739585973813098,-0.18775411619009946,1.319087972686306
-21.988698652320178,-51.11607871092532,0.0191227360868436,-2.8076336746864747,-0.1583375968935257,-0.0002913442618548,-21.98891812656052,-51.11554114510898,0.01889625447691401,-2.8076541578770957,-0.1583612428676986,-0.00028962740071847293,0.00010214506139215233
-21.31338534415548,-56.41438373360804,-0.0002466773382707,-2.654638360042889,0.2551545802857742,4.661212410595764e-05,-21.313442897981417,-56.41454686071097,-0.00019508117827626847,-2.6546394306572836,0.2551528180845821,-8.571623993702815e-06,9.931832286889845e-05
-0.1033129264936296,-24.299479143010625,-41.66431350476815,8.420922288621533,-4.416206048346119,2.277993155189632,-0.08136770223327076,-22.12050673458581,-37.24066220020092,7.08983105686234,-3.964254617994765,1.9261489179862419,73.52388921667111
0.1452903165869168,0.0263423464760146,-17.322166540856333,-41.21622538759535,1.101412530604395,-1.5015925896571811,0.21640307710673046,-0.05145571357496692,-17.921222809514703,-43.04329038409742,1.1591809107331983,-1.5364986420900095,37.14339250292966
0.5147824513904533,-0.0031163226165581,-21.17349195296091,-56.76697777170721,0.7121144797412617,-2.527689399999633,0.4445181842105601,0.04066368224869166,-19.948622856389193,-52.741833297162884,0.5891443571663331,-2.390145333367002,22.73759283640419
-0.9912719124421616,0.1035224411893268,-21.124786358391912,-48.07862178660805,-3.6044972402152777,-1.887890384653858,-0.9897704634901632,0.10319620574127557,-21.383126807937817,-48.50769757622911,-3.583291594187944,-1.9010581752888778,1.5539319442714843
-2.4758823965433816,0.3563633883294892,-16.676199306789414,-38.0570912200508,-6.118648889982205,0.1417983691872237,-0.30469823786215633,0.049948288470753326,-2.1526787809382393,-4.740828073557535,-0.6544010305151132,0.01745425250649709,206.15834345373068
5.429159741504719e-05,-21.313354159642376,-56.41436193108528,-0.0002551527705491,-2.654605739533239,0.2551505609652201,0.00011521713122419897,-21.31324167170169,-56.41413888748866,-0.0003081858899349754,-2.654578550050246,0.25514831748559175,9.893399078629487e-05
-21.31336262051345,-56.41436768194946,-0.0002526472951461,-2.654614651751708,0.2551516534552817,5.1898392180056825e-05,-21.31334052274167,-56.4143034174499,-0.0002672525633897749,-2.654612420614498,0.255152482304311,6.529627034979057e-05,9.885094024918076e-05
-48.68687152233533,-2.283669009171847,-1.7997182685376898,-0.675622980624903,0.0599818353502974,-21.256062941707427,-36.26573788696075,-1.9927977662606966,-1.4545168908892099,-0.5580554141731615,0.05569784063381132,-15.786097900386576,70.38207228036595
-2.658062735859598,0.2673824085012702,0.004568428805178,-21.31639650169853,-56.41671468968615,0.0168842316035784,-2.6581635239467687,0.26717306233719285,0.0038594394690107947,-21.31617496426111,-56.41953273786203,0.019269604574674304,0.00020602119534084053
-46.2782368056075,-5.665752966437989,-1.0895037921707371,-1.7732126837062234,0.1453482197935245,-19.59120267788077,-46.35910099129843,-5.697914299315511,-1.0896815498294887,-1.7658626800074835,0.1452532281140712,-19.599000435634352,0.7198316589464485
0.0368872341562554,-15.486445434277506,-41.70626071944446,7.960638014332564,-0.8473334994605917,1.8578069888372064,0.038752037448013255,-14.70634975296882,-39.38315194842008,7.583185461190414,-0.789440566827813,1.8031954075783672,9.304165105518196
-21.996797338163148,-50.99726216617512,-0.0171002283640115,-2.806976055626213,-0.1636611370616882,0.0002650702521035,-21.99682674568976,-50.99766198415534,-0.017012064738509025,-2.8069858451214884,-0.16364873206126163,0.0002631829768802163,0.00010070277164851619
-21.98872095586792,-51.11609048324969,0.0191281827536654,-2.807652841344209,-0.1583381763896023,-0.000295652500857,-21.988752944722137,-51.115826228732544,0.019049413817185723,-2.8076533818027656,-0.15834776782369886,-0.0002946447099247962,0.00010048888074885768
-17.171224699884455,-38.62390991373056,-4.830906087845561,-0.2707462156887839,-1.7795136843478232,0.3206835704894618,-16.978930261756346,-38.01845585511266,-4.678518487641763,-0.3020939880535073,-1.7029284730050134,0.2890032935699653,50.961666616852824
-2.8071883398596658,-0.162449333467601,7.787327526624901e-05,-21.992967734983896,-51.04098902866214,-0.002680780413217,-2.8071856671283655,-0.16246757989715377,7.464194345629949e-05,-21.9927697597343,-51.04227897519377,-0.0022035558122297516,0.00010271374469704356
7.99815133919545e-05,-21.99295598409692,-51.040980634429246,-0.002681013134438,-2.807178384230073,-0.1624489176698339,8.12141740880179e-05,-21.99292871049215,-51.04115428718433,-0.0026225818082821206,-2.8071785305897947,-0.16244044372513144,0.0001025539342281853
-0.1636620375075378,0.0002609113557459,-21.99682079531238,-50.99728349938822,-0.0171035784816029,-2.806996890665355,-0.16365577432795675,0.00025757625320466104,-21.996438324385053,-51.00170843760861,-0.01565752270289522,-2.807026399510505,0.0001025867555329704
-21.98871745304493,-51.11608855366043,0.0191273515979417,-2.807649811733682,-0.158338085829782,-0.0002950003917446,-21.988778980650068,-51.115784708239744,0.01902634694326366,-2.8076535744807245,-0.1583497878360447,-0.00029389631936282967,0.00010056965939662846
-35.80161549915314,-4.146910371221542,-5.932721944560469,-0.8096915658563915,-0.2601629483120576,-27.35606960483006,-35.84930909271108,-4.300352451474127,-5.910179557601035,-0.8070431732376276,-0.25924676541193376,-27.20633956749941,1.5016241089627742
-0.0809408893933639,0.0218478339411944,-21.839170512944094,-46.529135280648106,0.165613015011801,-2.6956913551467574,0.21145816768657255,-0.012748609797455401,-23.018812649850744,-44.65455827290134,-1.0135520021758566,-2.756331658618251,9.040903193910767
0.6450586790756677,0.010808597324423,-20.82844201294557,-56.4266233259911,1.2618900707222394,-2.3956537989382047,0.5737208781563101,0.0992153829408835,-20.152878502524857,-53.85139707471444,1.3853067221427864,-2.2702085102681338,75.23883348411738
-18.477709851362462,-51.58974120093431,2.454573710962378,-2.055567085594961,0.6423241585070482,-0.0282382074389637,-18.207280491804102,-50.85617153368943,2.2867297832549176,-2.04111706015241,0.6279038730627171,-0.028702461236776337,15.558234238242052
-21.99681788805744,-50.99728080831128,-0.0171031307123265,-2.806994286669965,-0.1636619404253633,0.0002613503071398,-21.996688391821863,-50.99767523480284,-0.016946557024027697,-2.8069824129157723,-0.16364629031937739,0.00026027475968248837,0.00010140704287829508
0.0191273515979417,-2.807649811733682,-0.158338085829782,-0.0002950003917446,-21.98871783834865,-51.11608875946124,0.019084665151694935,-2.8077255556785303,-0.15835950573710278,-0.0003007433588138042,-21.98900766319366,-51.08940492174588,0.00010184156215751942
-0.3760317630957318,0.067419777527671,-31.37548280930148,-66.98625022722504,1.2440303576065264,-4.7921810334565125,-0.2255858821575105,0.004744312115128507,-13.149545405185345,-27.1584920773799,0.5049730749070995,-2.0089538596647336,192.41953630277072
-1.5339062012266869,-0.2085922638062952,-22.166245355590583,-46.59677985964194,-7.672757921085352,-4.851091880486081,-1.5335242230352848,-0.208075310829995,-22.120996001432086,-46.4885080211618,-7.626134462736279,-4.8408510987857385,0.018084018602111715
-4.83862762214402,-5.519102798068118,-0.7920091406682457,-0.2147865071744991,-25.849185296725395,-40.34556260362775,-4.935366261966016,-5.536781014054493,-0.7923895029559416,-0.214509270732391,-25.937965157353652,-40.29099141579678,0.027183130040812617
-0.0002996605446567,-21.988744070280703,-51.11610320508688,0.0191334519859662,-2.807673006404336,-0.1583388103125476,-0.00031349429968940967,-21.98858224456228,-51.11481227760487,0.018857545927858155,-2.8076329128587076,-0.15838184897930319,0.00010389156790489765
-24.18012489036226,-54.62710530284244,0.1866862309957034,-3.564529545381893,-0.3201790699591862,0.0013117927801711,-17.541382836844825,-39.13850869985478,0.15162258756092228,-2.4911276619822385,-0.1987186569057222,-0.03962542656105228,79.34064146598689
-0.5268304927752296,1.7436839592455244,0.0860233839410749,-15.275084579381396,-40.63048790318369,7.621380542285147,-0.4832192224766225,1.7896148796320515,0.09201040194884832,-15.371709158494562,-40.99934061876908,7.574516592470376,0.5830451068117969
-0.1624490060149177,7.949006156014485e-05,-21.992958665774744,-51.040982611788486,-0.0026809036775921,-2.8071807265056314,-0.1624594319375916,8.171045186600168e-05,-21.99284563983582,-51.041895329042745,-0.0023683757081016665,-2.807181317922982,0.00010236808648920929
-56.41425537079632,-0.0001985267054786,-2.6545256110039133,0.2551241181971385,-5.456338755456485e-05,-21.31327741544373,-56.413855247434185,-0.0002462621677068455,-2.654508867206232,0.25513390473875575,1.1593879435167764e-05,-21.313227189199324,0.00010026534562422499
5.802326210339629e-05,-21.313330151385166,-56.41434816047024,-0.0002598746338597,-2.654583388542942,0.2551462365599343,0.00017333516916551162,-21.31314305405658,-56.41396817731584,-0.0003638111238615238,-2.6545362335725713,0.2551426363422564,9.955968161699717e-05
-0.1854183007901178,-23.94364816275686,-46.31882493403547,10.990791347454955,-4.52538304130082,3.0281505614361457,-0.18496901620791695,-24.02912663731093,-46.36130083522188,11.036514201688671,-4.543357814727053,3.0331007623567467,0.1510581900361688
-2.1238974834805715,0.0328263558874158,0.005927165385807,-17.49248382880574,-29.714272754767222,1.06199523549525,-1.924347591605085,0.0741711241211831,0.014469938465562215,-18.226730914031606,-30.543138243272324,1.0388636174458554,20.034604472081128
-0.0002933397266815,-21.996788453484005,-50.99725425103624,-0.0170988589590582,-2.806968247117548,-0.1636607959727124,-0.00027413862426328706,-21.996860353949728,-50.998767657436474,-0.01670922002313091,-2.807004688808547,-0.16359708160536002,0.00010558101237899323
-1.5349912291098722,0.1061452993999828,-20.2146561212374,-46.89497917145744,-5.093339288224802,-1.3379621692396988,-1.5357881008486314,0.10551683231342834,-20.16438216037843,-47.075803807303686,-5.178186398504636,-1.3388642229029792,0.12067192272519543
-0.0012871886595506,-21.31212971548096,-56.41307617551366,0.0018276359012158,-2.65398430831952,0.255268412308366,-0.001326829039498989,-21.31347339656304,-56.41631258027883,0.00183883674117169,-2.6541946777811063,0.2553076397877163,0.00011050169487868048
1.9338277532075123,0.0971512256260763,-14.513600303789856,-39.65593436775536,8.200248809701614,-0.125426828888408,2.009458844297706,0.10532740149795483,-14.765771714958944,-40.577392050053106,8.281587016212988,-0.08120521447801465,1.9953023040623934
-50.99724662576539,-0.0170975782559084,-2.806960665601516,-0.163660458369239,0.0002685131374236,-21.996780158651887,-50.998017646470544,-0.017083008985196102,-2.8070229933813664,-0.163656931547024,0.00026168773619872354,-21.993670895218656,0.00010367170898627124
0.2551500546415348,5.463309666308367e-05,-21.313349029973583,-56.414356968736215,-0.0002560762227802,-2.654600014643586,0.2551598132846209,0.00011353636250532873,-21.313333158881278,-56.41399589197681,-0.0004102819111722056,-2.654580318439912,9.947151647958422e-05
-0.0170984870323165,-2.8069658449243966,-0.163660687074144,0.0002673229531434,-21.996786090340883,-50.99725217513412,-0.017047387248908308,-2.8069401907613383,-0.16364129069557265,0.0002719876719936565,-21.996698782606472,-51.02226329284895,0.00010212882239267388
-40.074345666663255,4.08874623015447,-2.775235908327024,0.9767907284401788,0.0609362614155296,-22.948683514479423,-8.710526686510494,0.6923667234096471,-0.49115444621741094,0.14128257733151628,0.017669289452872078,-4.9873121375338165,202.52670163031988
-21.436184773907502,-40.074345666663255,4.08874623015447,-2.775235908327024,0.9767907284401788,0.0609362614155296,-10.293290012536223,-20.911454701956636,1.8234701920842034,-1.3568197422774122,0.38154154862210143,0.022596376512837413,180.78850128400782
-0.0003389256214273,-2.6548523794099843,0.255285710052772,0.0004580945882091,-21.31359360606095,-56.41466937419816,-0.0002624259749950397,-2.654774225173668,0.25530847003633994,0.00043903812952805765,-21.313349939688123,-56.41364456035808,0.00010294847203505456
-4.393300500634159,-1.2768506737339174,-0.1539025468492793,-21.68545888860425,-47.9379455046567,-6.415775201776025,-4.389542426374071,-1.280426248147676,-0.15428665501545824,-21.62360446040085,-47.89124701697129,-6.305751843514395,0.03535091206350836
-0.0026806740251184,-2.8071935742288985,-0.1624495520537122,7.684685840527122e-05,-21.988740741284992,-51.11610128360672,-0.0027315250387118795,-2.807170995187448,-0.16246258164673577,7.669716355707124e-05,-21.988662561667752,-51.107540318887914,0.00010562562596470785
-21.996770105252747,-50.99723822992967,-0.0170960259076909,-2.8069522786391534,-0.1636600903257977,0.0002705083303718,-21.997006508838695,-50.9976159989277,-0.017107641207047664,-2.806989500208516,-0.16365240040346407,0.0002677958794947699,0.00010322436330221977
-21.98873209969001,-51.11609654321234,0.0191307709411741,-2.807662524746588,-0.158338478163059,-0.0002976645767695,-21.988669958712308,-51.11595233450498,0.019120955854617705,-2.80765264081802,-0.15834150701721228,-0.0002968875957662931,0.00010062149766719345
-21.31336173003439,-56.41436706002788,-0.0002529018977601,-2.6546137172668463,0.2551515379564061,5.212316650805326e-05,-21.31333636268664,-56.41429345527854,-0.0002702523807442958,-2.65461133243916,0.2551524694178511,6.835974375007936e-05,9.886372541410752e-05
-2.7112681475991143,0.3499487565345726,-0.0501120050119226,-21.21996567828075,-56.30000422009402,0.65902958549911,-2.8401069868030078,0.3882564032101925,-0.039995973158397646,-21.198130027039866,-56.96050581063355,0.43868758947928654,2.1618732989774703
-0.0002541082326891,-2.6546090310635964,0.2551509481231084,5.316998910383931e-05,-21.313357686866546,-56.414364245888734,-0.00027307233136752984,-2.6546037360236596,0.25515612106443797,7.389974582849845e-05,-21.31333542829225,-56.41424820943212,9.901125051379937e-05
-56.41426706369901,0.0006289409126731,-2.65526874470567,0.2553700812123491,-0.0002979527394471,-21.313977202228703,-56.41239038045478,0.000174286705259874,-2.6551719624656585,0.2553676279978845,0.00015661270171563046,-21.313436359783964,0.00010303584429203953
-0.0045844851927904,-32.79278544004365,-49.88654512274742,0.455411730882587,-5.048321453375506,-0.3441435943482802,-0.012558087997039493,-33.05516570471881,-50.99139773751636,-0.3740277940019298,-5.1056062652955,-0.31922657006732325,5.923887185024002
-21.313359517744576,-56.41436551934617,-0.0002535054834809,-2.6546114045081213,0.2551512520415099,5.266527223151323e-05,-21.313325950678745,-56.414268451540465,-0.00027776823145586604,-2.654608629412621,0.25515244221276134,7.604432414609619e-05,9.890697799784435e-05
-41.749301893864015,0.0275988459136158,-2.795627506347653,0.0613369187253847,-0.0122746352165996,-21.892224370153404,-41.76538926130456,0.2954349435535164,-2.8222876276641102,0.016872184996827855,0.029703716334083197,-21.81569864365406,5.834530542549858
-0.0002502642573184,-2.65462387219886,0.2551527964322011,4.97870333489596e-05,-21.313371898522007,-56.41437415986908,-0.00024758708690342246,-2.6546259356646544,0.255153025826651,4.479935453360895e-05,-21.3133798252901,-56.41440111788688,9.879023011359537e-05
-29.322843930325163,-0.0823652213923808,-2.606631542711845,0.0573383905085022,-0.0110664214511207,-12.539395812430213,-18.135688544438594,0.70348228388848,-1.3379120409166272,-0.040602289382186685,-0.012657228330999692,-8.392058250239899,150.21988343292102
-21.98869577548676,-51.116077291727336,0.0191220068388241,-2.8076312239051604,-0.1583375210881149,-0.0002907618359152,-21.988939319279325,-51.115500709699745,0.01887539384827619,-2.807654177668894,-0.15836308916797748,-0.00028893863571965994,0.00010257226927189082
-56.414378793513,-0.000248431265919,-2.654631168878254,0.2551536967254323,4.816644182333231e-05,-21.313378870355866,-56.41444051064855,-0.00022892176582445245,-2.654630968393164,0.25515055436386547,1.571757138663088e-05,-21.31338973579045,9.898214847391033e-05
-0.3201790699591862,0.0013117927801711,-23.032055441350337,-52.635939650246726,0.0220052264858634,-3.34699436900032,-0.3004769293058729,0.17280561296678343,-17.038645225727464,-51.43576716637017,2.9997779762043137,-2.620874566668107,61.524275572210456
5.50758003663789,-1.603820621802573,1.1617877039696751,0.0374538293119466,-16.99648733082344,-44.129150605410985,5.62295025573288,-1.5717431977905352,1.179865943925383,0.03915073559230699,-17.039282494602546,-44.57224627968509,4.931376473707504
0.1364128638986851,-19.73904203183332,-46.2782368056075,-5.665752966437989,-1.0895037921707371,-1.7732126837062234,0.13839239854423585,-19.480467029955182,-45.84026920476588,-5.613002766823153,-1.068248913576669,-1.7352517201714437,8.217400640923588
-4.512498040828915,-0.1053269477645175,0.0027289451553928,-29.995881655030377,-47.16097024522255,-0.0547032958727092,-4.35149916281768,-0.08861270024088688,0.0017225741579991157,-28.928998363022423,-45.50892978202997,-0.09145322680897806,22.04374364455532
-0.0026816950571442,-2.807151289133037,-0.1624477860066147,8.605260404208234e-05,-21.992924956456985,-51.04095933433574,-0.002662874540988014,-2.8071811277503684,-0.16243416569481184,8.437741259115228e-05,-21.993044509959418,-51.04951034391706,0.00010698706972954356
2.922090427365952,-0.2175652302042976,-24.48282855315296,-44.98511034230209,9.249498339731204,-4.601132486265253,2.9031944255740108,-0.2099918288480243,-24.430750895539166,-44.823008201593495,9.575969495166463,-4.574401024889962,1.5950437021939778
-0.0002463602591265,-2.65463969663877,0.2551547439794148,4.632793625070031e-05,-21.3133870665518,-56.41438497533432,-0.00022201391885801058,-2.654647782817335,0.2551499640073871,1.542056648418111e-05,-21.313427437976088,-56.41454218288709,9.92653171481969e-05
0.2551525709286485,5.01992636191288e-05,-21.31337013399593,-56.41437291952005,-0.0002506105751847,-2.654622499761345,0.2551525959872656,4.107291101718147e-05,-21.31336571343695,-56.414460119689466,-0.0002184227832913166,-2.654624975828483,9.876833141385292e-05
-0.0002531464621698,-2.6546127870883987,0.2551514236313912,5.234715519200578e-05,-21.313361294940705,-56.414366759275,-0.0002665166342126213,-2.654609503358472,0.2551553283081347,6.644814394718424e-05,-21.313346633868832,-56.41428870786331,9.888883107743355e-05
-56.41437507691609,-0.0002497990165624,-2.654625709447074,0.2551530234550142,4.9375042339486464e-05,-21.31337364083352,-56.414355897911264,-0.00023633591172256274,-2.654621769022711,0.25515104443164205,2.6428934944533466e-05,-21.313370894885793,9.883731314795555e-05
-4.491027274713307,2.663119449497844,-0.1895990940067978,-24.163099938615456,-44.705679822279976,8.800891045885773,-4.490191072559669,2.662453389016562,-0.18929950851900357,-24.184142467896468,-44.686744490970085,8.87687821332304,0.0436728029357044
-2.807657539761114,-0.1583383221913411,-0.0002966423391428,-21.98872675091632,-51.11609361749682,0.0191295397833181,-2.8076004348528443,-0.15832115748928288,-0.0003092252410397123,-21.9892425279902,-51.110440968007424,0.017272447297727922,0.00010345709913105098
-23.925405263813456,-44.8474021647525,9.996310087503645,-4.452719190227928,2.698343028794464,-0.1455929886959713,-23.25573652651736,-43.491100168849556,9.71993375561394,-4.328632622187724,2.6109132974920666,-0.13635189292512392,0.6088652754038452
2.7565269371234247,-1.871215056652324,0.7441986318930726,-0.0409322988198022,-17.89101181491561,-50.31418791853004,2.933200280731553,-1.8502023037607929,0.7719738703047416,-0.03135071768306012,-18.19624192884221,-50.95263476446954,77.13379321195754
-2.6546266259385187,0.255153136740453,4.917046091524895e-05,-21.31337451756447,-56.41437600805205,-0.0002494518165085,-2.6546289960993477,0.2551500946229197,3.4841232377402775e-05,-21.31337840233141,-56.41446989439828,-0.00021751381837020745,9.880611924183073e-05
0.9465193689861792,0.104577452751564,-18.86980287148565,-43.10900033494271,2.293636814872541,-1.507566775227695,0.9838147374783158,0.12995061550552034,-19.490441150929456,-47.40606627692553,3.1499204280280964,-1.5740205210318998,48.562449254313094
-0.0171038353190943,-2.80699884531032,-0.1636621399598813,0.0002604794019753,-21.996823336358272,-50.99728584010862,-0.016928645937696274,-2.8069523533999927,-0.16363895973083942,0.00026961568279659787,-21.996426154105393,-51.02072772885731,0.0001027489187225136
-0.0170985457041184,-2.8069661827918897,-0.1636607019822574,0.0002672464304564,-21.99294035190847,-51.04096982463474,-0.01708828890400582,-2.8070471637382752,-0.16366652538289372,0.00026163968652070935,-21.993560450097903,-51.002182209907915,0.00010394561164327102
-51.11609967100725,0.0191320503893255,-2.807667466599122,-0.1583386340621538,-0.0002986498480186,-21.98873812375214,-51.116482771245046,0.019092099924364447,-2.807683408241644,-0.1583418503508085,-0.00029040511550704196,-21.99040063835946,0.00010418938396293457
-4.426313269104418,-1.5362770391572018,-0.1612209130389984,-20.7249798510974,-48.210007179614045,-8.185835901353789,-4.4544849184530335,-1.5459190734440398,-0.16045872859509647,-20.854423342515474,-48.530926019937226,-8.252968202867692,0.22935033792546897
-56.41436457902592,-0.0002538505689693,-2.654610000532205,0.2551510734716199,5.296153111755903e-05,-21.31335861189391,-56.414098898930206,-0.00025962812014768133,-2.654594377809701,0.25515245054785396,5.8880749378431574e-05,-21.313312436207298,9.885804402807922e-05
-22.945768391262387,-47.82682897528121,5.763205702932321,-3.7111011429185607,1.8692648674217536,-0.1323527177132875,-21.97084089449944,-46.024975292115535,5.512741346989771,-3.554146777330274,1.7737505963312519,-0.13200905118364661,21.538208226265624
0.2833796248400593,-0.018237097047499,-17.609316243271465,-44.85866479284714,-1.0437421452510307,-1.0553032435895746,-0.09203144296193266,0.013056234553845414,-10.829720187876266,-21.54837238194841,-0.5853267575381551,-0.5586021406513009,143.59128730925983
-2.654578213746987,0.2551465165091012,6.575798337942857e-05,-21.31332861055195,-56.41435081815985,-0.0002655200036164,-2.6545581144679886,0.2551565009831478,0.00010939875642179686,-21.313277570911623,-56.41359624110555,-0.00048525873808102915,9.984467067335104e-05
-2.807201023652252,-0.1624498673090446,7.543890352333345e-05,-21.988749223385167,-51.11610612141174,0.0191345746023724,-2.8071381923118537,-0.16245642161869966,8.828855692399884e-05,-21.98865880850667,-51.11416276226555,0.01856854316611134,0.00010666222309106602
2.053866437895385,-1.9126536863022057,0.6083161304158167,0.0331373000272434,-19.52820501219468,-51.469430515455954,1.6434671478781244,-1.873753544981191,0.4926944264199122,0.02728482852304792,-17.85805764102759,-48.32918886245545,99.81915575485458
-38.10798992999778,-4.256758962026294,-5.161841835429385,-0.6304818278177747,-0.1684374408173514,-25.7386819575602,-37.89313551275681,-4.014893782948324,-5.1609798492981085,-0.6334871180311659,-0.1676313311100755,-25.733708791632047,0.13669739928215727
0.0004472598263669,-21.313292313280968,-56.4145123361004,-0.000520790436034,-2.654441501652072,0.2551569991680653,0.0005560482850341941,-21.31284454524257,-56.413494723674376,-0.000604072626629204,-2.654355699515463,0.255144385927764,0.00010048129937155396
1.157618137054386,-0.1113347874698044,-20.13157395167465,-55.32343376203342,2.3403009035752422,-2.686560604959757,1.020237333530131,-0.0031507079534662807,-16.817731641315277,-44.985004542075785,1.8848427402749621,-2.182578445768911,125.03720204222421
-2.806955434626176,-0.1636602270850671,0.0002697480603851,-21.992927835308635,-51.04096133598026,-0.0026815645214725,-2.806888720337014,-0.16363103160944092,0.0002674580271104787,-21.993871338581812,-51.032524617007766,-0.005548850660034077,0.00010595941236766963
-56.41438774376678,-0.0002453055437805,-2.6546441434307093,0.2551552881909574,4.539294796829939e-05,-21.31339131867889,-56.41463218392528,-0.0002127205171973401,-2.654652184034333,0.25514938103594886,-8.580978459349353e-06,-21.313431517153504,9.960384582706398e-05
7.735458126742339e-05,-21.9887377553113,-51.11609967100725,0.0191320503893255,-2.807667466599122,-0.1583386340621538,8.048475933719601e-05,-21.988632250440787,-51.115626100861846,0.01904941081738798,-2.8076453636605265,-0.15835110946298414,0.00010409858322356273
10.423312804783617,-4.50405087030739,2.803708977184302,-0.1510102605383147,-24.02315787309432,-45.02152641024502,10.491583398943177,-4.502760287227901,2.801835630545596,-0.15018933395444362,-24.002495833864916,-45.038973968729245,0.10106338098114685
-15.844376522942982,-41.351769116625725,6.799197849960313,-0.642077871914845,1.7634082153692854,0.094003598723282,-15.772252434194925,-41.139412501085566,6.808247626087821,-0.6366810054567333,1.756939944162703,0.09362965486768833,0.10067495383202806
-2.806994286669965,-0.1636619404253633,0.0002613503071398,-21.99297258806391,-51.04099254814248,-0.0026806877469399,-2.8068919540202018,-0.16362039527373184,0.00026595155662789693,-21.99357771274913,-51.03316543779056,-0.005295325343013246,0.00010545944013694212
0.0108639095695602,0.0012398431658298,-19.674955057677764,-48.232068519722574,-1.8646283594940245,-1.419143548791164,-0.02353911205330588,0.010926389538777476,-9.11443045602113,-20.91096129743746,-0.6390293526839749,-0.680672222730337,158.83616678078985
-2.968342864403184,0.5687433257833514,-0.0443862116096382,-21.8479938307825,-47.301522586042665,0.335712788004221,-2.779569762601838,0.4044689498701217,-0.014144969752464931,-21.233400180538638,-46.598761889629344,0.6006776190441769,1.4989887612460693
0.0589609074932698,-16.393821493796086,-26.33679630163187,-0.4504896560951588,-0.8352778958652418,0.2445920101803196,0.030487040718575997,-11.834302700799865,-22.067416878547817,-0.13857023013149217,-0.6614079651240186,0.004475213425022773,142.02395200431923
-0.1037750325528805,-37.87924208178678,-77.87907093118649,2.110042031457356,-6.194054659189628,-0.7617018955315871,-0.08606135196759694,-34.092287754060905,-70.16719231116255,2.0477896222624197,-5.562540860384686,-0.6939664816798324,20.976675236587113
-0.596076298987828,-0.0040983861306103,-29.679001386388943,-64.2319179259642,1.0545279426758565,-4.542494903946401,-0.527568025875001,-0.00201397157436834,-26.3204485554761,-57.08464090982941,0.9396287604726751,-4.0245215933074014,83.60670067545436
2.293636814872541,-1.507566775227695,0.755899754851752,0.0924036988539897,-19.57689728957041,-43.85245427157701,1.8886885322969142,-1.7016693559805862,0.685128291913427,0.1346678824166948,-19.686073883773417,-51.53204468496142,41.97471699513778
-50.99724383112738,-0.0170970394075565,-2.8069578846983982,-0.1636603383748295,0.0002691651052427,-21.99677696800491,-50.99801579298628,-0.017090042935137717,-2.807023906584334,-0.1636574248774707,0.00026154133363576193,-21.9936957788409,0.00010423217702447333
0.0632742229638909,-18.30990687207473,-46.81154611957373,5.059485496329659,-3.299496800252214,1.3187059209169611,-0.03651253067776901,-8.528480706667514,-22.621545641368687,2.5356700430506747,-1.4347677353896722,0.7409797877567895,176.69291372215102
-2.654602574800545,0.2551501080316977,5.428273111537596e-05,-21.313351511853867,-56.4143597819796,-0.0002554014598186,-2.654589645607359,0.25515617807127455,8.229573461449036e-05,-21.31331294198094,-56.41387524493075,-0.0003933501498067926,9.917008185476776e-05
3.1507735637543366,-1.6836492056747416,0.8204787457186351,-0.0254933083136965,-17.79273074977135,-49.66601243144406,3.0426278655377716,-1.691152809287249,0.803776467801206,-0.030157923076632214,-17.58375858399713,-49.161692119875134,6.927191793334943
-0.1624490197159069,7.942182255534622e-05,-21.992959041330064,-51.0409828785772,-0.0026808961362476,-2.80718105435166,-0.16245977378513032,8.171512422450178e-05,-21.99284320682426,-51.04189062376827,-0.002368734543779283,-2.8071811946807657,0.00010237855440374447
5.821283840351282,-3.7638715126527424,1.4952243807647003,-0.0057739606776595,-23.87448622851633,-41.51997967058848,4.732848519316228,-3.078952609635154,1.2321679348239887,-0.00040362593016879476,-19.564782200767276,-34.24800980864278,95.88047486011251
-0.000245726024233,-2.654642361276329,0.2551550702452265,4.576571943254045e-05,-21.31338962407265,-56.41438682559102,-0.00021787295565900422,-2.654651277136537,0.25514947385260456,1.0646508037837066e-05,-21.313435490238362,-56.41456372766697,9.940922723382287e-05
-0.1636618370718112,0.0002617973992086,-21.99296998148904,-51.04099073159909,-0.0026806819828765,-2.8071906415395165,-0.1636346365800918,0.00025384963350916223,-21.993494486962504,-51.032405903832114,-0.005427660789791844,-2.8071038481443793,0.00010604381637500852
-0.0002526472951461,-2.654614651751708,0.2551516534552817,5.1898392180056825e-05,-21.31336305845905,-56.41436798402266,-0.0002632608143358084,-2.65461233774505,0.25515492803675954,6.27250151694625e-05,-21.31335222761618,-56.41430848721939,9.884499212540946e-05
-0.1100334423961879,0.0094011627242386,-21.50367644156695,-45.027505471955,0.3749753171929984,-2.70342345620192,0.12279479156129369,0.006524704175859597,-22.61645291634717,-41.177569241888705,-1.6931610806404933,-2.7056761344506413,7.242649620984567
-18.28252979317513,-47.26646637932007,4.014860868604561,-1.684546723475315,0.598954693708544,0.0221660696337229,-16.400108736521958,-41.91951508893097,3.39089194656684,-1.5959017334416168,0.5837998701610662,0.01735710365143389,51.535925741026915
-1.6836492056747416,0.8204787457186351,-0.0254933083136965,-17.79273074977135,-49.66601243144406,3.1566575599624374,-1.4509514969960058,0.6694512729281539,-0.03231869183686203,-14.778726811518048,-41.44804447029135,2.620090643652537,35.01871736254026
-49.88654512274742,0.455411730882587,-5.048321453375506,-0.3441435943482802,-0.0021037903547972,-32.238901032734425,-48.02925708975897,1.6265752585755422,-4.961021268512095,-0.3513148734616436,-0.004775310651317088,-31.660912309879716,9.977682284037543
-2.8071600077037715,-0.1624481543419058,8.398049164638729e-05,-21.988701907974708,-51.11608044073972,0.0191235526543964,-2.8071636614962756,-0.1624294090997367,8.890099508107596e-05,-21.989015717026632,-51.1139911651926,0.018364221366937272,0.00010565661617244119
2.9826585696233745,-0.1683074858806482,-24.03336708222239,-45.69482204628214,11.259315394941536,-4.585872668183466,2.998176303500202,-0.173755557263366,-24.104127201287838,-45.65931097646558,11.263107777312428,-4.601837404697108,0.11179489421036402
0.0428179754228517,-32.43992816455132,-68.60453587818095,1.317530767235885,-5.026000591486581,-0.5080250621254065,0.034885017924200255,-28.686796041121195,-60.46472867823595,1.1668155743298312,-4.434646373476704,-0.4426097271469791,85.17796199677079
0.2551516534552817,5.1898392180056825e-05,-21.31336305845905,-56.41436798402266,-0.0002525247170074,-2.654615110282168,0.2551543942432666,6.117773637015489e-05,-21.313354918181176,-56.41433501870779,-0.00027033567675971426,-2.6546117203570248,9.876967576070898e-05
0.145152661607207,-19.368768555850203,-33.602094129674,-1.208758841434579,-1.7330958653020208,-0.5367067739665329,0.12004320485692122,-16.149901154208536,-27.982828282588784,-0.9007695769607035,-1.4602554399433456,-0.4424608917494046,62.49806620296445
-26.35697876330766,-39.88688122018503,0.0721177942250216,-3.7499294912593766,-0.1977899693261524,0.0010974949919592,-23.744905300673725,-36.251743027701096,-0.20786951014368849,-3.3780039530320836,-0.18107960711479243,0.0014254962711943101,51.01892387116902
7.549750321329514e-05,-21.99298173829459,-51.04099934521653,-0.0026804631683887,-2.807201023652252,-0.1624498673090446,8.378060488212213e-05,-21.992752513944197,-51.04084195935502,-0.0026560207497823285,-2.807165658246163,-0.16244745413968076,0.00010436011456414677
-0.3457005334530756,1.6247366364249294,0.1386661575853385,-16.197002292878153,-40.26837590178261,5.182272315220571,-0.5162136730710211,1.1240120665672868,0.06927239549321507,-11.99512254559891,-30.636155000194265,4.0963859127373015,78.41926721952802
-0.558456407363827,-1.4593524285112922,0.1727529808318819,-17.476082114245546,-37.53552312971137,-4.137516163931108,-0.5366705345695428,-1.341154754318006,0.15364067283483712,-16.48120465834571,-35.82990043552015,-4.226272378697459,20.32832015239407
-18.026802906999468,-34.93062466176783,-2.6016813608733407,-0.9852063451413332,-1.049441858789241,0.1930013764788765,-16.937617318028646,-32.61598724529626,-2.0779587987883867,-0.916077140590829,-1.0103873999804005,0.17988879190435958,15.685410932234022
1.887694821529524,-5.878773637444574,-0.6918121295191837,-0.0971305638319782,-37.22094048531813,-76.75244595251255,1.5864848285264872,-4.741061127365274,-0.542241663442129,-0.08939958407108041,-30.211694502179064,-62.15543547790432,42.38532609614808
-4.296995832432439,-0.4606550439002105,-1.5886493533608137,0.2187444967031863,-17.437286798444248,-38.11070477451533,-4.509058810937027,-0.4601820232237773,-1.627160376836553,0.2287698146199508,-17.78205286932367,-38.82572885767988,1.860578352822644
-0.125426828888408,1.9911774347291449,0.103423503266465,-14.324246191699013,-39.15558217532403,8.346347493947544,-0.05988845873323001,2.049611939569771,0.11221931008682036,-14.441083900051476,-39.55814442371944,8.345079441540188,0.5030956549005071
0.1699041536456914,-19.148295192336548,-45.3427445137982,-6.104323464422394,-0.7894795570380981,-1.9490548739601887,0.17264759684542474,-19.242378538273755,-45.34936696980074,-6.051384362802136,-0.7885775518933689,-1.9565383175828202,0.5681822304831331
-0.0958043832156271,-38.73266063032259,-79.37511637234475,2.1808128471354875,-6.354933970141686,-0.8133721613408268,-0.09702484284274662,-39.08076718858703,-80.08360032826286,2.185265414562693,-6.41519609241687,-0.8193104286863926,0.2301929172503224
0.7612479973089806,0.0152549833927941,-18.482221336359995,-50.18110780598191,2.5725643326059977,-1.7350907209335664,0.7486081664667892,0.013748645234440228,-17.757031055453645,-47.94711535127219,2.8642214634660044,-1.6460715318925163,23.988031376833533
-0.4361218387894778,0.0015667165387341,-25.441843525351302,-56.83287059745543,0.371798662220093,-3.794576905146098,-0.060169807419298074,0.02389509152928282,-6.060607123596425,-13.268336272197672,0.17261638131167345,-0.8719135098778563,208.73977920897914
-1.7614592907101343,-0.958511937330414,-0.0277362002907467,0.0194271797324266,-8.978105139359638,-37.38507414547773,-0.7465323139245079,-0.43554815649232914,0.029827752429409937,-0.06176083212996564,-5.767653845225027,-27.6798219364332,150.2664725104941
-0.0194383707586374,-16.200838255700194,-37.47174632585282,0.7501854862377693,-1.5193703409865036,0.360041643410705,-0.031968962932182876,-16.121830445370165,-35.63837545252454,0.3673898178207651,-1.562594054186313,0.235847467960852,16.28261887595886
0.0690271841681776,-17.917081334846987,-51.49234718983906,5.475455392569609,-1.448382700382052,1.362639200962033,0.07662415164800737,-17.250981102974965,-48.774644846609036,4.915923626679547,-1.476199068942741,1.2444522385901382,39.36312280384047
0.2551591868161144,6.987424255128914e-05,-21.313376793781025,-56.41437627718204,-0.0002653958245795,-2.6546168544399995,0.25517022357770003,0.00015538610182375123,-21.313341553171085,-56.41382485007853,-0.00048435773260280257,-2.6545853851470156,0.00010000555963239536
-0.014228996626041,-18.477709851362462,-51.58974120093431,2.454573710962378,-2.055567085594961,0.6423241585070482,-0.016480164396025482,-18.80907825019147,-52.47355270689891,2.613422673773637,-2.0890995390603475,0.6574963190441955,29.76467268971419
-51.11610461109225,0.0191340181718647,-2.807675279584367,-0.1583388859089822,-0.0003001510691142,-21.98874701620469,-51.11657519977916,0.019140188778578704,-2.807681090139539,-0.1583367170856036,-0.00028982924526133047,-21.99032726832229,0.00010538685126158712
-0.6400394977051878,-0.2158219841513706,-26.781178242744737,-34.883878053118856,-4.412471456704107,-5.563818268375578,-0.6435931432634179,-0.20966423868182404,-26.383076081008987,-34.25981237344578,-4.338337230888004,-5.473351774270993,7.216259773864126
-5.683078664988429,-0.6506300576835183,-0.0822716259072381,-36.39694190767483,-75.31183256035727,1.887694821529524,-4.576624284228459,-0.5345219227051945,-0.052294560673891,-29.267610841837566,-60.80325008291911,1.5285227524480265,69.28401504444025
-0.0002519148197628,-2.654617436323147,0.2551519995684652,5.125186525625215e-05,-21.3133657213368,-56.41436983232564,-0.00025846968043197194,-2.65461650931303,0.25515434662725056,5.725684091828498e-05,-21.3133605399604,-56.41433723051159,9.88007475955918e-05
-4.542494903946401,-0.5442219224302287,-0.001498846404911,-28.226810779824493,-61.62926380800216,0.9292886906872762,-4.369315930215382,-0.4650597040204717,0.02252624513821046,-28.490545615289097,-61.55100482826531,0.8822427864760546,70.26649061992202
-0.008618494881546,-21.86334926554856,-33.39175542069789,-0.0247179618461637,-2.7930106394169005,-0.0233972018846093,-0.017162584963983818,-21.029214961324094,-32.508685350408996,0.15957761987158392,-2.687119482216545,-0.015118610413210831,3.9849320314833125
-21.313390481148843,-56.41438743957406,-0.0002454081246502,-2.6546437074596154,0.2551552348947217,4.548389923449785e-05,-21.313465233670968,-56.41459952852415,-0.00017978255607431493,-2.654645374843085,0.2551528967509853,-2.4270179778795864e-05,9.961297519277183e-05
-0.3741625731080369,-2.191439463940945,0.1974728903650854,-17.817213102518103,-47.17072066219464,-8.371526581209427,0.004760421751933972,-1.0162619315171304,0.10640604182362387,-7.442444952791905,-18.691454926944182,-3.2616736360819245,194.21263593565757
-21.992946670322628,-51.04097418692567,-0.0026811508094031,-2.807170298911082,-0.1624485841756707,8.165258250871796e-05,-21.993039299162774,-51.04110839764439,-0.002679665883050575,-2.807185975977717,-0.16244495378182933,7.992949139179473e-05,0.00010135138774268385
-32.238901032734425,-49.33233175348887,-0.0359736779737849,-4.913421546262231,-0.3311717258674279,-0.0010452250420551,-29.881572749579746,-42.77020353161852,4.1212029140388715,-4.620885306937667,-0.35671533955818546,-0.014591949328672336,61.68768944477364
-51.116075560105024,0.0191211640164924,-2.8076284153107114,-0.1583374406801617,-0.0002900848799497,-21.98869288140625,-51.11589098548984,0.018825928655132884,-2.807690680718224,-0.1583706660196924,-0.000292353369516718,-21.990733836325035,0.00010489235109099796
0.0380033474494021,-27.04328906576586,-61.123558406334055,1.5089730338324423,-3.451527948478296,-0.1474124524054175,0.03685285096118506,-17.794210797033298,-39.22033903456976,0.8390784226023127,-2.357282741301973,-0.08770446382404853,139.79833210432278
-27.73829886694072,-43.78750390859214,0.2406456185676514,-4.177519553399564,-0.0573263319934004,0.0763862564940383,-24.231206991517492,-38.76089870744198,0.000789464803891915,-3.65316583432307,-0.023626070957367455,0.07550979646182346,55.341696103403365
0.0191300742418116,-2.8076598743578094,-0.1583383979009812,-0.0002971244900845,-21.9887294340006,-51.11609502819082,0.019161065989464987,-2.8077336198147123,-0.15835309600439018,-0.0003001442593557613,-21.988919654864276,-51.089008235008805,0.00010213180024885774
-1.4593524285112922,0.1727529808318819,-17.476082114245546,-37.53552312971137,-4.137516163931108,-0.5908353444630909,-1.4855398409677671,0.18819262756258914,-17.71471195395304,-36.823621049704926,-3.529888467496697,-0.5879543344218647,21.947054613102324
-2.654632965354544,0.2551539176409898,4.777418367365367e-05,-21.313380610229103,-56.41438033858726,-0.0002478751324238,-2.6546386157706365,0.25514864287285377,2.319656027793826e-05,-21.313395055075034,-56.41461035553584,-0.00017576459049450932,9.8969183484828e-05
0.255268412308366,-0.0015246429505443,-21.31276813345573,-56.41329108460521,0.001693207051201,-2.654565728654142,0.2553234308325649,-0.0014452100633661757,-21.31357224468934,-56.41555929633978,0.0016210929925364326,-2.654707949427916,0.00010676929079687839
-39.2039860299985,6.891930408153735,-0.0603707193136505,1.8754685084592384,0.1430864611662403,-15.179553681741222,-37.315313280644006,6.652095696843702,-0.06599577329772588,1.795814082455422,0.13528606770081186,-14.452491711057682,9.66403920806093
0.3424880170857164,0.0324136082740961,-21.068308172777137,-53.78958080458915,0.5077158751481983,-2.5518683579130985,0.30157697158385943,0.21655593634159231,-19.221914703435004,-57.650866210076856,1.9183951127388355,-2.407543018077263,15.929936796977872
-2.6546307049072846,0.2551536394536751,4.8268203361374e-05,-21.31337844353224,-56.414378793513,-0.000248431265919,-2.6546352202308867,0.2551491532879453,2.7305864591653517e-05,-21.313389141000698,-56.41456100348478,-0.00019043924521611189,9.889992145582697e-05
0.2551559876344801,4.4211990552286e-05,-21.31339684045201,-56.41439207954803,-0.0002438704697016,-2.654650323022303,0.25514652795348525,-2.8878424018330406e-05,-21.31341185567203,-56.41488143971219,-4.473057924769819e-05,-2.654672353766273,9.995544530903758e-05
-21.31336706317932,-56.4143707695005,-0.0002514354019983,-2.654619292822592,0.2551522299695064,5.082795807731783e-05,-21.31336098832287,-56.41435233342577,-0.00025257850404614146,-2.6546177929532746,0.25515254689014455,5.030078750678513e-05,9.882487799638043e-05
-35.89433835418456,-75.01287607706094,1.866050845826965,-5.690726224093528,-0.7647733567106013,-0.0203523619077248,-30.08707316032784,-62.8305661157126,1.651569618851325,-4.7690168790722725,-0.6434630449243093,-0.015615941037229943,27.962972587293535
0.0651871906672372,-20.938127121620703,-44.99590891619633,0.5248036360268478,-2.285673391942416,0.1870243182625537,0.07892695631926472,-21.017528907394308,-49.50443316551173,1.3882922463401428,-2.3585653699829265,0.286740694230744,9.41459477120023
0.0290221399095716,-21.35641023338453,-54.37282968678024,0.1728536062452997,-2.667366678160057,0.2310016720476845,-0.1814655966909413,-21.952060638790044,-55.08285299123054,0.3089143131178389,-2.800187005544558,0.20964480390402684,3.869421799910983
-33.690844731126106,-71.25826778118402,1.5722340241694777,-5.267157331423132,-0.6905071801019675,-0.0111881248024497,-19.8885352215486,-42.07937837765954,0.9349818471471686,-3.1043272044105596,-0.4043442903779453,-0.007232906109415562,113.29301180606276
-51.11608713969418,0.0191266900857639,-2.8076474343009745,-0.1583380100672612,-0.0002944813767808,-21.99679427284358,-51.11540655854151,0.019102556999314402,-2.8076123208038837,-0.15834234162667826,-0.0002968087958805654,-21.99522091753397,0.00010237825887480981
-0.1624491128543768,7.894081023316078e-05,-21.99296171139854,-51.04098470313991,-0.0026808982211571,-2.807183383939148,-0.16246218788901245,8.174838859531519e-05,-21.99282591593277,-51.04185660635994,-0.0023714196031505708,-2.807180300804248,0.00010247062127342802
-2.6545919259625834,0.2551522066104936,8.830894757379029e-05,-21.31334140674216,-56.41436776684386,-0.0002816667933528,-2.6545677444667035,0.2551615251435493,0.00013191180505600641,-21.313274243851083,-56.413497328747326,-0.0005202074685257685,9.997898990997315e-05
-2.807178384230073,-0.1624489176698339,7.99120892238444e-05,-21.98872329319093,-51.11609168996053,0.0191287337788079,-2.8071534332144097,-0.16244267612062657,8.874121954249858e-05,-21.988854073406173,-51.11412294899492,0.018470759905994782,0.00010471778890229403
-17.476082114245546,-37.53552312971137,-4.137516163931108,-0.5908353444630909,-1.4022584154773197,0.1724404356862837,-17.636521649186804,-38.27117199968662,-4.60719497331498,-0.5901697267450353,-1.4079468486010775,0.17491367178679154,0.6030301232532355
-0.829035900862858,0.119514511340051,-0.0173042993952114,-11.033076673101998,-24.314119200793435,0.6211049902323686,-0.21439634423505108,0.03452374545961942,0.002977541830331795,-2.46597731083926,-7.839998980042245,-0.13256148872657725,202.54198483937293
-0.1636603231983897,0.0002692462655058,-21.99677657318997,-50.99724383112738,-0.0170970394075565,-2.8069578846983982,-0.16365934096513968,0.00027477137354026127,-21.99669728708824,-51.00179932364699,-0.01574094940406212,-2.8070250383549364,0.00010345043171065741
-0.000248994390858,-2.6546289016501308,0.2551534174254378,4.866534779005479e-05,-21.313376697663102,-56.41437755257622,-0.00023927400781076358,-2.6546330836189895,0.2551520259026603,3.527321112528625e-05,-21.31339492701852,-56.41444841224438,9.886718783201546e-05
-41.47454149581577,5.821283840351282,-3.7638715126527424,1.4952243807647003,-0.0057739606776595,-23.87448622851633,-10.173853547540267,1.5570260509716087,-0.9665175186251186,0.404755078876304,-0.007820053521437376,-5.732291838146314,191.21286801767855
-1.4612104437601254,0.5085279001675275,0.0685932319910736,-19.63316191182732,-52.20220742362898,2.283371753596713,-0.6658866093343974,0.33254268396248193,0.03593983601700369,-13.922686083520237,-37.710404264767,1.7449264210429303,138.50384516644732
-0.1117775452042281,-22.47505249363164,-47.960774470275375,3.221856857253386,-3.3282825193741084,1.2198870431921396,-0.10332381284973735,-21.00509235410931,-46.55099036481204,3.1776886952074506,-3.1021333321510483,1.1653283212595973,37.87817019237491
0.2553156836384078,-0.0012871886595506,-21.31212971548096,-56.41307617551366,0.0018276359012158,-2.65398430831952,0.25538301632360216,-0.0012759425621879927,-21.313008424534473,-56.41567326843506,0.001819327546400018,-2.6541308230341656,0.00010906464774672246
-0.0057739606776595,-23.87448622851633,-41.51997967058848,6.627000595239658,-4.028596561349962,1.759034032821778,-0.02594402906842965,-14.559451334417705,-25.58835301577007,4.5336007860194,-2.5322388887604226,1.212434193037638,136.6090315516617
0.2462049476355523,-2.881650410617886,0.2060891466025916,-0.0029089385868534,-21.033239034948576,-55.97053598704537,0.1945936897963918,-2.857230902457559,0.19110120576443634,0.041881244554893726,-21.112949320680684,-56.006977898934565,1.6977076501053447
5.467238859474005e-05,-21.31334948768256,-56.414358532924034,-0.0002558617059049,-2.65460118539679,0.2551498770668445,0.00013541894804802723,-21.31321040335024,-56.41408015282832,-0.0003276361794632976,-2.6545667657237573,0.25514719578323763,9.90967028843123e-05
4.3068183724863016e-05,-21.31340229837345,-56.41439610689256,-0.0002425804206229,-2.6546559970644075,0.255156732553312,-0.00010607567992337863,-21.31358698915301,-56.41476813928966,-9.764034211912076e-05,-2.6547041008839187,0.25515804907908546,0.00010045445620386532
-0.0134451454206139,-21.3238906226049,-56.41387774626109,0.0953699383087678,-2.663382923182394,0.2882735752010191,-0.012499924885105429,-21.322786796131822,-56.41253387298639,0.0920310233109376,-2.663282835920654,0.2881411185551599,0.00031080288656136403
2.0357157213749546,0.1112219722501581,-14.177336637763911,-38.89712782512896,8.388316522861121,0.0378826349674094,2.054311989181387,0.11309539484240982,-14.25673311593065,-39.21544804783596,8.410244383000958,0.043989383971503315,0.13682282487528305
0.004568428805178,-21.31639650169853,-56.41671468968615,0.0168842316035784,-2.65589400019152,0.2636264754484025,0.004348522264081112,-21.316800814744965,-56.41712761146482,0.016784734139037027,-2.6561121511124384,0.26370129773276574,0.00015518812225133374
-0.1583379194774211,-0.0002938031759516,-21.988711535375145,-51.11608541391245,0.0191259261183295,-2.8076447106217826,-0.15833243973341382,-0.00029285928962963226,-21.989082539258334,-51.1123195062537,0.01786681413432234,-2.807620282047651,0.00010177561284928275
-56.414358899251575,-0.0002556142025833,-2.6546018976963093,0.2551499921150201,5.429599277281493e-05,-21.313350893926387,-56.4139602993846,-0.00027239307712534355,-2.654579844735764,0.25515309487337845,7.595594385634286e-05,-21.313280238281777,9.914589392843923e-05
3.71605683265512,-1.966703784652104,1.0235226043850978,0.1308900981967172,-18.611735116656018,-50.33668246747956,3.154574703972187,-1.438834088410317,0.8365549715593922,0.08842999349998709,-14.316289421432344,-38.99783766724883,65.24234304618491
-2.8549174396660706,0.006131307786958,0.0104176191695356,-20.999200665851816,-53.859156765428416,-0.027049946230453,-2.8665451293234128,-0.016654924502944368,-0.06685532554479323,-20.965199250066917,-53.99839293941659,0.2548725566743997,0.15943484260495375
-0.0002434688402658,-2.654652064720677,0.2551562544819493,4.376744920023302e-05,-21.31339892843662,-56.4143936210174,-0.00020318992915235867,-2.6546635570974786,0.2551477519512062,-6.3175104259016734e-06,-21.313464920269666,-56.41463689061493,0.00010007275210620251
-41.45980415052813,3.8088129001085695,-0.9851296727598567,1.1324194883890517,0.1162881171345647,-18.16101505606113,-35.884701877098294,3.55417888262924,-0.8371492850915209,0.9779312558028608,0.0942911853572444,-15.469839143884746,71.11284904149306
-42.46703081508701,-2.6513046066965984,-4.505987034365035,-0.5311272601598124,-0.1614360319985601,-24.053435359217705,-34.3348523736832,-1.6785484683930703,-3.6740027005851923,-0.4739193787674345,-0.13309682987131352,-19.590063650562175,68.90729994141913
-25.0413666974117,-43.34563163677059,10.905586294385548,-4.951537911732146,3.0955786972167627,-0.2473475947729811,-24.7136631901656,-43.29220551795909,10.832697980149966,-4.879920960024446,3.080893657404189,-0.23779435926082984,1.5238048515130076
-0.2045271776188512,-24.32275126577885,-44.73878258455296,9.051672170834475,-4.491027274713307,2.663119449497844,-0.20461859963661921,-24.357409203630624,-44.92864599473222,8.97399495049865,-4.501136625897811,2.671720441950299,0.04856317911131379
-51.11610653049328,0.019134729675777,-2.80767817809904,-0.1583389762455712,-0.0003006909017352,-21.996828720744613,-51.11580771166746,0.01929897666263969,-2.807604624884675,-0.15832127697208875,-0.0002948312361112926,-21.994945000186817,0.00010537398356001618
-21.99296998148904,-51.04099073159909,-0.0026806819828765,-2.8071906415395165,-0.1624494338037383,7.741781772200017e-05,-21.992912524714257,-51.04067172122973,-0.002740014958021675,-2.8071775074835443,-0.16245961134171694,7.94907301724379e-05,0.00010106474178593531
-35.72168952208866,-3.2938988657885866,-0.8850035699438896,-1.1134880735403028,0.1954338779013002,-18.026802906999468,-33.41986039213981,-2.9016635980311607,-0.842242161204676,-1.0493226261329762,0.17923972747752775,-16.81679601210824,20.410878646890296
-0.0002816667933528,-2.654583549481485,0.2551495877722485,8.235311655532754e-05,-21.31333383530295,-56.41436131469847,-0.0003245210856448466,-2.654566941436997,0.2551615616797349,0.0001300295011432695,-21.31328746318627,-56.414040658470185,0.00010026257788973895
-21.313383193494847,-56.41438218795225,-0.0002472185535129,-2.654636119617958,0.2551543053872419,4.709181083939072e-05,-21.313433458614895,-56.41452455307012,-0.00020159883962378444,-2.6546369242406485,0.2551527852288018,-1.8891190620706766e-06,9.921395187172025e-05
-4.19352141141729,-5.697915865877347,-0.7790681941978399,-0.2359256628218278,-26.58219575665513,-37.83981633978415,-3.985282100168519,-5.713003274495847,-0.7883217173467776,-0.23794663104594072,-26.61260933104722,-38.04956745146938,0.6389409821475754
-2.8071624288636463,-0.1624482512483502,8.342166791658504e-05,-21.99293794969997,-51.04096810216195,-0.0026813936880103,-2.80720018749966,-0.16244933828307495,7.508205015938074e-05,-21.992989972503892,-51.0422261579306,-0.002310886528903211,0.00010357684081606281
-35.29763097937699,-4.553461178187008,-5.727457865800033,-0.7363440297149518,-0.2513083427312422,-27.23207042620295,-34.4759949890951,-4.037995191560084,-5.649808374489456,-0.7295077617994192,-0.2446781203693671,-26.911165619038794,1.3758092406670828
-2.806968247117548,-0.1636607959727124,0.0002667814903475,-21.996788837489028,-50.997254590691455,-0.0170989168442815,-2.8070485217067755,-0.16366672478535804,0.0002633657010733259,-21.996396560987478,-51.002797424448545,-0.015287972682017426,0.00010245449093014473
-0.0029089385868534,-21.033239034948576,-55.97053598704537,0.1379360645206455,-2.854118347891279,0.1746958330445158,-0.05776672818819861,-21.270882159413077,-56.6232252048012,0.27492753084766264,-2.897912358026133,0.1812530390400724,0.18361755658560405
-0.000249226124154,-2.6546279885786346,0.2551533047060822,4.886751937363568e-05,-21.313375823918985,-56.41437692513556,-0.00024077281113932258,-2.654631800052414,0.2551522045588257,3.69875869452585e-05,-21.31339218331823,-56.41443999503099,9.884787053403202e-05
-2.6545990462652664,0.2551496297621629,5.566879852457168e-05,-21.31334817177802,-56.41435809409016,-0.0002567302123242,-2.654584405715582,0.2551566300574848,8.781184033068712e-05,-21.313305728383966,-56.41381108089263,-0.0004131101750317612,9.929982292243481e-05
-5.951750603699195,-0.8299918790597034,-0.2552884981984527,-27.195897433087268,-37.11505328148461,-4.097467633513185,-6.117320474083797,-0.848331448164338,-0.27420713189848467,-27.963302749598427,-38.76674120075735,-4.888374998267466,3.6913871095684687
-1.9847576335624304,-0.8505803121882148,0.0854099795581136,-21.263195642679204,-48.24466213837746,-3.254866002347625,-1.9512610385395484,-0.8723358784560868,0.08407320103086868,-20.685563859906555,-47.02509558061833,-3.3027698388293234,30.51008224292599
-2.8069913492481025,-0.1636618087933624,0.0002619242178849,-21.99681495475519,-50.9972781248313,-0.0171027645617486,-2.8070488754093788,-0.16366021366602723,0.00026244986912615786,-21.996218312876636,-51.003185235430465,-0.015130993363527523,0.00010321061287919734
-2.8076336746864747,-0.1583375968935257,-0.0002913442618548,-21.98869905443779,-51.116078917407705,0.0191228374278419,-2.807590748690046,-0.15834235835739463,-0.0003087758037736421,-21.989420252476975,-51.10977481245118,0.017053104524165974,0.00010466281938357939
-21.31336528491164,-56.41436952806638,-0.0002519148197628,-2.654617436323147,0.2551519995684652,5.125186525625215e-05,-21.3133528159251,-56.41433280811634,-0.0002584234760547588,-2.654615648587807,0.2551525213466448,5.62756331419223e-05,9.882795981917739e-05
-0.1380003467751517,-21.479976487113504,-47.6631495723372,-6.714280557369142,-4.308562556574649,-1.212663560238446,-0.13891394415388136,-21.54138589290922,-47.76217910382235,-6.783882816831721,-4.320848346767908,-1.2165348077297793,0.03351183832708836
