Roblyat/algorithmic_payload_estimation/payload_estimation/data/result/effort/wolf_alex_effort_results.csv
Actual Effort Joint 1,Actual Effort Joint 2,Actual Effort Joint 3,Actual Effort Joint 4,Actual Effort Joint 5,Actual Effort Joint 6,Predicted Effort Joint 1,Predicted Effort Joint 2,Predicted Effort Joint 3,Predicted Effort Joint 4,Predicted Effort Joint 5,Predicted Effort Joint 6,Variance
-2.2147294135575,-2.212510233735869,-2.210288794248745,-2.207972214936106,-2.205746296913743,-2.203425384849206,-2.2139695650756437,-2.2116944379958667,-2.209491032328721,-2.2072339661708327,-2.204958253211238,-2.202711329187821,0.003991463753331913
0.254843219331977,0.2560208738382287,0.285309742890891,0.2907021754644518,0.2579990546303847,0.2902047867180337,0.009818346389476387,0.009857882217634166,0.011038502327008455,0.009766299303295246,0.009805863235792028,0.01112158330449252,204.35404615426566
3.5497386192037466,1.5009033046649334,3.5363036587486487,3.545138366584584,-1.8768344224585305,1.283583562010508,0.024241563024589678,0.016821408725413007,0.010220962893436502,0.0077360626546482845,0.007417825128106692,0.012622259888515213,204.7184362657245
0.0961297824338853,0.0961279895036651,-0.0958735062775736,-0.0958722918210353,0.0961224870941832,0.0961207108362673,0.09623557573691599,0.09620109768297036,-0.09578236301446719,-0.09579610721399723,0.09608186051709522,0.09609565395600494,0.005614354700961598
58.631336398804336,58.62047271907423,58.75214337546679,58.74048091457688,59.10696226755949,59.09521094767479,57.68668236348957,57.7537145434005,57.78067203774775,57.89751522918565,58.1316699663044,58.12606197999189,72.52614396211162
-19.928537048019138,-19.92837402055382,-19.93047812321709,-19.93080111563443,-19.938977512471183,-19.940504300916903,-4.634815813581309,-4.631657736387426,-4.630682285799052,-4.62697619608097,-4.620499032783478,-4.615617191789895,197.42469909049046
-3.0418188070941525,-3.0416574083945216,-3.0338074284303964,-3.033689411805172,-3.0335687226546457,-3.0434386190868614,-3.5413545346502278,-3.5388868484354177,-3.5294534134681412,-3.5283760156746267,-3.5260683003988413,-3.535510287181018,7.2903454660520115
0.0100221457080857,0.0095489484827877,0.0096612610960937,0.0097729885338346,0.0100956458515503,0.0102068704585481,-0.9236761235228069,-0.9186216115106388,-0.9208348549197324,-0.9228051031715788,-0.9203576649447028,-0.9268166880568592,194.26213174485102
1.2829241313150213,1.2853029281653483,1.2565859580786738,1.2589329808247356,1.2612672776692693,1.2882420592242545,0.851167997586174,0.8527776681373755,0.8350208850638092,0.8366761827525864,0.850697072596001,0.8542283996028379,147.31782818969396
-0.4973065321355303,-0.4959823034901831,-0.4945150852256744,-0.5271132059934613,-0.5256773962963832,-0.4829585517549629,-0.44789710810774724,-0.4464637943517298,-0.4450875687909652,-0.4757191700443433,-0.47408035800127984,-0.43446263373048233,77.75322019565169
-34.2832353712968,-34.25109548215556,-33.72284729762248,-33.68617235162791,-33.9590995118172,-33.926093500814936,-34.288401221224206,-34.24582809566158,-33.742299940904644,-33.73912255027176,-33.643320229029996,-33.95630119202826,0.04700243323146412
-7.902533609725527,-7.859981850870947,-6.931946416609977,-6.894771233444275,-6.857595419132243,-7.120427406081018,-3.607956071354238,-3.8622739144011575,-3.2409157141082687,-3.1848723570465154,-3.3075190895888227,-3.9011965291629167,2.7599948871141837
-4.322893025511782,-4.284434014419982,-4.245982903140752,-4.286099413033862,-4.247673607934334,-4.209468570071282,-3.327367480564135,-3.29414909818297,-3.1751901011266455,-3.658270630626248,-3.501385421403029,-3.6502712948795306,0.09599214995277282
-46.57359076563335,-46.54555162697397,-46.35197447844607,-46.32434285145551,-46.29671431854516,-46.017396604256085,-46.47805366365019,-46.45562356516518,-46.30122208387537,-46.25638082955329,-46.220712660709,-45.97518513137928,0.045533324723388544
-2.633457037749011,-2.6317342948065114,-2.629779492017752,-2.624665300165332,-2.6229142024185186,-2.5901442738018474,-2.0670597390502464e-24,-2.6193058165309587e-24,-2.7623838023766408e-24,-2.830806116121608e-24,-2.81708238632016e-24,-2.7962633127096735e-24,204.73383504351548
-0.735749307916489,-0.7189274159060381,-0.6896446248712386,-0.6718423422116316,-0.6671618467830244,-0.6484770197623162,-0.01059231144234557,-0.01909719009321622,-0.019304967497951603,-0.027103106716205097,-0.035423592096462606,-0.053714230306108536,93.50579289043019
-51.62518942068022,-52.027255668816736,-51.55880310720172,-51.53438140156538,-51.76732901661882,-51.74305650209084,-49.21081141043547,-49.58381800623829,-49.1284862442329,-48.97704605241816,-48.991354407682365,-49.124234333700144,5.137345798733017
-0.5254395312909645,-0.5114248051808663,-0.4975646452749613,-0.4818786837628523,-0.4684324321026445,-0.4552186969184033,-0.6022758292335944,-0.5981773283279672,-0.5932571627804535,-0.5930813508226542,-0.5910037301888948,-0.5884249589869412,30.99653821481375
-23.35246032985092,-23.30744937988585,-23.30767078291053,-23.30788489566224,-23.353957273477203,-23.354302175836747,-23.32716525820706,-23.306866339880344,-23.305193334067894,-23.274722209912056,-23.325928997768074,-23.311758455795143,0.38223869855930037
47.96237146523501,50.21187813909315,48.057454991052296,48.0748411873364,50.59028250806733,50.60604121481056,35.20987020511127,36.11139520619034,34.57344484577253,34.582358176666034,35.25481331003667,36.04474057896662,128.49022743445897
-0.036719693516306,-0.0364120041954132,-0.0357416409013676,-0.0354139406283554,-0.0350760885627186,-0.0347925595905488,-0.02213589578354789,-0.022449587053175762,-0.02262770817131513,-0.02287985835364109,-0.022906114903905452,-0.02305174316845516,151.68346609247916
-4.814688751541048,-4.801475551102817,-4.7882963675012205,-4.388475649519238,-4.375457888227174,-4.362417322775925,-5.476509247848696,-5.45318890450568,-5.436921468819492,-5.074657481925954,-5.059043397140641,-5.0485555473262025,4.757272301464392
-2.7876532264182736,-2.786264965764304,-2.784857805447385,-2.803814851256368,-2.8025185858645423,-2.8016062445505514,3.680693726287689e-08,3.699699787590111e-08,3.358395430391048e-08,3.858338140978906e-08,3.8759529146441934e-08,3.919875110823006e-08,204.73383504351315
55.0609919110369,55.06099097924866,55.06099005018698,54.91390461959677,54.91390620423228,55.06098720303993,55.05970821662325,55.059703734740424,55.05971421369216,54.91274359094868,54.912738436543606,55.05970389958782,0.004992952447034781
-0.6403226267947925,-0.6440037799824786,-0.6593499986870262,-0.6747232782066702,-0.7061968459097285,-0.7213892109048512,-0.038370877373092936,-0.03812670220886404,-0.038360818199348466,-0.038675790830269396,-0.03936368016424051,-0.03968899632581611,204.5472535057297
-0.4026286517705718,-0.3983168199368643,4.143384004801621,4.141048477096013,-1.1347955415600497,-1.1304942045295785,-0.15552600364878036,-0.1530489477552868,2.4935062852424568,2.492182690731058,2.3920834346484736,-0.6108513517418521,125.64981720589394
-24.2611880349206,-24.24048272248615,-24.21078476406403,-24.186813810731227,-24.171324070626927,-24.143924921189416,-7.5507981648285405,-7.546520124968428,-7.546701827208111,-7.542196273587604,-7.533662059750288,-7.528012545723911,189.0052917966363
-19.279064106605123,-19.27066738395316,-19.26192460252108,-19.25352232141919,-19.245113956224344,-19.236456948344955,-19.274869689650814,-19.267464550618,-19.259231312775228,-19.250696931016194,-19.242135917574615,-19.23384945942189,0.0039115166389170775
-22.093780016110863,-22.073475134847577,-21.799165861727403,-21.56329831218797,-21.435152239127444,-21.38545141438681,-4.5788785959847287e-10,-4.5955998331086224e-10,-4.60407855151507e-10,-4.6044380626667414e-10,-4.6064448946138953e-10,-4.608296721338777e-10,204.73383504351548
-56.6728631463528,-56.93149453718248,-56.62642171470672,-56.60733639961784,-56.75293699135938,-56.73432993844517,-55.7875198595184,-55.981937240381,-55.880557647954106,-55.79819445467814,-55.8777156368123,-55.8922871543723,3.2447056187377346
0.2641551624884877,0.2623071025529933,0.2605123816478149,0.2587198808824676,0.2568304350857395,0.2550422791488247,0.2642562124174468,0.26249784996455006,0.2607934022173417,0.25881529952220106,0.25698371030588163,0.25516101384264545,0.0041754303554545225
-0.3508087006401428,2.84327689089916,2.850138322400872,2.857016713527821,1.5400557704870754,1.5394294074411432,0.4309683724453058,0.6584946257381552,0.6018264755062364,1.280820240613241,1.485847012627459,1.087191407377614,176.3237068969301
-54.63279562416151,-54.72894945164885,-54.7289494347166,-54.87815091164098,-54.87815085833487,-54.878150804994696,-54.354382267539336,-54.28375836259045,-54.23750281452669,-54.24729966929249,-54.27819105719004,-54.32948182360832,3.782425249428579
0.0299309373072612,0.0266179481473606,0.0207196129710236,0.0138981348679463,0.0075854693122147,0.0024289318318226,2.5246361020810394e-08,2.3873062216869486e-08,2.2679614320526133e-08,2.0969955204039924e-08,1.9766796488648627e-08,1.8562348276644778e-08,204.7338350426931
1.5463397933020744,1.548526164219088,1.5821169156291892,1.5818908518828416,1.584077691254123,1.5579906925447011,2.211941244961574e-06,2.2036072929784393e-06,2.215167954257028e-06,2.2024000204489803e-06,2.1954750450023793e-06,2.1869552930450324e-06,204.73383504327072
1.6663887699077384,1.6985070308449617,1.700528186745964,1.701444811949449,1.675633961782652,1.6776817346807826,1.6662393922957177,1.698517556112045,1.7005426394121523,1.7015645032636184,1.6756233974624253,1.6776754762806592,0.01988557572321713
4.948794533672923,-2.375780527399971,-2.3727614123874807,-2.3697339913142974,-1.8092861894281569,-1.805060211815396,3.4470199647560897,-1.874106689134778,-1.7045742449436188,-1.7024068897427207,-1.3213242056580448,-1.3179617499067844,50.051641326023805
2.653558897554171,2.9270629908791457,2.9334133289321915,3.7489418984587815,3.7494403544979855,3.7491060642205096,0.3066166148296946,0.33993976896948147,0.3374954899118693,0.2632707248193046,0.27014766713248356,0.2937986963561932,203.98951177043406
-6.648236010352329,-6.641219510012497,-6.808680209527187,-6.777855795150867,-6.689290807695944,-6.640403177943355,-6.646339014782005,-6.7260132769226075,-6.70801976836462,-6.756217191308127,-6.717158350411221,-6.642869604530369,3.6241008622632283
0.444877076455353,0.4493897088427258,0.4539345384163537,0.4566068767804158,0.4611919000223519,0.4532422902740669,0.0071614399713219356,0.007115767502290769,0.00708664072450696,0.007358206534429542,0.00733270703432302,0.0073046496905299395,204.69495567262837
-0.294645301092684,-0.2974496621786913,-0.3053884885085018,-0.3082334381241366,-0.3110888190351485,-0.3072718587153213,-0.09617752704483123,-0.10280066713500874,-0.10089531017726236,-0.09750244183377156,-0.08250456828357067,-0.0981154973792406,143.9332313372987
0.6708913837007857,0.6921119446051301,0.6949262768851212,0.6867332335885474,0.6893869086207305,0.6920469559490496,0.32685504983007907,0.3326516475882488,0.3339077239128212,0.33012992365570826,0.33206142424735774,0.33296381543903414,173.21575751324588
-2.1417690661254354,-2.119309525467703,-2.1039057074905245,-2.093073785608602,-2.085219463977583,-2.076433248630906,-1.621473557347596,-1.6281017110731892,-1.633193584280213,-1.6401252287737336,-1.6463260288622878,-1.6496836856411234,114.60591616219119
3.115981973098645,3.126767454366278,3.1316686810295726,3.139478580743494,3.148673763750303,3.155862754674673,0.00045711797184614484,0.00045852971292823847,0.00046025531228388865,0.0004614500650556206,0.0004628992359580533,0.0004643560613700297,204.73383114147222
-20.524104480134955,-20.52171133915349,-20.51278756410827,-20.51104343215294,-20.52257455528849,-20.521386104270665,-11.8908862312421,-11.91020463444497,-11.916798358861815,-11.973280971916784,-11.643627982615232,-11.646380455210622,166.53724308566154
-0.0498212492118235,-0.0363560937711301,-0.0231961297801551,-0.011452906095221,-0.0006404181312845,0.0095697158425948,-0.0797172529812542,-0.039885783516666606,-0.06326620628840374,-0.09935171435355983,-0.0717380120794715,0.03209931580875036,0.06945848289533717
1.5821065094144006e-05,-0.0001294511362314,-0.0001291437969831,1.681089586468285e-05,1.6675892553633608e-05,1.6444970214824178e-05,1.707007858952475e-05,-0.00012752977766339497,-0.00012649575029192311,2.0217675641955035e-05,2.0251217896102847e-05,1.9921771719569326e-05,0.007220533742534939
-18.314197486405508,-18.305005516166712,-18.295422716634,-18.28621629757667,-18.277002873779136,-18.267397925377544,-18.317142535654114,-18.30741430871319,-18.298007042462814,-18.28872751304715,-18.27936454057476,-18.269891381142827,0.0038458423201551566
-47.7235086365515,-47.34620825503373,-47.86157612070623,-47.61768110193285,-47.548413304632014,-48.05389249739972,-42.69699120794712,-42.81332955627158,-42.857980343374265,-42.55766669057266,-42.64363881722329,-42.88546850386069,5.8607279207472605
-0.0407172376390166,-0.0419422340125408,-0.0438561847010555,-0.0465038372273783,-0.0489292406312943,-0.0521487821953006,0.003523373601886287,0.013017381342971937,0.01566940048275013,0.02189700700464231,0.03296431036020964,-0.00023356362868341696,204.7037702050772
-2.532400348046214,-2.5371754165852094,-2.537976746261973,2.736322410550491,0.4801898847719631,-1.420525248899246,-1.0090198776945379e-41,-1.0083499011489611e-41,-1.0082701087816019e-41,1.1666426158612426e-41,6.005507126478426e-43,-7.310328547749693e-42,204.73383504351548
-1.889946805643571,-1.8786197895309376,-1.8662739106156063,-1.8558460082337964,-1.8463362482718533,-1.8367479176783004,-1.79302732219822,-1.7813709751269413,-1.770006321799627,-1.7574558744888926,-1.7465373464133056,-1.7371580584386634,15.650028302192405
2.121375469688415,2.122695823554696,2.1444331054970114,2.1456936073963884,2.146971859531987,2.147498355193219,2.064579724230399,2.06593181058241,2.085416657635451,2.089135981263478,2.0905594440706823,2.090942989958318,8.957886381926679
-0.0125748245089687,-0.0046273607253277,-0.0049922110587737,-0.0129148340448384,-0.0129955274577267,-0.0004830600118363,-1.5398584036502776e-79,2.9725145411976453e-80,2.0382471508515086e-81,2.9673990423130786e-80,-1.5395790183031178e-79,1.3427764509564402e-81,204.73383504351548
0.0078692245538436,0.0074908784546449,0.0069414014425661,0.0065611102728148,0.0061796986509768,0.0059840524939856,-0.07477282237854375,-0.07439974612019429,-0.10278960600611775,-0.07029286728283829,-0.059000744694502116,0.3774693230422337,42.22605293971069
2.472582110460533,2.373336585342446,2.3720637735260404,2.37078738343773,2.47105366913258,2.470673079563074,2.465357789463013,2.3795123946203773,2.3728705260261336,2.36114476683332,2.457471414754224,2.470057736465723,0.009172971594930345
-0.0015385028590188,-1.660935329616598e-05,0.0024803508231616,0.0047211911632338,0.0067409894065691,0.0083152618169001,0.0001936542362530468,0.00019019090959445373,0.00018794648454848123,0.00018444632576341223,0.0001830989424843735,0.000180383790718953,204.7245137296796
0.1404410763367927,0.1388160138993683,1.770627039421126,4.400659669346962,0.9912990374904156,0.0379821683009184,0.029605949420023397,0.056596519382134586,0.06663168288769411,0.03165526294761575,0.038824969382112745,0.024445289403189713,204.4407343362196
0.0086943268020706,0.0073444737715133,0.0061733202156084,0.0052432937589665,0.0048979150064098,0.0040647191294046,0.003009354548488534,0.003021054167463822,0.003017130880001477,0.003183797654589475,0.0031884912370287134,0.003014525184559673,201.1965782289831
16.581692660137296,16.579209179553718,16.579010061265212,16.578252826277946,16.583234009673326,16.581334729861236,-12.215206770325302,-12.156283056690395,-12.118800624977284,-12.093939321686893,-12.07099840124038,-12.048996006923442,160.00035881677655
0.0093856847324566,0.0108433028748597,0.0107660463272599,0.0066596758340745,0.0065299814853682,0.0106356341903155,-2.1309140184737673e-12,-2.1742987524907105e-12,-2.241188357296038e-12,-2.2427882334552308e-12,-2.1350561588908836e-12,-2.13716977233244e-12,204.73383504351548
-2.1692421492620806,-2.1668803510708905,-2.164610868826468,-2.1622445628903413,-2.1599701139508234,-2.157693746041589,-2.1685923157015665,-2.1662726222274244,-2.164007824452227,-2.161702677723909,-2.1593810189553864,-2.1570792722782883,0.003967693684169148
0.3966466210747429,0.4217895953991361,0.4247613542799123,0.4345245063105846,0.4372694347524805,0.4399603687289678,0.9162801471647469,0.9300460097937896,0.9316016432657711,0.9395412677855235,0.9410920942617159,0.9426339144692005,86.02114149282806
-48.50850708205307,-47.80369439510504,-47.6680419731591,-47.531862696744525,-47.54040014919185,-47.40284243168427,-0.21124162001219965,-0.212428481907435,-0.21182800318666387,-0.20875021053042422,-0.20815784072771415,-0.2075631693891517,204.72993094270822
-0.3671498935497691,-0.3656848929853099,-0.36967943852082,-0.3682768815986312,-0.4030728019551847,-0.401609119317418,-0.3146875290487936,-0.3132094284896548,-0.31662634485135366,-0.3153797530771513,-0.3485206835244055,-0.34709933945888444,14.572810104047287
0.0155824585439837,0.0147327500070879,0.0147583843829262,0.0150866367886112,0.0151156944737232,0.0151461472034027,-0.0317462399942342,-0.03180542247187971,-0.03192896189276759,-0.032165379370275575,-0.032229520937986623,-0.03222454302395863,200.60934128422733
2.1444331054970114,2.1456936073963884,2.146971859531987,2.147498355193219,2.14875409005936,2.1307007712139816,1.7668285094724616,1.7677460324884025,1.7671975418194603,1.7690621576804126,1.7700137302330121,1.7569955158879433,89.5750750894026
-16.606533826350024,-16.596212933653977,-16.585455192450176,-16.575122253244636,-16.564353069649425,-16.554008125381348,-16.606691458301867,-16.596129173915642,-16.585663035994003,-16.57513332430301,-16.564513869245843,-16.554080443644693,0.003938678103091774
40.82280396751163,37.46858104280851,37.49510108646697,37.52148419648687,38.18094044636836,38.20757460382633,40.80710451758367,37.447924526335775,37.479823380067735,37.50599987102417,38.16572563165671,38.19232977022454,0.014397538694973832
0.0080712926511391,0.0079927804683566,0.0114984888650692,0.0114457710700347,0.0100033038853055,0.0099344385717233,-3.236447392508452e-09,-3.871930740344849e-09,-3.5392738547395293e-09,-2.905947207761673e-09,-3.1535560529857303e-09,-3.2977048506493366e-09,204.73383504350284
42.50968844501944,42.53311376533236,39.305463068766,39.33055540214803,39.99952652282753,40.02472911287422,39.943580279229515,39.050186020655694,36.87262239175554,36.8936351191762,37.55160624286629,37.57858132288968,16.436470894203847
2.4465556149631045,2.4480279234390694,2.447584011232929,2.4568261367630675,2.457179588431378,2.4586480149116587,1.9043707212943763,1.9082146466387284,1.9086894343294538,1.9085338509897074,1.9070021394310461,1.905017176382636,97.69403918839406
0.3032350281778241,0.3043247048719015,0.3054130281712852,0.3033079631240388,0.3043923678018418,0.3054752948478877,0.09463465120361189,0.10483801330769978,0.10527586924617949,0.10464952170484851,0.10500215093477826,0.10535013413250373,180.44303253953944
-0.4479131332503029,-0.4479132117230357,-0.4479133088346951,-0.4494212230210438,-0.4494213040891849,-0.4494213891508105,-0.4390831957862755,-0.4383731743497734,-0.4380063641661185,-0.4386990853523567,-0.437738637930847,-0.43595830977349115,8.657064805228524
-2.9925259075637167,-2.993147126179888,-2.9822413748210232,-2.9943289143242824,-2.994940588424893,-2.983638674316444,-2.4202159652132984,-2.4168575713251923,-2.413704456064596,-2.4129821475669186,-2.4097637624822124,-2.400187521129754,107.4896451886506
0.9601548311561507,3.20005559256332,3.199874113032876,1.0200637581564007,3.502572713224774,3.5020184915667207,0.9432330911943273,3.215680099872982,3.2190861024810835,0.9949766675639804,3.597476041023231,3.670141415838862,8.047206181968201
-10.55785184306126,-10.545099102106372,-10.532448350062875,-10.551050115993982,-10.53887958732145,-10.85066399377366,-3.955254733283161,-3.9417432942430004,-3.93912908720387,-3.9523371432409613,-3.9392091442804897,-4.256146900509465,30.867915387251696
0.0353382410546571,0.0356079245111633,0.0362426138335287,0.036494243767601,0.0367359125228736,0.0369135353531713,0.027027667821856644,0.026870599481073176,0.027382773893970383,0.027517588089622725,0.027531182736718784,0.02776033982238934,102.00949244691304
-0.2192521269070975,-0.2217349756802794,-0.2203850414858165,-0.2554310234748221,-0.2540007115670154,-0.2526050958640934,-0.0373327571901341,-0.03865913858242931,-0.03786312356453147,-0.057624610868737956,-0.05654825033045647,-0.05566455231374962,127.40818888511726
16.187478721462185,16.204927708821327,16.230050265596397,16.24707662700883,16.263869930765328,16.277501140580153,14.076138307561655,14.082668988758115,14.089420894972378,14.094330773835766,14.100814351815242,14.104720396087,11.704144221063027
0.732349437793243,0.7318516674026229,0.7346851906297092,0.737517055169058,0.757492138950917,0.7602683186941176,0.6815185917103881,0.6804105296241706,0.6838088526996892,0.68661342260454,0.7052750737413921,0.7078926443805444,14.759278142321287
-47.3263424388912,-47.34455647248914,-46.60733757786515,-46.63341477349116,-46.66231560047273,-46.92610449530613,-49.20525387053397,-48.573673421604006,-48.56998233675959,-48.79497289652128,-48.92388617599201,-48.88630097948416,61.786595832181895
-0.8477572603044257,-0.8242933222343316,-0.8009798499879556,-0.7752614234223196,-0.7523980634547661,-0.7304811405447088,-1.084358074800414,-1.056868295104225,-1.0317313689338878,-1.0045872178038047,-0.978945498222642,-0.9545471734606501,68.61726804983213
-0.2778256744902682,-0.2855283885987957,-0.2882634222521447,-0.284498377462313,-0.2872503458537475,-0.290019117552994,0.4333170768041724,0.40811553575086496,0.42159389674352404,0.3992277096155331,0.4529883142186439,0.413405306962454,121.63511816339825
-0.0192822653328904,-0.0116530348277426,0.0072044817877156,0.0137841729757731,0.0108620094959821,-0.0043033983951161,-0.02832946273088055,-0.021923985364196596,0.005088755389010657,0.014144534989128488,0.01844700153549894,0.06433612644318032,0.024741529418756614
28.86202715111352,28.89467261479203,32.40538831930628,29.20340650511393,29.235600986752686,33.088175883054454,27.07673719102017,27.10723708242988,30.26939595900258,27.412433056525128,27.44191153208913,31.071105610710067,4.312213675560779
-0.8391245393021436,-0.8279923607021911,-0.8259678198632484,-0.8327492098277237,-0.8299042138419843,-0.8266806976577871,-0.8270456566832536,-0.818882773565548,-0.8159745948091768,-0.8221144381354222,-0.8194097674938234,-0.8190837927141956,0.012678851261435852
2.311133423866917,2.3086183616476195,2.306052639684049,2.308743337645552,2.3060864856643044,2.30177066756144,2.338873884544703,2.3400395635959192,2.341825526505546,2.3480285072911515,2.3490920372171633,2.3495256141140812,4.917612753156542
-21.74091478326404,-21.735201975161186,-21.819634476059147,-21.81477166802805,-21.76738182347547,-21.76207634613345,-22.005608569315655,-22.054987530416952,-22.132982047705354,-22.07110579102266,-22.092947196543605,-22.040805112919145,5.214093893523861
2.0553878427686856,2.143068410210958,2.141529964543844,2.1400176245073954,2.3002300868001706,2.298651036289745,2.0544009264956458,2.1347790267851394,2.1473145243842,2.1480200026384395,2.3023281932386794,2.299838257825627,0.009980333800493667
2.092582725744119,2.2467696977125664,2.2448171618728843,2.2428658287507823,2.008665172252558,2.0075542926141785,2.0916356713410753,2.27612392980177,2.2155818946511943,2.1988608002345345,1.9784298024900835,1.9608082262778908,0.108358319696075
-3.971065403986077,-3.958093582651831,-4.291855941071545,-4.278644996572568,-3.88565222643733,-3.8726552150026783,-3.9704210486364104,-3.9574115453335708,-4.291596201184518,-4.27840068925417,-3.889383998932203,-3.8721074151924597,0.012542720999656353
-3.027014145260095,-3.0238068242323144,-3.024122713102826,-3.015475006403747,-3.015835801338088,-3.028768072836677,-2.1485452178632727,-2.1465247880761793,-2.146702950647412,-2.1430094479618003,-2.142230645541563,-2.143821352894844,128.19973514052538
-9.109392140176674,-8.070347782149355,-8.619865596316142,-8.405573424399714,-8.315639542142623,-8.322486710757222,-6.027114663279008,-4.622495081865509,-4.22315714667684,-4.972475834906163,-3.6872021788735765,-4.847309280503396,53.63831449548787
-0.6913731404296422,-0.7035819041838103,-0.7163054597268617,-0.7284158937404998,-0.7409952017369681,-0.7529328523660233,-0.1501546653225175,-0.1512930409998494,-0.15369405729692365,-0.1541726222722261,-0.159932461111823,-0.1580016066641735,194.6602524015481
58.69934792233476,58.69323880465287,58.83045966403038,58.82298840155333,59.18880078534058,59.18046672351367,56.98265881339501,57.05781056989091,57.01627487614054,57.21744660555807,57.24063580833121,57.34610805891299,77.07103908246555
2.4030283416665865,2.400944590859416,2.4003676962248144,2.3997893201716654,2.395151174650634,2.394571352556099,2.411254748690447,2.4100436242553576,2.409492101124715,2.409259107634234,2.40412584891334,2.403652161640103,1.0051294166641274
-6.825528497371308,-6.812511206458144,-6.831670172636769,-6.818682189013504,-6.805624150304733,-7.164763889091002,-6.826237169106108,-6.8131821199885145,-6.832160680757179,-6.819149738831854,-6.806103376289352,-7.165579374114797,0.014163930566960402
1.9033158424090504,1.9049805614690785,1.9066291433945053,1.9087869238227744,1.883973262302388,1.885855329060495,0.0017420581249125479,0.001715892332989652,0.0017195193980804654,0.0017211207882096272,0.0017361847511110863,0.0017361022320741839,204.73359776054693
-2.3967606090836946,-2.4030176144537547,-2.417667586820072,-2.435414831763534,-2.4546157870978105,-2.474940085741673,-1.6141643719432608,-1.6238427918949103,-1.6324174573245553,-1.6392592073909906,-1.6442627522348978,-1.6515906339813995,8.492767018129607
48.59572329011299,46.23967146120653,46.258539731248014,46.277387090470775,46.96370914128128,46.98216412266896,48.38174631747406,45.8002513030786,45.779245109935836,45.80238934332448,46.42224465823974,46.442076743112416,2.074252998407312
5.121894928824868,5.165429980370422,4.085928157586646,4.122362818154406,4.050588295729289,4.086800581425713,6.15845972815282,6.793971516145632,5.757063076772653,4.987269628906006,4.851505578516992,4.803155766410555,1.1854251665625757
-0.3377148539286458,-0.3390039169212349,-0.3401854515115061,-0.2455647908976076,-0.2462522143189284,-0.392367861962885,-0.34379905139002886,-0.3424602436657995,-0.43903133571202346,-0.21237624899259444,-0.2964583253069044,-0.30127258895074505,0.1131418630700499
-12.597893902709393,-12.332710741620186,-12.574339808873344,-12.307854394954097,-12.29554737574349,-12.282985442506185,-1.0932844575125826,-1.085761282350778,-1.098122734697522,-1.0773859192607487,-1.0772096087995142,-1.0705058571070796,204.218322292917
-0.474072938066455,-0.4743193302253708,-0.4738573272262997,-0.4797399156952946,-0.4792794722016861,-0.4788256068830033,-0.4968451918422557,-0.49758487727356876,-0.4973006599158103,-0.5031016279050416,-0.5029551012943335,-0.502854019662112,5.013913192246273
-2.732621874104398,-2.733523504246633,-2.739115809017452,-2.7399881040434955,-2.73941544218413,-2.740228085367523,-2.8000164255228177,-2.8012575893711635,-2.807344967475099,-2.8079733337316464,-2.8074482404413534,-2.8080423566512143,1.591213587027804
0.6514972961571389,0.6517994451010433,0.6311090747975614,0.6314195404289756,0.6560810661996516,0.6563773999867316,0.6474929272743896,0.6478119728081556,0.6271639588857724,0.6274381129318951,0.6520509238665467,0.6523579830182622,0.3722453391845112
24.1047008977714,24.137290193980025,24.439201822829755,24.473132669256128,24.5070459652132,28.162866364271046,22.73421862827182,22.765072229674658,23.03228469369799,23.06610816095029,23.096402530761075,26.567331768494288,14.342457690068224
-0.4918656592347626,-0.4912592760863232,-0.4834471699039288,-0.4828533077194961,-0.4830254412425208,-0.4824378457427822,-0.5198232756229949,-0.5143058581852535,-0.514628339005534,-0.5147981304000878,-0.5156029956012199,-0.5155040919594147,32.51037710830398
-19.061665390477582,-20.199398172337983,-20.50709201907163,-20.49795511031336,-20.40096917558241,-20.32833852034892,-5.412694027875254e-20,-5.694187886924879e-20,-5.688894525373864e-20,-5.618169523365861e-20,-5.557371823118515e-20,-5.524351060836828e-20,204.73383504351548
-0.2437544946802822,-0.2422190471815154,-0.2774830154630732,-0.2760114731609682,-0.2336945780867417,-0.2322558931446883,-0.24550019253515554,-0.24407037118787964,-0.279351551680571,-0.2779214817183173,-0.23534560805197813,-0.2339430692109506,0.35832579542486986
-0.7230828129167957,-0.7342261893237942,-0.735927400438138,-0.7283047600543402,-0.7300561188475513,-0.7415246558709804,-0.35480505313554644,-0.33294375662749864,-0.32033472043958744,-0.23816775219500919,-0.33533182334628364,-0.35118397879946706,72.71356874627863
4.887011380047641,4.884757557141234,4.882494594451623,-2.275977528967718,-2.272656150817631,-2.269325865484724,2.758705716009628,2.7590310266468308,2.7592739017838603,-1.5174565456042481,-1.5165186719174402,-1.5156699317464317,141.69204351323688
13.210323155985272,13.223857673559364,13.229007933371934,13.243458517898816,13.244300427460358,13.25974893865614,13.209854272632597,13.213124453017542,13.23680691702171,13.2500104168073,13.259632961838946,13.271827551126137,0.4177094919551313
7.793259609785556,7.984006992469181,7.942994899726761,8.011108315894232,8.015692672319709,8.031982243972374,2.431184713187078,2.5016051336408665,2.5119820727308264,2.5844473538866044,2.478370914377562,2.5645471442616774,126.90279384231134
-1.0194325475325683,-1.0062667481531615,-0.928738524457454,-1.2123474104014664,-1.1988937570273,-0.915086454526848,-0.976307806301778,-0.963078929987118,-0.8921364114047602,-1.168490364502679,-1.1539204892662656,-0.8724433330331667,0.3298271992041554
-0.0222177060263112,-0.0222347547952579,-0.0222523067617962,-0.022268983211364,-0.0222861735042203,-0.0223024769252776,-0.02518714157972113,-0.02519942084884974,-0.025213139601447665,-0.025226774195346024,-0.02524252958457396,-0.025256263505696097,0.004276765804443016
-0.6802817672193647,-0.6757056141927804,-0.6741370958727226,-0.6760728836478807,-0.6679473640015905,-0.6700345326869498,1.2921159805980889e-11,1.2318762767522292e-11,1.1687562383282465e-11,1.1363613713923844e-11,1.0656195253931154e-11,1.0034131917257298e-11,204.73383504351548
55.061151517621376,54.91364653020147,54.91364898264522,54.91365125570292,55.06114707512453,55.06114565504244,55.060547953824255,54.91313711790485,54.91312523774974,54.913150089535264,55.06063806308353,55.06062890491032,0.005616619157146828
58.8520680457207,58.30253179497104,58.28366885642774,58.26448510955876,58.384211626033554,58.36422968240903,55.628068994372214,55.0784221558279,54.70438136168057,54.691681200630676,54.84475720898623,54.751089656802094,8.38311257915897
-23.27828709902204,-23.31699418512944,-23.317948106192684,-23.298844368934844,-23.29967252844408,-23.28167748280225,-23.26146125347566,-23.302127657941014,-23.30622210280967,-23.28505213016126,-23.28763054629428,-23.275062914028354,0.012692362275666823
-2.959031668231164,-2.959767780338218,-2.949983517454398,-2.961247315868536,-2.9620163304239377,-2.9518697980089925,-2.614465971417557,-2.6124658432669046,-2.610457380312592,-2.610908900800355,-2.6089308234750392,-2.600718903832531,91.92371545791549
0.0023351712451426,-0.0021083923539176,-0.0020311097780967,-0.0019547645327203,0.0006879266283163,0.0007647074851048,0.001566217629427266,-0.00013050904020713467,-9.574531648994941e-05,-6.264040628881348e-05,0.0010576137663539946,0.0010874774199743672,167.45444712945323
13.460820857355923,13.46783449347456,13.475848110597278,13.481659317034978,13.486281685845542,13.4912186160082,7.432400249382281,7.438709384379239,7.443553300114033,7.448621148378372,7.452848261197249,7.457730411272887,37.569368535751074
42.15032375358881,38.89393814796487,38.91946683342625,38.94484005812428,39.61258053054814,39.63808862533209,42.060790600218695,38.79156947301316,38.832150499191165,38.85725915616845,39.523965065388616,39.54946367500541,0.09115132256023105
-4.399031985548487,-4.385838133565951,-4.372642467838645,-3.978353594684732,-3.9653328193981134,-3.984036659390409,-4.382642631613335,-4.36990065786033,-4.382960188703155,-3.9647744120143016,-3.9508017652526917,-3.969825406206627,0.28566225411229074
-19.96393637944121,-19.970469808876647,-19.97807602437869,-19.996462847020847,-19.994700241718515,-20.003328065935964,-0.004846245582694143,-0.004853575630710636,-0.0048619941592695755,-0.004869234235733643,-0.004873598047555049,-0.004887611981620134,204.73375693727417
-21.48006031331698,-21.48483095514853,-21.481568469012903,-21.478140723744296,-21.466401442819087,-21.462654404004468,-15.743147782631171,-15.750237492222032,-15.761705151140696,-15.768952752260025,-15.780282864204286,-15.791700430971432,69.43523315805716
8.923456825193151,8.821814139852938,8.857410940865538,8.892943321764172,11.175342634494127,11.217438309969992,7.848481933322794,7.793124683985278,7.833282200744163,7.936147320566293,9.978872813180214,10.057658114821544,8.610769430380552
2.203904387301984,1.9995404083750543,1.9986174505078007,1.997713186251009,2.0573561243257603,2.055760698884854,2.168820093603326,2.059486715627955,2.0044052097802023,1.995389066741481,2.0577995872920383,2.0547676683246436,0.02210399119526062
-2.5843521204532665,-2.680805769096447,-2.581013510049768,-2.677701621254545,-2.577420790575319,-2.674786493486204,-6.477523591317829e-28,-6.5035310758220455e-28,-6.496373157156512e-28,-6.451506963960229e-28,-6.422622197261766e-28,-6.3992388431604e-28,204.73383504351548
-0.1015035232622247,0.5953355708454954,0.5983350568593117,0.6013183481726443,3.739732803098902,3.738991608325013,-0.1901748362546937,0.6214557488471908,0.639441201644698,0.627539884411413,4.027258756453922,4.0259089293792805,8.176123951360731
52.56135948004747,50.66898386234971,52.86277575742052,52.87415257322269,51.23702717141571,51.25009991674737,41.138053571357204,39.62541316786599,41.1368791780494,41.32587078403068,40.04995557284019,40.0167581855001,28.485304766323605
-0.027575559464975,-0.0268539812656407,-0.0268919762288648,-0.0267640187579659,-0.0276342529636834,-0.0276704285782051,-0.015580971033149725,-0.015193777012344312,-0.015208545633735906,-0.015154973911675293,-0.01570451157715737,-0.015723640610431407,133.83960084880977
2.0786480995125216,2.0800456692801608,2.103010185007702,2.1043612624547885,2.105715103110432,2.1063949030521254,2.0450951392927452,2.0465032030959707,2.067913149934015,2.0709138147773603,2.0723520645484785,2.072970562937185,2.986148058948837
53.758615048807926,51.7920441332159,51.803091030348135,52.31174950829935,52.32223996269951,52.33270813832643,20.798170655777735,19.647434516574076,19.502594986022654,19.607093984943734,19.710157278858702,19.665404232565734,162.11115544459767
-49.6884210273256,-49.696393558191,-45.30766088998413,-48.08247766157385,-49.163282975185,-50.93210413990926,-6.705255590498855e-22,-6.729165591294476e-22,-6.727377243348154e-22,-6.730793753791611e-22,-6.806736410235951e-22,-6.746856010275795e-22,204.73383504351548
0.6214595316187354,0.6209652000673218,0.5994228126132806,0.5989329040661532,0.6190524630920087,0.5957384242246104,0.5720546220904779,0.5716594834774886,0.5522935452531949,0.551706736720319,0.5697249759167441,0.5481343757943341,3.8186349114176696
0.0129460872780407,0.0128932952473555,0.0117674838698281,0.0117116273717578,0.0099724852886315,0.0098949111456753,1.1579192993769957e-06,1.1293057376210175e-06,1.1291875029723632e-06,1.1296644791829794e-06,1.090668518266223e-06,1.0905798870089756e-06,204.73383448698866
0.5795349655307478,0.5801389192819861,0.5774024557028797,0.5780052333204699,0.5786025980186291,0.5572244569482716,0.2875251876125989,0.28550811963894634,0.28433507551882936,0.2847402249322568,0.2851280796221264,0.27354742854288855,131.3224626350833
-1.2430250536111385,-1.247326275002375,-1.2483888229360511,-1.249449092326217,-1.2473549453668131,-1.2484791360043672,-1.2397778907246957,-1.2437674920783088,-1.2450125639308545,-1.245557025311177,-1.2437684935624334,-1.2444912181081356,0.016795060191848166
2.503763288916665,2.5050789199344297,2.5050507487721383,2.498694281145144,2.504805366803208,2.504768631877633,2.46061009357913,2.461944238559509,2.4619983285589218,2.4558653402886974,2.461801999668176,2.4617967196598993,0.3010880952006493
-3.227873224473753,-2.9866250186711376,-2.900121181099955,-2.812108882310121,-2.303375274542458,-2.2137847429780733,-0.956109019459714,-0.9292674953304897,-0.8161598418977515,-0.7932094407476052,-0.8479923204352852,-0.8212569807559224,180.8220823518769
-31.772125811845843,-31.78701050027184,-31.6684462728742,-31.62824184134712,-31.593401052255416,-31.586989337723384,-30.804613881782615,-31.368190557468964,-31.256131187781165,-30.88592165847092,-31.10431800115657,-31.429559143881193,4.555593691530797
-0.004100899043945,-0.004041766678974,-0.0100046252085334,-0.0099391491326542,-0.0098733869918104,-0.0075146542797661,1.7835964571441948e-07,1.8859886047740315e-07,-6.817067117977814e-07,-6.685368837673984e-07,-6.549029427537241e-07,-1.8069812073186167e-07,204.73382265027777
-2.773121458643243,-2.782962914555269,-2.792048257180894,-2.8012620634747445,-2.8097377746043546,-2.817795920882867,-1.6691482782838485,-1.6746551393788178,-1.6804647982845617,-1.6853408617994667,-1.6907378992134887,-1.6952609440266195,69.93495859459067
0.0206605428307161,0.0206957409206955,0.0219350607117225,0.0219721655213152,0.0208031722422631,0.0208376593980316,0.021083480703805675,0.021124433985593778,0.022386203199928748,0.02242343819623432,0.021230915165341487,0.021266794640275016,0.3202133053516808
-20.853885476424253,-20.850155791919622,-20.86616976910476,-20.8615486815002,-20.85633774178113,-20.839205471538623,-36.4491424420243,-36.43639983674701,-36.412945087415835,-36.40475809131342,-36.380555577250625,-36.36823754797658,9.576294934639359
2.407186445878757,2.4121604446334217,2.4116099170070133,2.409557751411843,2.4090036085818136,2.4084479684944866,2.407048852819563,2.4120362006350256,2.411496440335143,2.4094546288782173,2.408905115277575,2.4083571759245084,0.011088567654647817
-0.4658025600354425,-0.4626815613066606,-0.3982843584399784,-0.3952452841491595,-0.4660404563076633,-0.4630577118732538,-0.2279961357326723,-0.22608307573744726,-0.18872171418652475,-0.18705370189925272,-0.22942059975171616,-0.2276465907000514,83.63003580720243
-5.103829056077997,-5.090778418865759,-5.077741134529702,-5.093946533147919,-5.080914443609369,-5.4312825424519,-6.28594571654003,-6.273319139249689,-6.25822079321165,-6.281029966971099,-6.268126198224627,-6.613771971786975,1.8928353713517172
-14.03193694253056,-13.64894579059455,-13.562462939812413,-13.529634989021938,-13.490428748863446,-13.729277408460602,-10.108267192834319,-10.248791950140003,-9.712232458097787,-9.888204377157308,-9.910642021652166,-8.125099003287687,7.123893371453287
-1.924462447680208,-1.9295297716644453,3.4119575325768023,3.424293889914802,-2.195041203189421,-2.200132811169915,-0.023271662258735375,-0.02324343200891088,0.05831328122901099,0.0583258212397535,-0.08064065692320327,-0.02875772355905956,204.70884205122445
-52.39382435666182,-52.78347940101408,-52.61045885012291,-52.87897876772322,-52.55128204986883,-52.95984624327382,-41.27612639786198,-41.22607083506919,-41.49021957899681,-40.99979634656907,-41.08310701236755,-40.93682375843408,105.36354014581323
0.0105965448371307,0.0105286659635885,0.0125544785148015,0.0124839569398413,0.0124124763184004,0.0120638986302735,0.010715553596017204,0.01064584566294667,0.01270014225753762,0.012626921896701,0.012555483393653137,0.012201240681433564,0.17720874031111056
1.6718256342122866,1.68014395635963,1.6894925105006708,2.021374938616616,2.031910509572084,3.050635500502877,1.1984071450096234,1.259534745527924,1.6185078725545803,1.3035454528939774,1.3949244205835056,2.044313649748005,157.71255246548202
-52.75289688058272,-52.72087766755428,-52.85355323782444,-52.82254242172264,-53.07880489498105,-53.0498664609394,-52.679416674837476,-52.800186783428735,-52.421624447841005,-52.64900800569858,-53.01474438074551,-52.87305107546308,14.004224886894642
2.4890549733374523,2.488816143540088,2.490000615264345,2.4897588642787456,2.4839069080765577,2.4891158884614035,2.2346359987696625,2.233155882971895,2.2303874080203294,2.2307687018511557,2.226074616351996,2.231247657153533,53.66144668730124
-21.734587670050782,-21.67976908775192,-21.67432829684793,-21.607626058817026,-21.60151290727033,-21.595200223644035,-22.74997935362697,-22.698598063452152,-22.69115830817455,-22.586971761862685,-22.561705457174398,-22.53862734361124,2.071389879924121
-0.0305242086384999,-0.030517722351157,-0.0305110543303616,-0.0309269214553618,-0.0309186299308924,-0.0303901397051945,-0.030648561419053318,-0.030642514749367602,-0.03063702846922307,-0.03105819393217822,-0.03105231355657727,-0.03052347374878559,0.027200696135148406
-0.0284228970032225,-0.0289458877766295,-0.0287179419998362,-0.0284603843287114,-0.0270970241538643,-0.0267868190892816,-0.0005904159496371924,-0.0005760832968075472,-0.0005823982778745587,-0.0005872653264351843,-0.0005902024091425335,-0.0005899536564653669,204.53764416236564
55.060918119229335,54.91403374103459,54.91403508293845,55.06091594903501,55.06091524969632,55.0609145525977,55.069475782172105,54.92250873528627,54.92261525302817,55.06956536381227,55.069551899202565,55.069510939947264,0.007433625851499414
-1.3693130872699768,-1.3684971541455748,-1.3677117098761191,-1.3669244612042633,-1.366102170351598,-1.365311242400754,-1.3681115660840106,-1.3673142592617538,-1.3664361843724286,-1.3656746951580772,-1.3649696035436207,-1.364116613388756,0.0049549783673033965
54.026724450206615,53.94981042034059,53.99184713392852,54.53184854082428,54.09225731927382,54.13716046488244,43.73310984299867,43.81244977321744,43.93926969228998,43.937172743734855,44.047714293462434,44.05867935958675,140.25390297500306
-1.3619139187103413,-1.362674114236547,-1.3634588374914072,-1.3733263494222157,-1.374127475025286,-1.3713022571202007,-1.2524940569527048,-1.2377936605902735,-1.2348274026610022,-1.2436194359785353,-1.245209295603048,-1.2438368767264476,8.446878720007001
0.0229847400065563,0.0211285334586172,0.0196062100603772,0.0179477019514647,0.0164612213067219,0.014997527464657,0.811137150800764,0.8285280940292963,0.814320993805579,0.8023577761162842,0.8052591322087376,0.82407968970949,163.56873121196662
4.888191754753973,-2.6939097896062365,-2.694230693616675,-2.393927681022205,-2.3933049644673345,-2.392628995240872,3.7661131662290885,-2.724344492404874,-2.724747729273257,-2.426564965989992,-2.425440605646866,-2.4241201595520487,6.73740972254536
-14.475411016213227,-14.472435136020096,-14.524834948929952,-14.512356968567206,-14.504222938543988,-14.395076226408843,-13.73701669067981,-13.84908744809142,-13.89893897014829,-13.864135961430065,-13.903194425278599,-13.835841034415637,5.9239056054696935
31.84134679099988,31.64250547368466,35.586540823605375,35.64597000780952,32.495859319316,35.120618743734525,0.04831948541727227,0.048777903945185094,0.054704026256385055,0.05346696376438301,0.049002355791743744,0.04842186564495685,204.73326637953767
-0.5564669119710716,-0.5582554328416984,-0.5600432147265192,-0.5703709852538619,-0.5721686826493928,-0.5655523915946628,-0.5776467255374387,-0.5836986829405151,-0.5871878243498134,-0.5953611282456872,-0.597845290571378,-0.5892662146553445,0.01444402330410287
13.232119319651163,13.23211959505201,13.232119870139728,13.228366299934583,13.228366468329789,13.228366636657746,13.202247877523746,13.202374440445737,13.202452755444256,13.19859565668662,13.1984206317386,13.1985315280142,0.006010782927356672
0.63640970904734,0.6155169679404597,0.6159049892594558,0.6419308399946718,0.6375938419128965,0.638360691234249,0.08988793518448579,0.08674433795813387,0.08674985264056698,0.08709545682333733,0.09032431274165445,0.09032965006915762,200.32514780283822
-20.9488896513413,-20.93573326565755,-20.933290477135014,-20.930939929427147,-20.92008327430579,-20.91788722730436,-1.701006108193937,-1.7208313079325634,-1.7230316007799793,-1.7084727318020718,-1.7133464137765912,-1.7246299350055736,9.930869509532366
53.39116178477648,53.39862721790955,53.78847191424518,53.79510534734816,53.8017161858061,54.90752467179294,54.31826266969595,54.33506434841294,54.57229494560434,54.544973023235045,54.636108273579794,55.45406810940506,8.545421189828895
-0.2543671499503423,-0.2568211999821205,-0.2641705601805301,-0.2667044353216702,-0.2629148105421322,-0.2654848873716422,-0.00924188109994043,-0.019740192299616686,-0.01605159296327609,-0.014384373607175802,0.011613658900325863,-0.010476197878519325,148.6684043785414
-0.8144616279997324,-0.8178519141315905,-0.8289611247957688,-0.8318901714659892,-0.8261374901683136,-0.8281164035583376,-0.8134332318224438,-0.8162888144215117,-0.8267793103913164,-0.8310739462013572,-0.826184416945452,-0.8278907761753089,0.008880291388616
-1.830320417426283,-1.8367640373105008,3.205839166245588,3.2188770140272767,3.232740970488328,-2.114194140284288,-0.008103441484793542,-0.008091066382811218,0.02150815728720483,0.021510662457013892,-0.013638018119616187,-0.010245007454306896,204.73100928779428
-0.9036373476260234,-0.8256832693175903,-1.107468176983692,-1.0940320041327194,-0.8116980580480473,-0.7984519666159776,-0.5954167463731136,-0.5138391051450315,-0.7823908069023352,-0.7792958265820493,-0.5031463982351821,-0.490369006984056,3.303517527970465
0.0384782258609969,0.0382860278501474,0.0381407819490231,0.0376503725347672,0.0374669309388156,0.0372650611068237,0.029413008972549674,0.02943193269423399,0.02928829514183256,0.029166321811513657,0.02891177923329234,0.029028464524264157,79.68264663243117
2.393503327557005,2.391387263059681,2.3907864542892923,2.3861478896145,2.385545531408732,2.384941709262597,2.3960592361063786,2.3935991779171375,2.392685098564271,2.3876656720341947,2.3867594692048444,2.3856626251183464,0.06113750565510588
54.91362291361312,55.06117653893536,55.06117557584161,55.06117326300631,54.91362949070511,54.913629310158825,54.90933653275391,55.05683010259301,55.05674560337184,55.05626742840468,54.90882076445803,54.90926759359678,0.0075080606425023
38.18094044636836,38.20757460382633,38.23420825136238,40.99818625478696,41.02272950187646,37.68312280951519,31.14429924520766,31.16926956822519,31.19064299285046,33.54406001155748,33.56456652807063,30.080497873932277,18.555257041879468
-23.321158966603484,-23.285205609628186,-23.25441797981701,-23.253383889477348,-23.31418763793169,-23.313204652386258,-23.42673149958739,-23.335290026739813,-23.286990473040873,-23.223235026627094,-23.30612839611831,-23.309949814440984,3.6325404350619497
-18.03781132230085,-17.997704007241467,-17.959188033611497,-17.92066628242784,-17.88052574782063,-17.84199219928396,-18.07652204596161,-18.036442733180593,-17.995684654242723,-17.958513233676058,-17.919361128408127,-17.884092275786315,0.004105027917953407
17.129811618407103,17.165074888052512,20.652143556878524,20.690151760554446,20.728167982386616,17.318395398265476,17.12017091353172,17.156639472793376,20.650445903015346,20.685328196186212,20.795887471614087,17.314583421251086,0.01646893704512752
0.0136644060263138,0.0142144058461405,0.014271100855483,0.0135755528994479,0.0136255269118346,0.0136738870542538,0.018443616507872865,0.018903051976772108,0.019078665187381192,0.018564894296713142,0.0186796763376146,0.018777173183143314,49.325105725026596
-53.17510217683905,-53.57347111512084,-53.13009977538138,-53.52950125185557,-53.08501063062849,-53.485430730015054,-52.28209491323298,-52.790830017336646,-52.470828030888526,-52.749746303111465,-51.940884996595855,-52.460781271312555,7.036529488347847
-0.3572866089705183,-0.343002559210024,-0.3352266966821995,-0.3212723637028182,-0.2990603839401369,-0.2848915786923981,-0.35277562462826495,-0.33985598633412906,-0.3299129485154708,-0.3183847996634199,-0.3027395033885796,-0.2696580928374033,0.008150592888890628
-1.3315792090286105,-1.330401566487915,-1.331409354005302,-1.3366322332157703,-1.3376137967187434,-1.3385175177400646,-1.3511633618344405,-1.3757235252971032,-1.3758683450031204,-1.373792844649893,-1.377963772383723,-1.3882257662633195,12.214483366389752
3.1985641543115952,3.1983568082545006,1.033837601936926,3.498166977129,3.4975889530108057,1.5626010337456775,2.9961171423207453,2.993365324224974,1.0629415541904876,3.253889610437772,3.2436833165104155,1.510687112399329,13.584343830215753
-1.6260947237977883,-1.6332517504758537,-1.6401284613535911,2.785845790140074,2.8002514606232323,-1.9280409778770025,-0.06282790782351409,-0.062281904500945236,-0.06265299865657332,0.09955761561968186,0.10064011984134792,0.10723186922085369,204.0853971379215
2.535964566412465,2.550012782831205,2.545073772166345,2.5406755695954963,2.536600283973475,2.5149972824641784,2.4815771575229064,2.563103027566214,2.5119202953493414,2.531631620658061,2.56619675531644,2.495166962982081,0.19120919363997235
55.132427152935286,55.17628121360128,55.39593729140049,55.439166078284345,55.99649940066692,56.037959987151744,52.178826695153425,52.18724125446375,52.30372793391219,52.29213742152071,52.694892365366776,52.58296976357349,33.845070637466826
-0.2855283885987957,-0.2882634222521447,-0.284498377462313,-0.2872503458537475,-0.290019117552994,-0.294645301092684,0.3026760041470121,0.30749543366085846,0.3049734570811734,0.3080931947863429,0.2841132805986091,0.3001347130302511,45.41531912067524
13.57525886572527,13.60999607299256,13.538808350508411,13.574256706014358,16.66559714350218,16.706094865848993,7.174838916926984,7.2186365922258755,7.476290447167381,7.001543616887522,9.16526936706952,9.207974507502298,155.310084448769
-2.200310287447112,-2.199583460360798,-2.1987872715817325,-2.198079953811197,-2.197194489495041,-2.1966522786960514,-1.9731556342803742,-2.0060246948760323,-1.9945927853195826,-1.7865542332428959,-1.8568429579181611,-1.8706327576619515,0.02628282008806525
-0.0144927999889328,-0.0145482823892672,-0.0145973722667386,-0.0146506776061762,-0.0147057095968899,-0.0147487192550245,-0.04489866288565736,-0.0450343705870182,-0.04501172769977302,-0.04498175455051978,-0.04511363292050419,-0.0451447642877838,0.0838592308187832
-2.2313130106057404,-2.2402432097145284,-2.2494046472602047,-2.258359083687184,-2.265751039716401,-2.271713450815966,-1.9296542281974176,-1.9360726689833658,-1.943259611653078,-1.9508934136637326,-1.9583860466623204,-1.9654945868355718,137.4800255800072
-0.1115370209242589,-0.120902752230337,-0.1209027641709088,-0.1209027761101567,-0.1186615804620019,-0.1186615923075587,-0.11153514806631826,-0.1209005200965283,-0.12090075669489764,-0.12090073531051893,-0.11865966611879308,-0.11865962048928758,0.0056202140728008766
-1.1684898951523612,-1.1675650730254412,-1.1999044226848536,-1.1987292694374572,-1.1975707592409983,-1.196443358387186,24.95873436368178,25.067733963577027,24.592012432878562,23.914245266429862,24.05418604524689,24.18121789628508,144.52068178870456
3.206771979953765,3.2069429648767898,0.5795193422857101,0.581893518076108,0.584262022480599,1.2406044970389665,3.511295481222553,3.5200820144140597,1.0521817156709494,0.6267287126996457,0.6257684578132452,1.1560886138910962,23.67615988691851
0.025117009339964,0.0221406418483834,0.0221789182013981,0.0222170785687805,0.0245372330773848,0.0245842290801417,0.022848724116490585,0.020152584887942155,0.020186748768815547,0.02020510194468465,0.02231973612253064,0.022362422684810153,5.248452638818273
-52.083121068885625,-52.12299199385903,-52.16299745269103,-52.19978377810614,-52.236250785212974,-52.26933299230714,-52.10728759969624,-52.150370508523444,-52.1876247043049,-52.22455831546908,-52.26227495768514,-52.29431190615276,0.012608979755592485
2.4997262040110257,2.4996104593382964,2.4979796902564324,2.497436776870672,2.4884940488615857,2.4991290385092144,2.4995732826483845,2.499924443453523,2.494186834621246,2.489412327837158,2.489652998341171,2.5011955719475587,0.005157309589018154
-0.1705673054733071,-0.3146679809834979,-0.3207066749377689,-0.3251985568397055,-0.2811894625357095,-0.2836629844356216,-0.3997309798301609,-0.6416661218108128,-0.47068053168171087,-0.5715599954627417,-0.10748837219398855,-0.5183425228461775,1.7647404803384266
-52.24558896027349,-52.16006335441485,-52.07976930456718,-51.99649403801764,-51.89333426125831,-51.62446969738839,-14.311683495533256,-14.282164487800225,-14.253911258470943,-14.266182781667023,-14.215584078018699,-14.178621670138615,182.9312666487699
0.3671532441625178,0.9987876820841206,1.001189623720066,3.629735416560704,3.6293868517747216,3.629041293881412,0.8914158035617719,0.3487571993486348,0.3531232549451006,0.28882955276285566,1.0881045306765897,0.43492666678647085,185.3102744345732
-14.296199408997325,-14.017339735357904,-13.27951152356182,-14.17050380468206,-14.268700875713805,-14.10136849370894,-13.347584805140286,-12.990238438398592,-12.097299319862941,-13.005647249236063,-13.138692009113583,-12.571941103560675,2.907376639188394
-0.1308820856360537,-0.090918875477823,-0.0895367925617214,-0.0881737101687109,-0.0899547293082603,-0.0885776727004731,-0.13212164029023257,-0.09424590082465459,-0.09237829965495363,-0.09108277134853912,-0.09268737998250813,-0.09140468792627796,2.503245040170592
0.9213125299822356,0.9238279132007668,0.9263359334804866,3.6411330997299247,3.6407321209457977,0.2970341545999855,0.8773743017096096,0.8569154604867407,0.8762620906788907,2.8958200827823535,2.887971478227887,0.5233293507037593,93.65374215942052
54.13442357665403,54.10338322201564,53.97604623903345,53.440502447249685,53.916258236745264,53.88713996218535,48.08197305674437,48.251526140685385,48.39999392409776,48.34369536668081,48.28927300494054,48.21817626098936,122.41845134238939
-1.683715044117283,-1.7765556385586398,-1.3433464711815697,-1.4306369685233244,-1.51751371229881,-2.298171140086812,-1.2699056518877152,-1.0618801616546145,-1.093312360905671,-1.1211892997373876,-1.6255505042569574,-1.6532842529955416,115.58410504339788
-20.663740066603875,-20.650633030363736,-20.65760454892658,-20.644206786391887,-20.61892169059924,-20.60532149275161,-13.621983347582482,-13.592718262165736,-13.603866071616768,-13.591876362458216,-13.603040530114452,-13.585135134709006,102.95737664677723
-0.0237750167670675,-0.0238262200433512,-0.0229148145014851,-0.0240261340962265,-0.0240766339636022,-0.0232449970522963,-0.024701964395639552,-0.02474798362419813,-0.02389347106026912,-0.024957333748052476,-0.025003338313414215,-0.024187943270341798,12.505115889900518
-0.9938358556675524,-1.0057961763004364,-1.0107645813745147,-1.0214654429665415,-1.0281234321575794,-1.0342518349941945,2.774878928867679,2.298606558003229,2.4512978880870975,2.411061285249673,2.5447646432633064,2.2706674129794067,58.68374678264468
0.0003327703728607,0.0004143469159444,0.0030302190380656,0.0031001033015897,0.0031835312789178,0.0044943799174365,0.0003609146741306351,0.00044789357921976567,0.0033911922364937177,0.0034487591747626722,0.003534543435189947,0.005003722432911762,23.48511123850214
-1.1832138687876232,-1.1845952147118022,-1.1730661616640594,-1.1789068822030009,-1.1649162244030855,-1.169795170332472,-2.669808117286099,-2.6817746653171604,-2.6919242618662373,-2.708690578367115,-2.721788744748718,-2.7348142346994493,57.430970688477636
0.3055436363905859,0.2934775141623589,-0.2434282044718806,-0.2402451848269564,-0.2023330634757764,-0.8351227254914781,0.17779945645781292,0.28470652829995213,0.07362371041909954,-0.04494982654172808,-0.09997421766836512,-0.06626032863744946,4.882836037597267
2.0061751987313783,2.0045479444402026,2.107867769568262,2.104978928014307,2.102092244265432,1.970244081903783,2.0054690196164593,2.0146745700749875,2.112759888447286,2.0819255685639035,2.1123775550470043,1.9759119100607734,0.037700997013312074
-13.010787084897718,-12.999548459119366,-12.784367959358075,-12.771787935788115,-12.7595113464372,-12.734133184683945,-13.534464766799772,-13.532566992011681,-13.381687712287743,-13.367295788080753,-13.418047055831494,-13.32367071004262,0.2802218764476071
-1.8388765074703004,-1.825589713834456,-1.8112853869408685,-1.8394217414127176,-1.8224207473630072,-1.7409809836713113,-1.9670394033836054,-1.9674916809920378,-1.9494579295639571,-1.9814045490131562,-1.9456234862497084,-1.857025740087046,0.6473576226384613
0.5463423413341226,0.5470429108074983,0.5493658535595315,0.5399386344527891,0.541927197267814,0.5437189532636079,0.0005909405841132834,0.0005957148109478435,0.0006006559747918131,0.000591082624047116,0.0005961532630969278,0.0006008241032949145,204.7335490354992
2.7816000500961287,1.5476618155841877,1.5469451886485084,1.546240952910843,1.51370218554053,1.512277963074188,2.2917864674747257,1.2382330647852213,1.3706378718889478,1.293458522769018,1.265938676759727,1.2050605690241072,114.58366044262516
-0.4555727422714002,-0.4694733394528988,-0.4861696426486772,-0.4754107732048159,-0.4944124036617361,-0.419333109606427,-0.1404642484281302,0.12612381789620386,-0.09884213769613481,-0.30297945421014383,-0.4354125396925106,-0.18562167988739908,0.8697792077225391
2.169018827225981e-05,2.17407398158122e-05,-0.0001239077147622,-0.0001238557289896,-0.0001238038681217,2.194589715374338e-05,2.168732861372938e-05,2.3293263155318468e-05,-0.00012063980951867656,-0.00011927956552668789,-0.00011839104970075287,2.7808718114571973e-05,0.0058962147739213145
6.620225322281618,6.426005946057142,6.437334627383495,6.595767989334645,6.663816125959304,6.6206662492138015,4.380499152692812,4.322905272156893,4.322876477444166,4.430898373926734,4.428818528644991,4.443834197120809,93.26876161922073
-0.9145924793125038,-0.9057513029302776,-0.8987375287644055,-0.8909219284186822,-0.8811179335095869,-0.8717015552652877,-0.41856446260409746,-0.42160202961390353,-0.4236130321118809,-0.42779800775391125,-0.43130525236830225,-0.4349571476123355,193.56946224723166
0.6190524630920087,0.5957384242246104,0.5952470219696598,0.6144943877260772,0.6139857912865752,0.6170497853699894,0.6192781485271365,0.5959572357928592,0.5954528219698954,0.61470664707035,0.6142002084209934,0.6172517415928246,0.01739686319730015
-31.04731471712729,-31.348169034198484,-30.97683942016897,-31.279324625619708,-30.904112907578323,-31.212667805787547,-27.525267651633754,-28.25293975905808,-27.725274744991992,-28.456865769885553,-28.070021662888394,-28.324706569741124,34.44013107140538
0.6360140169681775,0.63640970904734,0.6155169679404597,0.6159049892594558,0.6419308399946718,0.6375938419128965,0.009528696765003921,0.009524032701565353,0.009559278204890748,0.009353431198993603,0.0092532606287146,0.00955115232275047,204.70383063539495
-0.8004608700352105,-0.7714220740760358,-0.7405981749486267,-0.7097873790424869,-0.674920485268608,-0.6445982445426489,-2.643610967655711,-2.6225984443743826,-2.604390004882191,-2.5863503303332536,-2.5957271052129656,-2.6016360875336133,57.59671974924371
-45.36607948861983,-45.418880162230245,-45.47447712482982,-45.53216563287686,-45.591013097750654,-45.64983343821972,-32.43922864254249,-32.47903342599653,-32.53560191552261,-32.58832542152722,-32.637130042090234,-32.63642050031653,69.94187422269495
55.06109229510542,55.06109107209043,54.913740022549625,54.91374193033883,54.91374383422688,55.06108611345295,55.059025622346724,55.05902870232208,54.91169517795967,54.91166791020552,54.911683612610005,55.05902668379912,0.004684803366425171
-0.6085290088178312,-0.6103060791906048,-0.6034342304228945,-0.6051978439404772,-0.6157842271604144,-0.6175594312028863,-0.6140576612884914,-0.6157340081025177,-0.6079364715064042,-0.6110084966411222,-0.6233259730874251,-0.6239920337357805,0.013641155328040099
-1.4656048226217626,-1.465814330594097,-1.512568294856644,-1.512978075059724,-1.499430068009434,-1.499786728607713,-1.4363147140107821,-1.4362972294809035,-1.4798660453311838,-1.481092247119801,-1.4732245279896428,-1.4689869628572234,5.93737771632747
3.403820851557473,3.412164656747959,1.5192583022989736,1.519354075000908,1.5194612196366597,1.4061068317496623,1.9187802455083605,2.00623752342052,1.1235422132944002,0.9525291324259225,0.9252960747325462,0.9248382132021424,66.43136461627442
0.7361726424536048,0.555465372865659,0.7087185646245147,0.5315541982941588,0.6825779918816577,-2.350324948145776,0.26124447310572807,-0.8684842812697693,0.46288908762496406,-1.2504362593067826,-0.6969040990674861,-0.8094255736121838,4.857671134387894
-2.2967706977692446,-2.294822405587328,-2.2925198902156465,-2.2900481309418144,-2.287200003768709,-2.284202177961108,-2.189036062881377,-2.186681352813765,-2.183966990409411,-2.181110959175029,-2.1780069021115604,-2.1745130719467958,16.78834211741265
-19.15918670477199,-19.1503184700104,-19.141888224719867,-19.13332969135103,-19.12450005889705,-19.11593714238402,-19.155360523728802,-19.147799753813445,-19.13919549072841,-19.130558116920156,-19.12194666343197,-19.113538577378222,0.0038925549778331286
-31.42551228369384,-31.69239440868298,-31.659433361373463,-31.62645840683873,-30.731653593456745,-30.694143529910065,-30.02975116002483,-30.752456873880533,-30.536190356999526,-30.495411407083623,-29.697825519446496,-29.662984761446864,5.891334225000671
53.79158079879666,53.16395604052152,53.74012178170112,53.71626836608819,53.19283835400772,53.16997447416558,35.487042963928864,35.39422317386254,35.603062843986805,35.48891400180607,35.66171446504569,35.6325287972764,153.34884962013695
0.5957384242246104,0.5952470219696598,0.6144943877260772,0.6139857912865752,0.6170497853699894,0.595561878106073,0.5478766460194574,0.5465887440621984,0.5634314293260385,0.5631661155002644,0.564403577252642,0.5469143904388272,72.27797167383842
2.675836452207005,2.675836794643661,2.678092225274775,2.678092561388902,2.675837850648587,2.6758381931866,2.6758543608696193,2.6758528435902886,2.678108480111194,2.678110117598787,2.675856087098068,2.6758584373313283,0.004684877672966535
0.0185871056430275,0.0185436721357312,0.018495930830979,0.0186212816311583,0.0185713547456499,0.0184143211051075,1.5612720266034168,1.5603021555011773,1.55909257565178,1.5582933845979383,1.5565418560751876,1.5554747161462834,36.488926754148515
-41.78710658596736,-41.75776168592246,-41.9628540747872,-41.93155564783543,-41.90007118598159,-41.8092629707209,-41.843105181350246,-41.89509099210923,-41.90320001684072,-41.897044110941465,-41.721742987688344,-41.842554056449714,0.14103356925228117
0.1759271111751855,0.1771916746136577,0.1464444189414072,0.1477317788131915,0.1796444898793829,0.185223982520211,0.17259502603273694,0.1738356528588427,0.143697163685396,0.14496020370537027,0.17624512641618817,0.1817139572498378,0.18786546212474253
-15.078732276813662,-15.067378739668849,-15.011126382891891,-15.12007901613735,-14.979351347802744,-15.0901925180798,-14.350715119624525,-14.134863232961635,-14.070209459584476,-14.064046941926392,-13.989349553888701,-14.01745581540905,6.417990619984701
0.0110933964895855,0.0113215838241384,0.0110312447248642,0.0112580519235111,0.0121793233397828,0.0123908301469482,0.0004267399008060146,0.00010282267486295396,0.004997270010073815,0.009157161816573601,0.007444811833843327,-0.007986122896942355,69.86283757911032
0.0212019115440705,0.0211758461352048,0.0213538309961627,0.0214914743378838,0.0210039245190777,0.0211359149153043,0.005530370939129498,-0.0062788149593142216,-0.018329048766377466,-0.01691384152624236,-0.021810871475788227,-0.022636849795837563,143.6827714295489
-2.268524627979878,-2.266009470719978,-2.2634721768197323,5.051886210754953,5.052421271291331,-2.652941087394828,-2.247095515841943,-2.2446995892382606,-2.242579768390079,4.944585967567702,4.944581062167725,-2.6050204542760325,2.495975017228412
30.29925290492806,26.72029195658316,26.209778774352355,26.243387683311447,29.834651547473342,26.58718497550796,30.86283703461998,27.44102082987037,26.897748870463936,26.9294348653854,30.403616054886914,27.249226194185805,9.41801158581641
-25.15207956052595,-25.115284642838784,-25.076697191474107,-25.04084946238652,-25.00057001047185,-24.96391543274252,-25.184781236755043,-25.144714891674084,-25.105684173229747,-25.0689955172802,-25.031367874820717,-24.992459661983958,0.004178512576098569
-3.047745416827052,-3.049764252268249,-3.045455964529737,-3.0455780999031115,-3.045527477327405,-3.0362538593380832,-3.0519667036295908,-3.052077664161226,-3.048970821924451,-3.0490837687122654,-3.0492266580618397,-3.039760406278096,0.7513095982877848
-2.734065866494805,-2.732373340618332,-2.6466456732831323,-2.64483280252622,-2.6431608804995697,-2.6383165279206926,-3.362232836211145e-30,-3.3270234585659326e-30,-2.6373546215820323e-30,-2.603180558766568e-30,-3.416603012524295e-30,-3.381426734047545e-30,204.73383504351548
-2.4627480616620434,-2.449837216270613,-2.436927522127657,-2.4627659823513355,-2.449930547951992,-2.7534394270177054,-2.335029500692574,-2.3220548719730294,-2.3095611065122563,-2.3345800237917755,-2.321726912404996,-2.624981819229941,0.047042064665740665
-3.760458639532742,-4.09069172323294,-4.077502628793839,-4.064311876988041,-3.674356318055256,-3.661368194033142,-3.7707002405854646,-4.103524734689208,-4.0896665672597186,-4.073630441571199,-3.684085243361329,-3.6704803995381563,0.08697205364536319
54.91401995720123,54.91402132447553,55.06092318563616,55.06092246350458,55.06092174364075,54.91402688139831,54.91852880538369,54.918515482037606,55.0654245138534,55.065388432628396,55.065372371805864,54.91851921429591,0.004493177602379205
16.32251959613126,16.33784151524993,16.360498165674976,16.375081051738384,16.38928364891383,16.400027891811362,7.742863602078641,7.753206680307532,7.763475355711156,7.771060011469467,7.7815888312139805,7.78961788728526,4.641950521855515
0.9118669550022116,0.9144238372994998,0.926292447476528,0.928999908831712,0.931707061292252,0.9478192140499272,0.8719586234973367,0.8743837717472914,0.885946127848868,0.8890482509128272,0.8916141316312303,0.9066238163560847,9.395677587054175
10.386156503723086,10.395870330320207,10.298148199450097,10.410816419792106,10.420519779306684,10.307543425742612,10.222329906783624,10.232294340431972,10.141302487991792,10.242999359406014,10.25086868130764,10.1380735998959,0.2984680990821095
-0.7061968459097285,-0.7213892109048512,-0.7363711755058797,-0.7492514000422861,-0.7635772903958458,-0.7771862785999797,-1.02749700727513,-1.0140736336111942,-1.0074795726420611,-1.0010592937166631,-0.9956740771174418,-0.9907777098115103,175.68612913724706
0.6016477360122917,0.6021871108157942,0.6027239678004452,0.5999062812445737,0.600431834793373,0.5792649969220947,0.6017805411212551,0.6023012999053127,0.6028501476606251,0.6000197146650099,0.6005487951528582,0.5793703242421777,0.019331238153748587
3.647519044435492,3.647065999306911,0.2535037462264555,0.2563812567038097,0.9007591250360278,0.903293746594,3.6202670311258087,3.5667292954564274,0.2455318944166266,0.24691551501503356,0.895685884359937,0.8983322347951259,0.9367540311118977
-0.1889007816738239,-0.187485709817068,-0.1860775433877952,-0.1884245131109695,-0.1869714887884793,-0.2217893691050787,-0.16383360931540614,-0.1624263673825225,-0.16100836754656261,-0.16339266173253958,-0.16197504237440777,-0.19634255289213545,24.00995642353264
-0.2478268797754656,-0.2519458572900092,-0.2543671499503423,-0.2568211999821205,-0.2641705601805301,-0.2667044353216702,-0.047631138188843306,-0.04935971902555663,-0.05351475060051835,-0.0496034929980917,-0.07022000544577091,-0.05656573629706325,16.224013000661767
2.6780956441606243,2.6780959806509768,2.6780963171768133,2.675841677062049,2.6758420198744206,2.67809735502789,2.678052901121455,2.678053077077004,2.678053192687623,2.675798561933755,2.675800160295098,2.6780551406426025,0.00749587966914521
0.8202883260745293,0.8230678341963327,0.8258455707929733,0.844081016030099,0.846801644882064,0.8307513327518002,0.8761489383038441,0.8792004657836157,0.8822661458075997,0.901599170172872,0.9045305782030626,0.8873195053893576,4.098135055772596
-22.786448808634688,-22.728467747227025,-22.72534350513209,-22.745103587645,-22.7418062015431,-22.73850009989952,-22.762021633833797,-22.70413698194409,-22.70236328254549,-22.723996815329315,-22.71960335898075,-22.71695657114077,0.008266280039331263
0.0050533087387737,0.0049799758391207,0.0068118554169029,0.0067369481431413,0.0066611213249519,0.0063189942363809,0.003440916117261007,0.0033960327796080337,0.004535573653683581,0.004568285115362758,0.004507632269832353,0.0043018419042349905,60.00258392440433
-21.88834122269618,-21.84750800308977,-21.842325979974603,-21.793809385530864,-21.78819745029473,-21.782430936476928,-22.785017361309656,-22.789478729472705,-22.796709434280586,-22.699809181609623,-22.68322628120964,-22.642485182345098,2.3263341219333515
2.9128618968978346,2.902783140454322,2.8924967049066,2.8786066181356147,2.8679471677524377,2.8571247688042005,0.0048627304639175225,0.004861604065891461,0.004860794232636901,0.004858244044861523,0.004844307318844359,0.004858522506114701,204.731872528124
0.4112513542896956,0.4092011755682023,0.4072615880230645,0.4053103479127064,0.4032762706174869,0.4013184722447458,0.4112654110360019,0.4091638051637272,0.40697884830955644,0.40531506693339026,0.4033981430732094,0.40131876000053346,0.004177808187885034
0.1013097121355672,0.0892247381667513,0.2151047717025525,0.2058617382087082,0.1962874967817427,-1.005985294515105,-0.4346194858633506,-0.37288576183745464,0.0508624835628628,-0.07094573375829685,-0.7121432637537066,-0.6573437232123586,162.80065212717108
2.362036801316877,2.2977198436689843,2.4475937293072274,2.4470343366392378,2.2947337778405634,2.293237335284512,2.344457063811973,2.341494631007862,2.442365965294755,2.4684975907959057,2.3136652284733827,2.299776628886711,0.04232645537292444
2.591582391125621,2.60873697552164,2.625480114924667,2.6078546064580967,2.623769516779647,2.6928330277363246,2.257699561923374,2.3563628152625924,2.374673184396599,2.419682496451287,2.536813651110265,2.493705083338556,11.523951151371458
14.163481176182836,14.141255825558876,14.115106846282766,14.09214817878001,14.06883514687439,14.034225216982689,17.13973726822726,17.115283027456965,17.091080808834445,17.050114336142492,17.02666467561892,17.011440460574445,20.835832634706133
-20.69030759985772,-20.679344018976742,-20.66066270895983,-20.65017248679269,-20.654008887086203,-20.64399355922412,-10.012113619288854,-10.003785160639191,-9.99846330146887,-9.999783713987643,-9.994899914187048,-9.989974001549365,157.4680196099079
4.143384004801621,4.141048477096013,-1.1347955415600497,-1.1304942045295785,-1.126201664282819,-0.3719748799189625,2.868702671717361,2.8674276113727157,-0.4850953538626724,-0.6804995376571192,-0.6793450457482632,-0.13704791452296772,59.88597512035907
-0.0216630336614013,-0.0216625452043673,-0.0227454896089524,-0.0223079049224114,-0.0222895377366305,-0.0221688180736325,-0.029619025627122486,-0.029606105952536876,-0.029563870045170138,-0.029512611092415653,-0.02953312594573565,-0.02947019738200174,203.16563876906903
0.645793514280234,0.6461492645186713,0.646503250394682,0.6435133338722567,0.6438632599380844,0.6442137534744935,0.252707344141544,0.2624317228913861,0.2625479614397374,0.2613260821276188,0.2614796161976392,0.2615737964244813,169.51969742082574
0.0096759882288415,0.0097425964416586,0.0097486929920175,0.0101037004514069,0.010560433759045,0.0114030109592368,1.317277787479027e-05,1.436811073875278e-05,1.5113351905497863e-05,1.5881757141497924e-05,1.6534141564295484e-05,1.7223464552899252e-05,204.73341989445905
16.710378104774076,16.69986997417784,16.69352305020132,16.68791851472892,16.680649756696926,16.676213349557937,16.993469487723427,16.995139042337104,16.99709454128916,16.998763907141196,17.00338933459713,17.00231874274107,126.28841028657838
-20.445776638238595,-20.454049293993485,-20.46927594043456,-20.478832617335343,-20.488943670663687,-20.49366051563443,-6.3494327865518,-6.351727973668442,-6.352168070086071,-6.354555853354661,-6.359436962866247,-6.3626240986243685,184.52495739753547
3.270237647994488,3.2032130691242515,3.2394814585380485,3.274501940136716,4.413045604433592,4.45661007295171,0.9460483937843378,1.302980651968312,0.867879371527323,1.5785816861633748,1.5943040067155039,1.7691414125448546,14.596627436373192
-0.1209014500766506,-0.1209014620834667,-0.1186602768207084,-0.1186602887318949,-0.118660300642008,-0.1115358121389298,-0.12090775085933103,-0.12090775421403333,-0.11866657641087652,-0.11866655822450323,-0.11866662209480072,-0.11154214373003235,0.005620253793930373
0.4282152208657642,0.4273186553861886,0.4264208543241733,0.4101060802570567,0.4092320981043648,0.4261537129101287,0.13788254529804878,0.13805253572557144,0.1375086615022209,0.13561244992198518,0.13239977703883993,0.1324082813043592,195.7819011204592
4.234274135406478,4.231836107744983,4.229402057141135,-1.40924368642215,-1.4049361143033217,-1.4006287122769376,1.030350882076647,1.0299241363750298,1.02951803501719,-0.17238631630198978,-0.1714338658276938,-0.17044582332157204,191.47978780423438
-1.362674114236547,-1.3634588374914072,-1.3733263494222157,-1.374127475025286,-1.3713022571202007,-1.3721627315781189,-1.403619484023319,-1.370815569533403,-1.374009926329431,-1.3842144113317998,-1.3571998824409273,-1.3845657350518923,50.83059822565307
-43.42259463241621,-43.39296849478602,-43.15527540314552,-43.12630588033953,-43.40355546235764,-43.37325244824082,-43.395728730321736,-43.37696486281246,-43.13193676020824,-43.10115527433169,-43.34860240292397,-43.3599776586952,0.009023395174077563
-0.1209024740993621,-0.1209024860530788,-0.1186613109246541,-0.1186613227834813,-0.1115368197236044,-0.1115368313923373,-0.3709859301253795,-0.35574014496071005,-0.3482050481243464,-0.3381135787918259,-0.3341444080207854,-0.3319103437699331,153.8551538069599
-2.169674498920534,-2.179778518209843,-2.190625329467461,-2.201251292090489,-2.212529338706525,-2.2238117932794106,1.1997855442505394,1.2240317875423952,1.1871381549694915,1.2320557091159163,1.2217431119852968,1.2824269838091427,87.40148723487364
-0.3979709133147026,-0.3988722614395555,-0.4027533497196425,-0.4036039633570826,-0.404424712874662,-0.4022654991449944,0.6236391647921984,0.6331792782046293,0.6486918939123321,0.6677632139530552,0.6846340910981716,0.7014268210126353,29.39948088879326
-21.254322952698285,-21.267011294939444,-21.274350404878145,-21.287339839773583,-21.313181648883504,-21.32640154839828,-22.857847240323814,-22.86839713230812,-22.882785722055218,-22.90124009416192,-22.916198522302803,-22.938177457104317,39.36746004603234
-0.1390744580778936,-0.1361209891875162,-0.2038410943768122,-0.2007832361731626,-0.1782432774338895,-0.1751268125541824,-0.11742264791097928,-0.11549965191796113,-0.16209928259570172,-0.15987158917137767,-0.14481341369258574,-0.14278266638432197,58.025873463889106
0.698197898389638,0.4322203245511056,0.3507160153578564,-0.2701568988136518,-0.3185122622342536,-0.3546463924478467,-0.007065906266661592,0.20869876279379707,0.2838601250778994,-0.14223991792405966,-0.16525697132617356,-0.23634352206800813,9.294058390894529
0.0128757409116654,0.0129563499010507,0.0130232827061815,0.0130663402421226,0.0130855330279226,0.0130785864829161,0.07014583553543474,0.0674447733265282,0.1260689628443572,0.07958987677753271,0.1352340942495971,0.12235882467199843,0.20897441083119805
-0.0309076655752853,-0.0302535437470037,-0.0302635486784063,-0.0302733687152172,-0.0304015602866141,-0.0304107769570451,-0.030645648295823974,-0.03017408776517091,-0.029985075110464242,-0.02997025536912535,-0.03010321764882915,-0.030097616355887275,10.121176841093709
3.111625354160444,1.5745396273445516,1.576004472588889,1.5774696832890012,1.940915999030232,1.941679460002856,1.3921927190354952,1.1550947810941774,0.9042052628831381,0.9226310698655762,0.8808860425938485,1.038216613856121,166.51635127548872
-1.442688059305252,-1.4421114028024788,-1.441508651664806,-1.4409277042900277,-1.440344695293604,-1.43973544548593,-1.4422594841701049,-1.441667263283687,-1.441051901020316,-1.440474207817175,-1.439913534137947,-1.4393071309838739,0.004064179994950222
-0.0001239077147622,-0.0001238557289896,-0.0001238038681217,2.194589715374338e-05,2.199583237185091e-05,-0.0001236447467344,-0.00012937421709504487,-0.0001298811682570308,-0.00012989163295851203,1.6155868449212185e-05,1.672968605006403e-05,-0.00012845550019575935,0.004982425303646664
11.63167359852278,11.726890732737257,11.735513388475306,11.74413147336445,11.724031307133547,11.732716635285133,11.644218197591359,11.736930372452939,11.743059358424713,11.749636391174409,11.726344607862885,11.734147938199115,0.02394917482485869
18.84822973343988,18.887366976007904,18.926480778451936,15.71756415281141,15.751931113916235,15.731056734896349,18.841132802893327,18.879754268194862,16.785378735023933,15.709973731329669,15.744223123464046,15.723458885989718,0.006640427471248699
-3.865729487503444,-3.852770400590927,-4.184663725776519,-4.17147508310739,-3.7799925450717873,-3.7669875031561455,-3.8651149307827666,-3.8521225398275476,-4.184300627487403,-4.171112636625793,-3.782271789293077,-3.766439454818226,0.00896076445182291
-0.0043670256305315,-0.004407326878484,-0.0038199113994841,-0.0032570896679075,-0.0016971560700525,-0.0011917926359402,-0.3722028915889216,-0.3530989229474376,-0.3267333818231594,-0.3104365920209526,-0.2883455253377408,-0.2761687143046835,201.44366251472627
-2.5371754165852094,-2.537976746261973,2.736322410550491,0.4801898847719631,-1.420525248899246,-1.8995988091785208,-8.883369240751228e-73,-8.88337032004477e-73,1.1204010797568078e-72,7.44886593511115e-74,-5.3207147848678753e-73,-7.072956808699365e-73,204.73383504351548
1.3693275165757073,0.6485785222207697,0.145982495237411,-0.1667309838512215,-0.3318232620845148,-0.3721023170540161,-0.12116871607519242,0.29206934229973464,-0.43972210292771885,0.00310144987282851,-0.27559897630701596,-0.594932403075231,120.31265435241106
-0.2280524408801616,-0.2296631296833512,-0.2280043826861041,-0.2263516093427398,-0.2199033378050105,-0.218165516575037,6.735936625483305,6.7759917776676275,6.459123520901585,7.460415952920698,7.124330065410845,6.71406226401507,67.92261897220804
1.1413224602616898,1.139277787265125,-2.72971839149605,-2.748184359957984,-2.7666666832497,3.95607410027561,0.012538922817091822,0.012522102423285232,-0.012244874247736516,-0.012373340397576956,-0.012442717451916847,0.029923832687228338,204.71326761508163
0.0662306060163135,0.0662306204220665,-0.0546469333108879,-0.0546469443958014,-0.0546469554954392,-0.0119589705830825,0.06628254349936924,0.06480701911166875,-0.04583364383154276,-0.05407905228202026,-0.05112945264187374,-0.012906491230694428,0.00543973251385853
16.673027916574107,16.668593601912406,16.66037472352875,16.65498282809166,16.64643549673507,16.639897788639836,-15.561386965976336,-15.573302712418332,-15.584922501007258,-15.595828720972447,-15.608733566408937,-15.617552406863528,176.60419232283675
-2.444587474213036,-2.3742183263281373,-2.301286018033014,-2.222754282686992,-2.145072582520571,-2.0619528228935087,-0.17882811343044305,-0.1715162479224033,-0.17102542481637925,-0.16890313552509822,-0.16685028629132867,-0.16256885179890077,29.360215886025156
-0.0678411782157576,-0.1323657181289744,-0.1292699815114304,-0.1054421773272074,-0.1023166362265611,-0.0990347524740864,-0.031838399052841145,-0.04176332429452913,-0.04128189173022774,-0.03824050176625954,-0.03781094214610071,-0.03739665734464152,196.40654371319295
-0.3704795939513026,-0.4416122177719536,-0.4385968856642173,-0.4216871677039364,-0.4185876056146876,-0.4154685855258349,-0.38986550436847706,-0.4607978610464278,-0.4578173851397988,-0.44138842264970374,-0.43828104121565864,-0.4351370086341513,2.712244916462547
2.468858625415,2.4640583923458728,2.4637198782566725,2.463373012648432,2.468782432211201,2.4684287123959763,2.4741948210184432,2.469635670435107,2.4692855276801633,2.469053398387236,2.4744260728524865,2.4740904752727766,0.1425101374562222
-0.0119589705830825,-0.0119589702259428,0.0662307723233606,0.0662307867375536,0.0662308011497018,-0.0546469485657174,-0.022789264141778176,0.006662431597050045,0.08890891689554792,0.07917696726335066,-0.019620473643783498,-0.05481881030880231,0.161735722564183
-50.44332217206996,-50.87072312911439,-50.84642493707616,-50.82209077567087,-50.60353047142304,-50.5791970687641,-50.49964724129603,-50.91509333399705,-50.892951491354665,-50.865162958846554,-50.657748106152866,-50.62453510525762,0.017589645587216752
-17.52471389640227,-17.514959029849795,-17.50479080727682,-17.495022711259892,-17.485248144625814,-17.475059948422235,-17.530018410347225,-17.519471674980025,-17.50942629154804,-17.499560184347274,-17.4895430758242,-17.479449623572634,0.003855594914663129
-1.3511049526823704,-1.367511919539784,-1.3782758626474554,-1.3983982791728995,-1.4134497123219585,-1.4226279083246711,-0.8380437161214878,-0.8320957249388077,-0.8236310177274959,-0.8181790957163885,-0.8108321121816139,-0.8051662976149498,143.20399585305785
2.435615372965298,2.436146190667816,2.4366749350614647,2.436179227035188,2.436702885300888,2.438467203613336,1.9899815940674452,1.9902780935140862,1.9905273186932313,1.9887505189412862,1.9878766633802705,1.980947475390557,94.8481060786128
-38.9067447008569,-38.873509876217,-38.89308061969128,-38.8606033904216,-38.828801140066346,-38.72053193922783,-38.921192129606595,-38.88586706927168,-38.917517110860416,-38.87065436366697,-38.77087813728008,-38.74668797149053,0.017055484398250543
-0.0304631989912715,-0.0304710996048193,-0.03047881547931,-0.0310126722726262,-0.0310186412717553,-0.031024426675745,-0.02444015011488173,-0.024449080604899615,-0.024460309771944234,-0.024810127966848502,-0.024769977631423568,-0.024288610831542084,41.012279347328196
14.180605827696793,14.206034992379958,14.227923299942674,14.253471325008633,14.279023088011009,14.29901622752875,14.512110981089549,14.550945975482406,14.585095728769502,14.606028932589709,14.628123628194189,14.659581577675695,0.8851203285461599
0.0134798788743874,0.0122927014699688,0.0122271924641495,0.0121558032181506,0.0140740433753944,0.0140321022054721,-0.006929058603604393,-0.006931166621986489,-0.006926905170878155,-0.006938705852316163,-0.0069057990217640235,-0.006902870953770343,204.51796920140484
0.3702212531413524,0.3729221537545014,0.3756908605525674,0.3449307165257615,0.3479662892994681,0.3734509084996796,0.8349732093168369,0.8366634863115359,0.8383455008923582,0.8186761477340025,0.8203487422447937,0.8383230207815098,106.43262359489174
-17.26486209769068,-17.25493756880119,-17.244593047977016,-17.23465643788685,-17.224298906572585,-17.214348623540904,-17.269641192464064,-17.258981917555786,-17.248781500534676,-17.238725355887823,-17.228517244477928,-17.218284066149977,0.0038636196329183575
-8.80758885979396,-8.765285158491787,-8.722947781487488,-7.688000217117811,-7.650816762625401,-7.953505034294944,-10.624183958529102,-10.592263744320007,-10.453338440768675,-9.432659663317281,-9.362909552588462,-9.695074852012112,0.9400965477637248
-0.4138095632562214,-0.4160925064811893,-0.4183207408972939,-0.4262180830323467,-0.4283990216561518,-0.4304894986352157,2.346699958349653,1.2583814483029698,1.2568897529947782,1.7552670022908696,1.6058982437429528,1.3049770388563928,131.7071252856187
-0.1417625120471578,-0.143840006061681,-0.1424411204611555,-0.1767814846618704,-0.1753520107177344,-0.1739299809297988,-0.04914921212421935,-0.05087702352749465,-0.04976790482221938,-0.07716049268845705,-0.07574642348252439,-0.07454584683411644,57.3999522255285
2.517551947568094,2.503751534008656,2.503663591529105,2.5158090276917697,2.5151743081188256,2.5026706629395057,2.5114930432283984,2.502310155872749,2.501401336129703,2.516773889211521,2.515580836606347,2.505297279668838,0.006448171756412534
-20.813500403974484,-20.82454012608818,-20.84337077861868,-20.85959906815628,-20.891766866768045,-20.90048510304857,-11.987051818339925,-12.001120396164467,-12.012963636325573,-12.03048968349774,-12.03888393001931,-12.043796022725157,165.44002109154485
-0.534803834974574,-0.4700458852775259,-0.4669542309725287,-0.5362172736921357,-0.5332262958806038,-0.530234118932362,-0.246157591097814,-0.20797668725404073,-0.20617066401597992,-0.24899589537779462,-0.24721068248758615,-0.24540202529177793,112.90922635083204
-0.944673735522752,-0.9432886534712712,-0.9419029867654776,-0.948317649358145,-0.9469550357930916,-0.9497607585997764,2.736867519117022,2.7488559971134663,2.6968549036282483,2.7790813721899568,2.734076044867631,2.7133615387030323,180.17023568905702
-0.601885171200194,-0.6012589757894682,-0.6006029539596155,-0.4573541764495711,-0.4567471787472104,0.0177118242815018,-0.5483026274783097,-0.5536882703576911,-0.6042258144276079,-0.437735015300036,-0.43298747507104385,0.03413440248473609,0.0961755071771596
-0.0189410711396389,-0.0189798833943585,-0.0190170252502033,-0.0190540178143926,-0.0190924025749155,-0.0191290914730241,-0.012759084102128782,-0.01280548634082379,-0.012849364058808987,-0.012894975217704996,-0.012934964908652091,-0.0129775662354632,0.00425583025922026
-0.5916704998190564,-0.6027219936475806,-0.6159272134357444,-0.6265751632353304,-0.6415407046324857,-0.6514510786338575,-0.5970417468394089,-0.6086213344351279,-0.6147849652301716,-0.629137996194757,-0.6440541427001136,-0.6523448310966842,0.006178684252214338
-2.205702042415479,-1.9625443602045016,-1.9681749398960844,3.498433807368057,3.510348496811837,3.522951044884511,-1.5945818323671002,-1.445931967840025,-1.4496960940783592,2.528730577994894,2.5492034095942504,2.5569152360532192,43.34313486850656
50.3524998005941,50.36656860477712,52.3623381930758,50.44095777047003,50.454866216687705,52.6819190986096,47.87621767098427,47.87210620184037,49.832513592392495,47.942462877247515,47.95136974902437,50.071414839882586,6.445678066730077
1.0196386595420917,3.192702915310036,1.0744029057757338,1.0761220899254835,3.4831865226636856,3.482532405001073,1.0354250557145825,3.1342212511297527,1.0918530486561122,1.069707021594032,3.3879567913982345,3.4251778821678998,1.6742799591137416
-23.349920489178587,-23.306167795450463,-23.30645790244188,-23.351674731337525,-23.352074356284668,-23.35246032985092,-23.314832018279617,-23.272113833426147,-23.273839413875862,-23.320423906983024,-23.324134235236215,-23.326410473407577,0.017117565358527032
2.678124137464712,2.678124476599572,2.675870317978915,2.6758706624668114,2.678125522434557,2.678125861677152,2.678330018536438,2.678328648725806,2.676074347886167,2.676075041339084,2.6783238551346606,2.67832467119863,0.00563130807499067
12.922590730541051,12.894131959252404,12.868383307040576,12.851564327238126,12.81262839683741,12.785136558829212,-1.6352903713122355,-1.6394719053014528,-1.6436599944230739,-1.645650670593163,-1.6469012817382058,-1.6477308759687805,196.35187309142617
-54.61504739661039,-54.2189721143716,-54.197970625933934,-54.17694847951861,-54.53185251169496,-54.51141793420575,-54.6232489663314,-54.22744964086763,-54.20500186987937,-54.183605441927966,-54.540594689876684,-54.51767585135383,0.006651035678297489
9.354873808059589,9.234683370549984,9.24513605554702,9.380142591804814,9.241841874076195,9.252292618645312,9.329660556576506,9.206618965626657,9.21638843282587,9.352617247634392,9.213251253355516,9.22220130460321,0.0328404113537407
0.0204794099410464,0.0204421492557988,0.0209764258225227,0.0209320184474203,0.0208874102957865,0.0201011329234849,0.30796254935944856,0.3077981997514858,0.30796141689435585,0.3078859048586791,0.3071928211640996,0.3067282781226285,86.45591007678107
-0.4479227887749329,-0.4479228771523514,-0.4494272152058145,-0.449427271261239,-0.4494273272432429,-0.4479232364856791,-0.44792935827857017,-0.44792938792530057,-0.44943365526131895,-0.449433610805956,-0.449433552485903,-0.4479293894311618,0.004495815672166713
2.4513234525583534,2.452734111191264,2.4432430509278644,2.4437578353877063,2.4531564768221825,2.4546193167587047,1.1157982760465246,1.1162178318433245,1.1141216328007226,1.1146034445627717,1.1173239280178022,1.1183523612709225,142.39909209715918
-1.4424719620302442,-1.4242697257236596,-1.4050503899241322,-1.391003602280508,-1.370601865530629,-1.3496644489773095,-0.49178002387092973,-0.49490579766993253,-0.5011924733610553,-0.5112272328588423,-0.5190839596272332,-0.5261675427095087,174.76428216907777
0.6209209240298527,0.645793514280234,0.6461492645186713,0.646503250394682,0.6435133338722567,0.6438632599380844,0.564114576587188,0.5869871430111303,0.5880533028768289,0.5884194160998036,0.5857772915653376,0.5861423206883458,14.905331118769945
24.103012703807813,24.13883176133509,24.17461689543777,20.47703027856957,20.51049441493465,20.54396163142796,26.08703746473237,26.10807095716029,25.767473934353504,21.88089048473634,21.91754722770031,21.98328155279474,19.24654328881861
0.4792970451878369,3.588927428958704,3.197881759974797,0.4946774901026398,0.4895244877136964,3.5878947815116784,0.17925782954849806,0.2810731011588307,0.29469852045549066,0.053820354708675786,0.09459655429982856,0.11072681735128716,204.19952087404621
-5.514557682880718,-5.501525642099546,-5.488490195335112,-5.50467900689301,-5.491636265013414,-5.478593325577365,-5.112300834224497,-5.040568868161779,-5.027600224453527,-5.041364970364357,-5.028050935155584,-5.015374657759789,5.050656400537102
-21.763063421542075,-21.72521663170587,-21.685779435387243,-21.64791744368168,-21.61004689043648,-21.570590351781203,-21.758223364030528,-21.720157316177392,-21.682012388258045,-21.64257875034309,-21.603996180510876,-21.5633112324158,0.004012698076659148
-0.2217349756802794,-0.2203850414858165,-0.2554310234748221,-0.2540007115670154,-0.2526050958640934,-0.2105316835251931,-0.023363354231163924,-0.023181052020090707,-0.027881862106630413,-0.027747934808572967,-0.022468988916414377,-0.02200238020116949,197.42335186357158
-2.3383087274574224,-2.313102123640768,-2.2909905363141028,-2.260551779156377,-2.251240373282077,-2.216494813902977,-2.0881372390222204,-2.0919229781256736,-2.060802719612138,-2.0738127417931764,-2.0074095430847527,-2.051456462052353,17.308750111790243
0.0267689692132272,0.0296938984116929,0.0299226545201633,0.0299078960766215,0.0270220188588098,0.0297619960615067,2.5538106203653465e-11,2.801550465711058e-11,2.8041052056360808e-11,2.5808834594617505e-11,2.514261152816003e-11,2.711372354930908e-11,204.73383504351548
13.232117058214603,13.22836458415605,13.22836475322458,13.23211791460013,13.232118191671171,13.232118468416044,13.213547179887087,13.209856877881066,13.209941729114462,13.21368071213874,13.21376420923366,13.21401579166627,0.004702102812141106
-17.495022711259892,-17.485248144625814,-17.475059948422235,-17.465272190033406,-17.45506891246277,-17.44526816969221,-17.50024634984507,-17.489682125407626,-17.479616717863564,-17.46972842934605,-17.459689941550437,-17.449579104783936,0.0038562977477544108
-0.4030180514020999,-0.403736692296429,-0.4074345476568227,-0.4080806487068997,-0.4057240417908884,-0.4062898793835912,-1.525898856323714,-1.53570582983928,-1.547016359166122,-1.555943444890623,-1.5384337920196032,-1.5379560401087176,24.674500542983946
-2.6126019971942966,-2.6126023147313515,-2.6128981748403883,-2.61289849229698,3.295477039225488,0.2190962424166526,-1.2296089616263544e-43,-1.2286757697975586e-43,-1.2278599444941327e-43,-1.2277627819400975e-43,1.4206117697077645e-43,7.312859988952968e-45,204.73383504351548
21.797880867974868,21.83103208791616,22.03626830069088,22.07081605006952,22.105383057396487,25.786464686945127,21.232425167833277,21.265068810711398,21.457569833983378,21.492072158016793,21.52553559092975,25.128053521656057,2.799443604002059
0.0202300289992338,0.0201823800908957,0.0195731666686781,0.0195376373646448,0.0195019988255635,0.0195702108355794,-1.2433261906463609,-1.2423670855134321,-1.2420807655591617,-1.2420725177277685,-1.2413612765523234,-1.2413604994881282,53.03383702404779
-1.189409540878316,-1.1939997664599746,-1.1832138687876232,-1.1845952147118022,-1.1730661616640594,-1.1789068822030009,-1.035002802892521,-1.036008427075246,-1.041416759124207,-1.0447896347956096,-1.0479146959885028,-1.0415194952616478,161.39038511453083
-22.129527086870063,-22.12443905014229,-22.119462832556213,-22.14263567557757,-22.13831053111831,-22.11898384173205,-22.117612367947345,-22.151671481471226,-22.169953931265354,-22.165616547136096,-22.152223529945104,-22.13806624065751,0.03234325662092817
1.5134114214048306,1.5790761070249375,1.602635862690735,1.632275469940886,1.6482315225619866,1.683188710454478,-1.0115230903581471,-1.051765799892706,-1.0409365267786859,-1.0732787780736681,-1.2210003091512138,-1.1334340845065909,55.08910020887169
0.0863633493988284,0.0876430708214682,0.088921930543666,0.087492921623702,0.0887708674241829,0.0583685701558992,0.030564539932845237,0.031464049343135334,0.03215077207987807,0.031564936986912456,0.03236213818669785,0.012023146568704086,134.19968644671633
-23.13201885723836,-23.12988801654492,-23.127728594320047,-23.06098872592105,-23.05890718972309,-23.085595208945325,-22.91110710129516,-22.985097114159714,-23.013342903865464,-22.875928697953157,-22.847334826663825,-22.8672972631349,0.8029768500205227
-1.4967957086375652,-1.4964671069097988,-1.4961494148526386,-1.495816124211507,-1.4954938772881945,-1.4951693614976822,-1.4963447876415117,-1.496003810802918,-1.4956918751124668,-1.4953640202132235,-1.4950415519009574,-1.494714919620776,0.004102463295206348
0.5536196315865327,0.5512635001213557,0.5486432616067386,0.5439468718216268,0.5407918541915606,0.5268137464609025,0.0022304607576430946,0.0022316151108607994,0.002203636269047821,0.002178877819777761,0.0021631201236242833,0.0021357808890946736,204.73143061793905
-2.1270276458774475,-2.121420286486256,-2.1155326998622392,-2.1099078851486146,-2.104299400769699,-2.0985606623232087,2.055963934844158,2.0333205137488903,1.2736639022554073,2.547194389363767,1.9154719829243732,1.8125347374623288,49.289058610439135
2.0045479444402026,2.107867769568262,2.104978928014307,2.102092244265432,1.970244081903783,1.969726146232739,2.0265894149784174,2.1087593746873665,2.0722388954947633,2.0583814378932743,1.9528491626646627,1.9518001086085235,0.058337727599346065
-7.688000217117811,-7.650816762625401,-7.953505034294944,-7.914414429861252,-7.875328696498712,-7.889668979412164,-9.81106583597284,-9.787430585909533,-10.140983616569429,-10.219755216566227,-10.134988830094699,-9.848514497218275,0.5755475064359051
2.15645557797728,2.168583786537717,2.1807094700411915,1.9740890347527904,1.986406717157612,1.9987385494070449,0.025049419597138467,0.03123964796675338,0.03843465391740608,-0.13674726535282034,-0.12779336953598985,-0.16512990336622124,83.35607699727797
-17.20439220847722,-17.194014351087546,-17.18404525715291,-17.17365432326337,-17.16367258459585,-17.15368370723869,-17.208823410078452,-17.198151895420096,-17.187919415410732,-17.17781957835365,-17.167568609763748,-17.157308261537764,0.003866377195416703
0.0960324091317928,-0.0958085192082296,-0.0958074493436883,-0.0958063818368795,0.0960260169623099,0.0960244605550058,0.09609012741582035,-0.0957324872448968,-0.09573742793945073,-0.09592066829508283,0.09587737006700126,0.09586430911890886,0.004992792423118885
-21.002157291156955,-20.99726522967083,-20.99250098856909,-21.00575776333336,-21.00131311014089,-20.98670564023184,-20.256782576032876,-20.249503228883768,-20.260390266408592,-20.263131346716733,-20.253165248489978,-20.25125718965478,10.078865108367873
-1.4826082028545466,-1.4831782419481605,-1.4728796187950186,-1.473523851171085,-1.4741292701020154,-1.47464478422558,-0.003321596101177983,-0.00324150452941094,-0.003232723728536748,-0.0032628536419072453,-0.003268079618141044,-0.003264071982981978,204.73291700781616
-1.6233081168360468,-1.6204889971784964,-1.6177811948097875,-1.6150717518081052,-1.612247909512489,-1.609533954283104,-1.6227581584762945,-1.6199685049792478,-1.6172546648208268,-1.6144838602352536,-1.611743731699221,-1.6090335041095258,0.004406982991904328
0.0045804284915003,0.003862090508767,0.0018089885949076,0.0020943932065809,0.0014610667361911,0.00086398985367,0.0011052264811713766,0.03428291234622412,0.026892563067253794,-0.04176953860442047,0.004485440226998337,-0.008324127095977088,204.48450932894
-18.144956183357383,-18.13563650653155,-18.125921582970204,-18.11658848733915,-18.107247678842352,-18.097510914718395,-18.14880536011708,-18.13884792725713,-18.129283961966223,-18.119875675424225,-18.11036599838394,-18.100735690028728,0.0038463048767970348
0.4212046867600475,0.4191625472885787,0.4172004214209323,0.415240092365942,0.4132079443909812,0.4112513542896956,0.4211396011570727,0.4190313504949241,0.41681392890901847,0.41512775572556926,0.4131960709669258,0.4111355651677915,0.0041697679374782404
-1.0283746562413305,1.531240528991664,1.547445804020132,-1.346601938116395,-1.3550805676890627,-1.3619748400666791,-0.029258753493846473,0.0027364788134748835,0.01359197437358911,-0.017749133588832507,-0.04181422036857643,-0.03726630353771772,204.64762250535134
-0.0219032383148942,-0.0229558449719556,-0.0220210253962016,-0.0220760433626172,-0.0232174439900116,-0.0232704066247995,-0.021957287888310337,-0.023016028159902027,-0.022066314668339096,-0.022124405530934487,-0.023262538129088555,-0.023321096017893145,0.27083470249241703
-1.0321741921880103,-1.003086450516018,-0.9768652583893824,-0.9496834825636216,-0.9233668818193052,-0.8945389520822933,-2.259051887522685,-2.2503164896331374,-2.2420241476315654,-2.2334530490058606,-2.2282941811143266,-2.219859242968758,58.24555521878879
0.019231850539533,0.0191716918505229,0.0191114100377912,0.0187685484630799,0.0187080365988904,0.0186474011877956,0.006395967367850282,0.0068855079690799586,0.006855378132901143,0.006737388615871946,0.006709789865197433,0.006686433584984878,170.54078787165605
3.696611483202049,3.696109088549196,3.695610020372971,0.1450805294285786,0.1481024674122206,0.8157257547130083,3.685986998849484,3.6860417905958514,3.746393808307475,0.13066776277260214,0.13354470101278887,0.7947500946698796,0.6546040470831064
-1.0580941205780834,-1.062579094940707,-1.0511989326859483,-1.059966786320668,-1.053671513360315,-1.0439622256071477,0.3150097643617767,0.3223119041845616,0.3171583076274904,0.31748661055507205,0.32738341424031214,0.3266210620816835,204.23185338823203
7.104055677945374,7.114796564159689,6.986255580037178,6.9971567655788505,7.202355687280161,7.213028093853844,7.101755155139703,7.1139532751814505,6.988882489320339,7.000945992178083,7.204571030292548,7.215396138402596,0.24883782971944346
55.0610430948116,54.91381637548742,54.91381813164226,54.91381988438949,55.06103869595695,55.06103762664686,55.06454586553542,54.91739278690463,54.917391485551036,54.917457218744175,55.06467703013362,55.06462734856876,0.005608368121139505
-44.383412871773466,-44.38569441156074,-44.40019284597098,-44.466694577797135,-44.47245905458416,-44.47047188293059,-40.57856867734501,-40.486042273226786,-40.547373103433216,-40.55297457240735,-40.496650371832935,-40.4976496199096,101.85662886256546
-1.457909405724865,-1.4984801099552874,-1.4990375840602497,-1.4994629955931595,-1.4875078916466982,-1.4878712269960637,-1.5397626187324742,-1.5829436097461533,-1.583661828400221,-1.582258571214637,-1.571237831703248,-1.5716862827246283,4.796817066040271
-0.115250328388686,-0.1821042438480157,-0.179043609432533,-0.1759826987994278,-0.1528023641147859,-0.1496870651500531,-0.0037233937506409537,-0.008077285450753046,-0.007889358620361124,-0.007712204384569015,-0.006186921702403978,-0.005998781645916412,201.3073640520792
-3.0321344061132582,-3.030538911385656,-3.030215946252208,-3.025233798412829,-3.024983702934288,-3.024730834835895,-3.0921138613068564,-3.094556974046329,-3.0973795098514696,-3.099873107359084,-3.105884350074726,-3.106761539518903,43.24717786751939
-1.963201143599224,-1.9543908012469884,-1.9481338227739755,-1.9424746201965,-1.9377008554634576,-1.9354560788908204,-1.8372729765715359,-1.8377780223222517,-1.838161875181783,-1.8414557142935435,-1.8450401225790796,-1.8497502259038645,8.365183418135766
19.20447151119637,15.962262304426456,15.996607653041766,16.03093295654458,16.018025297824842,16.053396502189706,19.206216794847727,15.971719782498154,15.998987197445771,16.032297957802573,16.019238899712168,16.054441855828443,0.006313447068359778
